; LightBurn 1.5.06
; GRBL device profile, absolute coords
; Bounds: X33.41 Y29.58 to X369.1 Y374.76
G00 G17 G40 G21 G54
G90
M4
; Cut @ 65 mm/sec, 100% power
M8
G0 X38.149Y40.009
; Layer C00 Pass 1 of 10
G1 Y68.458S1000F3900
G1 X45.735
G1 Y40.009
G1 X38.149
; Layer C00 Pass 2 of 10
G1 Y68.458
G1 X45.735
G1 Y40.009
G1 X38.149
; Layer C00 Pass 3 of 10
G1 Y68.458
G1 X45.735
G1 Y40.009
G1 X38.149
; Layer C00 Pass 4 of 10
G1 Y68.458
G1 X45.735
G1 Y40.009
G1 X38.149
; Layer C00 Pass 5 of 10
G1 Y68.458
G1 X45.735
G1 Y40.009
G1 X38.149
; Layer C00 Pass 6 of 10
G1 Y68.458
G1 X45.735
G1 Y40.009
G1 X38.149
; Layer C00 Pass 7 of 10
G1 Y68.458
G1 X45.735
G1 Y40.009
G1 X38.149
; Layer C00 Pass 8 of 10
G1 Y68.458
G1 X45.735
G1 Y40.009
G1 X38.149
; Layer C00 Pass 9 of 10
G1 Y68.458
G1 X45.735
G1 Y40.009
G1 X38.149
; Layer C00 Pass 10 of 10
G1 Y68.458
G1 X45.735
G1 Y40.009
G1 X38.149
G0 X114.961Y39.061
; Layer C00 Pass 1 of 10
G1 Y67.51
G1 X122.547
G1 Y39.061
G1 X114.961
; Layer C00 Pass 2 of 10
G1 Y67.51
G1 X122.547
G1 Y39.061
G1 X114.961
; Layer C00 Pass 3 of 10
G1 Y67.51
G1 X122.547
G1 Y39.061
G1 X114.961
; Layer C00 Pass 4 of 10
G1 Y67.51
G1 X122.547
G1 Y39.061
G1 X114.961
; Layer C00 Pass 5 of 10
G1 Y67.51
G1 X122.547
G1 Y39.061
G1 X114.961
; Layer C00 Pass 6 of 10
G1 Y67.51
G1 X122.547
G1 Y39.061
G1 X114.961
; Layer C00 Pass 7 of 10
G1 Y67.51
G1 X122.547
G1 Y39.061
G1 X114.961
; Layer C00 Pass 8 of 10
G1 Y67.51
G1 X122.547
G1 Y39.061
G1 X114.961
; Layer C00 Pass 9 of 10
G1 Y67.51
G1 X122.547
G1 Y39.061
G1 X114.961
; Layer C00 Pass 10 of 10
G1 Y67.51
G1 X122.547
G1 Y39.061
G1 X114.961
G0 X193.669Y42.854
; Layer C00 Pass 1 of 10
G1 Y71.303
G1 X201.255
G1 Y42.854
G1 X193.669
; Layer C00 Pass 2 of 10
G1 Y71.303
G1 X201.255
G1 Y42.854
G1 X193.669
; Layer C00 Pass 3 of 10
G1 Y71.303
G1 X201.255
G1 Y42.854
G1 X193.669
; Layer C00 Pass 4 of 10
G1 Y71.303
G1 X201.255
G1 Y42.854
G1 X193.669
; Layer C00 Pass 5 of 10
G1 Y71.303
G1 X201.255
G1 Y42.854
G1 X193.669
; Layer C00 Pass 6 of 10
G1 Y71.303
G1 X201.255
G1 Y42.854
G1 X193.669
; Layer C00 Pass 7 of 10
G1 Y71.303
G1 X201.255
G1 Y42.854
G1 X193.669
; Layer C00 Pass 8 of 10
G1 Y71.303
G1 X201.255
G1 Y42.854
G1 X193.669
; Layer C00 Pass 9 of 10
G1 Y71.303
G1 X201.255
G1 Y42.854
G1 X193.669
; Layer C00 Pass 10 of 10
G1 Y71.303
G1 X201.255
G1 Y42.854
G1 X193.669
G0 X272.377Y44.751
; Layer C00 Pass 1 of 10
G1 Y73.2
G1 X279.963
G1 Y44.751
G1 X272.377
; Layer C00 Pass 2 of 10
G1 Y73.2
G1 X279.963
G1 Y44.751
G1 X272.377
; Layer C00 Pass 3 of 10
G1 Y73.2
G1 X279.963
G1 Y44.751
G1 X272.377
; Layer C00 Pass 4 of 10
G1 Y73.2
G1 X279.963
G1 Y44.751
G1 X272.377
; Layer C00 Pass 5 of 10
G1 Y73.2
G1 X279.963
G1 Y44.751
G1 X272.377
; Layer C00 Pass 6 of 10
G1 Y73.2
G1 X279.963
G1 Y44.751
G1 X272.377
; Layer C00 Pass 7 of 10
G1 Y73.2
G1 X279.963
G1 Y44.751
G1 X272.377
; Layer C00 Pass 8 of 10
G1 Y73.2
G1 X279.963
G1 Y44.751
G1 X272.377
; Layer C00 Pass 9 of 10
G1 Y73.2
G1 X279.963
G1 Y44.751
G1 X272.377
; Layer C00 Pass 10 of 10
G1 Y73.2
G1 X279.963
G1 Y44.751
G1 X272.377
G0 X272.377Y139.58
; Layer C00 Pass 1 of 10
G1 X279.963
G1 Y168.029
G1 X272.377
G1 Y139.58
; Layer C00 Pass 2 of 10
G1 X279.963
G1 Y168.029
G1 X272.377
G1 Y139.58
; Layer C00 Pass 3 of 10
G1 X279.963
G1 Y168.029
G1 X272.377
G1 Y139.58
; Layer C00 Pass 4 of 10
G1 X279.963
G1 Y168.029
G1 X272.377
G1 Y139.58
; Layer C00 Pass 5 of 10
G1 X279.963
G1 Y168.029
G1 X272.377
G1 Y139.58
; Layer C00 Pass 6 of 10
G1 X279.963
G1 Y168.029
G1 X272.377
G1 Y139.58
; Layer C00 Pass 7 of 10
G1 X279.963
G1 Y168.029
G1 X272.377
G1 Y139.58
; Layer C00 Pass 8 of 10
G1 X279.963
G1 Y168.029
G1 X272.377
G1 Y139.58
; Layer C00 Pass 9 of 10
G1 X279.963
G1 Y168.029
G1 X272.377
G1 Y139.58
; Layer C00 Pass 10 of 10
G1 X279.963
G1 Y168.029
G1 X272.377
G1 Y139.58
G0 X290.394Y130.097
; Layer C00 Pass 1 of 10
G1 Y118.717
G1 X284.704
G1 Y177.511
G1 X267.635
G1 Y35.268
G1 X284.704
G1 Y94.062
G1 X290.394
G1 Y82.682
G1 X318.843
G1 X337.809Y106.39
G1 X318.843Y130.097
G1 X290.394
; Layer C00 Pass 2 of 10
G1 Y118.717
G1 X284.704
G1 Y177.511
G1 X267.635
G1 Y35.268
G1 X284.704
G1 Y94.062
G1 X290.394
G1 Y82.682
G1 X318.843
G1 X337.809Y106.39
G1 X318.843Y130.097
G1 X290.394
; Layer C00 Pass 3 of 10
G1 Y118.717
G1 X284.704
G1 Y177.511
G1 X267.635
G1 Y35.268
G1 X284.704
G1 Y94.062
G1 X290.394
G1 Y82.682
G1 X318.843
G1 X337.809Y106.39
G1 X318.843Y130.097
G1 X290.394
; Layer C00 Pass 4 of 10
G1 Y118.717
G1 X284.704
G1 Y177.511
G1 X267.635
G1 Y35.268
G1 X284.704
G1 Y94.062
G1 X290.394
G1 Y82.682
G1 X318.843
G1 X337.809Y106.39
G1 X318.843Y130.097
G1 X290.394
; Layer C00 Pass 5 of 10
G1 Y118.717
G1 X284.704
G1 Y177.511
G1 X267.635
G1 Y35.268
G1 X284.704
G1 Y94.062
G1 X290.394
G1 Y82.682
G1 X318.843
G1 X337.809Y106.39
G1 X318.843Y130.097
G1 X290.394
; Layer C00 Pass 6 of 10
G1 Y118.717
G1 X284.704
G1 Y177.511
G1 X267.635
G1 Y35.268
G1 X284.704
G1 Y94.062
G1 X290.394
G1 Y82.682
G1 X318.843
G1 X337.809Y106.39
G1 X318.843Y130.097
G1 X290.394
; Layer C00 Pass 7 of 10
G1 Y118.717
G1 X284.704
G1 Y177.511
G1 X267.635
G1 Y35.268
G1 X284.704
G1 Y94.062
G1 X290.394
G1 Y82.682
G1 X318.843
G1 X337.809Y106.39
G1 X318.843Y130.097
G1 X290.394
; Layer C00 Pass 8 of 10
G1 Y118.717
G1 X284.704
G1 Y177.511
G1 X267.635
G1 Y35.268
G1 X284.704
G1 Y94.062
G1 X290.394
G1 Y82.682
G1 X318.843
G1 X337.809Y106.39
G1 X318.843Y130.097
G1 X290.394
; Layer C00 Pass 9 of 10
G1 Y118.717
G1 X284.704
G1 Y177.511
G1 X267.635
G1 Y35.268
G1 X284.704
G1 Y94.062
G1 X290.394
G1 Y82.682
G1 X318.843
G1 X337.809Y106.39
G1 X318.843Y130.097
G1 X290.394
; Layer C00 Pass 10 of 10
G1 Y118.717
G1 X284.704
G1 Y177.511
G1 X267.635
G1 Y35.268
G1 X284.704
G1 Y94.062
G1 X290.394
G1 Y82.682
G1 X318.843
G1 X337.809Y106.39
G1 X318.843Y130.097
G1 X290.394
G0 X303.67Y141.476
; Layer C00 Pass 1 of 10
G1 Y169.925
G1 X311.256
G1 Y141.476
G1 X303.67
; Layer C00 Pass 2 of 10
G1 Y169.925
G1 X311.256
G1 Y141.476
G1 X303.67
; Layer C00 Pass 3 of 10
G1 Y169.925
G1 X311.256
G1 Y141.476
G1 X303.67
; Layer C00 Pass 4 of 10
G1 Y169.925
G1 X311.256
G1 Y141.476
G1 X303.67
; Layer C00 Pass 5 of 10
G1 Y169.925
G1 X311.256
G1 Y141.476
G1 X303.67
; Layer C00 Pass 6 of 10
G1 Y169.925
G1 X311.256
G1 Y141.476
G1 X303.67
; Layer C00 Pass 7 of 10
G1 Y169.925
G1 X311.256
G1 Y141.476
G1 X303.67
; Layer C00 Pass 8 of 10
G1 Y169.925
G1 X311.256
G1 Y141.476
G1 X303.67
; Layer C00 Pass 9 of 10
G1 Y169.925
G1 X311.256
G1 Y141.476
G1 X303.67
; Layer C00 Pass 10 of 10
G1 Y169.925
G1 X311.256
G1 Y141.476
G1 X303.67
G0 X234.424Y141.188
; Layer C00 Pass 1 of 10
G1 X226.837
G1 Y169.637
G1 X234.424
G1 Y141.188
; Layer C00 Pass 2 of 10
G1 X226.837
G1 Y169.637
G1 X234.424
G1 Y141.188
; Layer C00 Pass 3 of 10
G1 X226.837
G1 Y169.637
G1 X234.424
G1 Y141.188
; Layer C00 Pass 4 of 10
G1 X226.837
G1 Y169.637
G1 X234.424
G1 Y141.188
; Layer C00 Pass 5 of 10
G1 X226.837
G1 Y169.637
G1 X234.424
G1 Y141.188
; Layer C00 Pass 6 of 10
G1 X226.837
G1 Y169.637
G1 X234.424
G1 Y141.188
; Layer C00 Pass 7 of 10
G1 X226.837
G1 Y169.637
G1 X234.424
G1 Y141.188
; Layer C00 Pass 8 of 10
G1 X226.837
G1 Y169.637
G1 X234.424
G1 Y141.188
; Layer C00 Pass 9 of 10
G1 X226.837
G1 Y169.637
G1 X234.424
G1 Y141.188
; Layer C00 Pass 10 of 10
G1 X226.837
G1 Y169.637
G1 X234.424
G1 Y141.188
G0 X201.255Y132.942
; Layer C00 Pass 1 of 10
G1 Y161.39
G1 X193.669
G1 Y132.942
G1 X201.255
; Layer C00 Pass 2 of 10
G1 Y161.39
G1 X193.669
G1 Y132.942
G1 X201.255
; Layer C00 Pass 3 of 10
G1 Y161.39
G1 X193.669
G1 Y132.942
G1 X201.255
; Layer C00 Pass 4 of 10
G1 Y161.39
G1 X193.669
G1 Y132.942
G1 X201.255
; Layer C00 Pass 5 of 10
G1 Y161.39
G1 X193.669
G1 Y132.942
G1 X201.255
; Layer C00 Pass 6 of 10
G1 Y161.39
G1 X193.669
G1 Y132.942
G1 X201.255
; Layer C00 Pass 7 of 10
G1 Y161.39
G1 X193.669
G1 Y132.942
G1 X201.255
; Layer C00 Pass 8 of 10
G1 Y161.39
G1 X193.669
G1 Y132.942
G1 X201.255
; Layer C00 Pass 9 of 10
G1 Y161.39
G1 X193.669
G1 Y132.942
G1 X201.255
; Layer C00 Pass 10 of 10
G1 Y161.39
G1 X193.669
G1 Y132.942
G1 X201.255
G0 X211.686Y128.2
; Layer C00 Pass 1 of 10
G1 Y116.821
G1 X205.996
G1 Y175.615
G1 X188.927
G1 Y33.371
G1 X205.996
G1 Y92.165
G1 X211.686
G1 Y80.786
G1 X240.135
G1 X259.101Y104.493
G1 X240.135Y128.2
G1 X211.686
; Layer C00 Pass 2 of 10
G1 Y116.821
G1 X205.996
G1 Y175.615
G1 X188.927
G1 Y33.371
G1 X205.996
G1 Y92.165
G1 X211.686
G1 Y80.786
G1 X240.135
G1 X259.101Y104.493
G1 X240.135Y128.2
G1 X211.686
; Layer C00 Pass 3 of 10
G1 Y116.821
G1 X205.996
G1 Y175.615
G1 X188.927
G1 Y33.371
G1 X205.996
G1 Y92.165
G1 X211.686
G1 Y80.786
G1 X240.135
G1 X259.101Y104.493
G1 X240.135Y128.2
G1 X211.686
; Layer C00 Pass 4 of 10
G1 Y116.821
G1 X205.996
G1 Y175.615
G1 X188.927
G1 Y33.371
G1 X205.996
G1 Y92.165
G1 X211.686
G1 Y80.786
G1 X240.135
G1 X259.101Y104.493
G1 X240.135Y128.2
G1 X211.686
; Layer C00 Pass 5 of 10
G1 Y116.821
G1 X205.996
G1 Y175.615
G1 X188.927
G1 Y33.371
G1 X205.996
G1 Y92.165
G1 X211.686
G1 Y80.786
G1 X240.135
G1 X259.101Y104.493
G1 X240.135Y128.2
G1 X211.686
; Layer C00 Pass 6 of 10
G1 Y116.821
G1 X205.996
G1 Y175.615
G1 X188.927
G1 Y33.371
G1 X205.996
G1 Y92.165
G1 X211.686
G1 Y80.786
G1 X240.135
G1 X259.101Y104.493
G1 X240.135Y128.2
G1 X211.686
; Layer C00 Pass 7 of 10
G1 Y116.821
G1 X205.996
G1 Y175.615
G1 X188.927
G1 Y33.371
G1 X205.996
G1 Y92.165
G1 X211.686
G1 Y80.786
G1 X240.135
G1 X259.101Y104.493
G1 X240.135Y128.2
G1 X211.686
; Layer C00 Pass 8 of 10
G1 Y116.821
G1 X205.996
G1 Y175.615
G1 X188.927
G1 Y33.371
G1 X205.996
G1 Y92.165
G1 X211.686
G1 Y80.786
G1 X240.135
G1 X259.101Y104.493
G1 X240.135Y128.2
G1 X211.686
; Layer C00 Pass 9 of 10
G1 Y116.821
G1 X205.996
G1 Y175.615
G1 X188.927
G1 Y33.371
G1 X205.996
G1 Y92.165
G1 X211.686
G1 Y80.786
G1 X240.135
G1 X259.101Y104.493
G1 X240.135Y128.2
G1 X211.686
; Layer C00 Pass 10 of 10
G1 Y116.821
G1 X205.996
G1 Y175.615
G1 X188.927
G1 Y33.371
G1 X205.996
G1 Y92.165
G1 X211.686
G1 Y80.786
G1 X240.135
G1 X259.101Y104.493
G1 X240.135Y128.2
G1 X211.686
G0 X161.427Y140.528
; Layer C00 Pass 1 of 10
G1 X153.84
G1 Y168.977
G1 X161.427
G1 Y140.528
; Layer C00 Pass 2 of 10
G1 X153.84
G1 Y168.977
G1 X161.427
G1 Y140.528
; Layer C00 Pass 3 of 10
G1 X153.84
G1 Y168.977
G1 X161.427
G1 Y140.528
; Layer C00 Pass 4 of 10
G1 X153.84
G1 Y168.977
G1 X161.427
G1 Y140.528
; Layer C00 Pass 5 of 10
G1 X153.84
G1 Y168.977
G1 X161.427
G1 Y140.528
; Layer C00 Pass 6 of 10
G1 X153.84
G1 Y168.977
G1 X161.427
G1 Y140.528
; Layer C00 Pass 7 of 10
G1 X153.84
G1 Y168.977
G1 X161.427
G1 Y140.528
; Layer C00 Pass 8 of 10
G1 X153.84
G1 Y168.977
G1 X161.427
G1 Y140.528
; Layer C00 Pass 9 of 10
G1 X153.84
G1 Y168.977
G1 X161.427
G1 Y140.528
; Layer C00 Pass 10 of 10
G1 X153.84
G1 Y168.977
G1 X161.427
G1 Y140.528
G0 X122.547Y133.89
; Layer C00 Pass 1 of 10
G1 Y162.339
G1 X114.961
G1 Y133.89
G1 X122.547
; Layer C00 Pass 2 of 10
G1 Y162.339
G1 X114.961
G1 Y133.89
G1 X122.547
; Layer C00 Pass 3 of 10
G1 Y162.339
G1 X114.961
G1 Y133.89
G1 X122.547
; Layer C00 Pass 4 of 10
G1 Y162.339
G1 X114.961
G1 Y133.89
G1 X122.547
; Layer C00 Pass 5 of 10
G1 Y162.339
G1 X114.961
G1 Y133.89
G1 X122.547
; Layer C00 Pass 6 of 10
G1 Y162.339
G1 X114.961
G1 Y133.89
G1 X122.547
; Layer C00 Pass 7 of 10
G1 Y162.339
G1 X114.961
G1 Y133.89
G1 X122.547
; Layer C00 Pass 8 of 10
G1 Y162.339
G1 X114.961
G1 Y133.89
G1 X122.547
; Layer C00 Pass 9 of 10
G1 Y162.339
G1 X114.961
G1 Y133.89
G1 X122.547
; Layer C00 Pass 10 of 10
G1 Y162.339
G1 X114.961
G1 Y133.89
G1 X122.547
G0 X132.978Y124.407
; Layer C00 Pass 1 of 10
G1 Y113.028
G1 X127.288
G1 Y171.822
G1 X110.219
G1 Y29.578
G1 X127.288
G1 Y88.372
G1 X132.978
G1 Y76.993
G1 X161.427
G1 X180.392Y100.7
G1 X161.427Y124.407
G1 X132.978
; Layer C00 Pass 2 of 10
G1 Y113.028
G1 X127.288
G1 Y171.822
G1 X110.219
G1 Y29.578
G1 X127.288
G1 Y88.372
G1 X132.978
G1 Y76.993
G1 X161.427
G1 X180.392Y100.7
G1 X161.427Y124.407
G1 X132.978
; Layer C00 Pass 3 of 10
G1 Y113.028
G1 X127.288
G1 Y171.822
G1 X110.219
G1 Y29.578
G1 X127.288
G1 Y88.372
G1 X132.978
G1 Y76.993
G1 X161.427
G1 X180.392Y100.7
G1 X161.427Y124.407
G1 X132.978
; Layer C00 Pass 4 of 10
G1 Y113.028
G1 X127.288
G1 Y171.822
G1 X110.219
G1 Y29.578
G1 X127.288
G1 Y88.372
G1 X132.978
G1 Y76.993
G1 X161.427
G1 X180.392Y100.7
G1 X161.427Y124.407
G1 X132.978
; Layer C00 Pass 5 of 10
G1 Y113.028
G1 X127.288
G1 Y171.822
G1 X110.219
G1 Y29.578
G1 X127.288
G1 Y88.372
G1 X132.978
G1 Y76.993
G1 X161.427
G1 X180.392Y100.7
G1 X161.427Y124.407
G1 X132.978
; Layer C00 Pass 6 of 10
G1 Y113.028
G1 X127.288
G1 Y171.822
G1 X110.219
G1 Y29.578
G1 X127.288
G1 Y88.372
G1 X132.978
G1 Y76.993
G1 X161.427
G1 X180.392Y100.7
G1 X161.427Y124.407
G1 X132.978
; Layer C00 Pass 7 of 10
G1 Y113.028
G1 X127.288
G1 Y171.822
G1 X110.219
G1 Y29.578
G1 X127.288
G1 Y88.372
G1 X132.978
G1 Y76.993
G1 X161.427
G1 X180.392Y100.7
G1 X161.427Y124.407
G1 X132.978
; Layer C00 Pass 8 of 10
G1 Y113.028
G1 X127.288
G1 Y171.822
G1 X110.219
G1 Y29.578
G1 X127.288
G1 Y88.372
G1 X132.978
G1 Y76.993
G1 X161.427
G1 X180.392Y100.7
G1 X161.427Y124.407
G1 X132.978
; Layer C00 Pass 9 of 10
G1 Y113.028
G1 X127.288
G1 Y171.822
G1 X110.219
G1 Y29.578
G1 X127.288
G1 Y88.372
G1 X132.978
G1 Y76.993
G1 X161.427
G1 X180.392Y100.7
G1 X161.427Y124.407
G1 X132.978
; Layer C00 Pass 10 of 10
G1 Y113.028
G1 X127.288
G1 Y171.822
G1 X110.219
G1 Y29.578
G1 X127.288
G1 Y88.372
G1 X132.978
G1 Y76.993
G1 X161.427
G1 X180.392Y100.7
G1 X161.427Y124.407
G1 X132.978
G0 X84.615Y141.476
; Layer C00 Pass 1 of 10
G1 X77.029
G1 Y169.925
G1 X84.615
G1 Y141.476
; Layer C00 Pass 2 of 10
G1 X77.029
G1 Y169.925
G1 X84.615
G1 Y141.476
; Layer C00 Pass 3 of 10
G1 X77.029
G1 Y169.925
G1 X84.615
G1 Y141.476
; Layer C00 Pass 4 of 10
G1 X77.029
G1 Y169.925
G1 X84.615
G1 Y141.476
; Layer C00 Pass 5 of 10
G1 X77.029
G1 Y169.925
G1 X84.615
G1 Y141.476
; Layer C00 Pass 6 of 10
G1 X77.029
G1 Y169.925
G1 X84.615
G1 Y141.476
; Layer C00 Pass 7 of 10
G1 X77.029
G1 Y169.925
G1 X84.615
G1 Y141.476
; Layer C00 Pass 8 of 10
G1 X77.029
G1 Y169.925
G1 X84.615
G1 Y141.476
; Layer C00 Pass 9 of 10
G1 X77.029
G1 Y169.925
G1 X84.615
G1 Y141.476
; Layer C00 Pass 10 of 10
G1 X77.029
G1 Y169.925
G1 X84.615
G1 Y141.476
G0 X45.735Y134.838
; Layer C00 Pass 1 of 10
G1 Y163.287
G1 X38.149
G1 Y134.838
G1 X45.735
; Layer C00 Pass 2 of 10
G1 Y163.287
G1 X38.149
G1 Y134.838
G1 X45.735
; Layer C00 Pass 3 of 10
G1 Y163.287
G1 X38.149
G1 Y134.838
G1 X45.735
; Layer C00 Pass 4 of 10
G1 Y163.287
G1 X38.149
G1 Y134.838
G1 X45.735
; Layer C00 Pass 5 of 10
G1 Y163.287
G1 X38.149
G1 Y134.838
G1 X45.735
; Layer C00 Pass 6 of 10
G1 Y163.287
G1 X38.149
G1 Y134.838
G1 X45.735
; Layer C00 Pass 7 of 10
G1 Y163.287
G1 X38.149
G1 Y134.838
G1 X45.735
; Layer C00 Pass 8 of 10
G1 Y163.287
G1 X38.149
G1 Y134.838
G1 X45.735
; Layer C00 Pass 9 of 10
G1 Y163.287
G1 X38.149
G1 Y134.838
G1 X45.735
; Layer C00 Pass 10 of 10
G1 Y163.287
G1 X38.149
G1 Y134.838
G1 X45.735
G0 X56.167Y125.355
; Layer C00 Pass 1 of 10
G1 Y113.976
G1 X50.477
G1 Y172.77
G1 X33.408
G1 Y30.527
G1 X50.477
G1 Y89.32
G1 X56.167
G1 Y77.941
G1 X84.615
G1 X103.581Y101.648
G1 X84.615Y125.355
G1 X56.167
; Layer C00 Pass 2 of 10
G1 Y113.976
G1 X50.477
G1 Y172.77
G1 X33.408
G1 Y30.527
G1 X50.477
G1 Y89.32
G1 X56.167
G1 Y77.941
G1 X84.615
G1 X103.581Y101.648
G1 X84.615Y125.355
G1 X56.167
; Layer C00 Pass 3 of 10
G1 Y113.976
G1 X50.477
G1 Y172.77
G1 X33.408
G1 Y30.527
G1 X50.477
G1 Y89.32
G1 X56.167
G1 Y77.941
G1 X84.615
G1 X103.581Y101.648
G1 X84.615Y125.355
G1 X56.167
; Layer C00 Pass 4 of 10
G1 Y113.976
G1 X50.477
G1 Y172.77
G1 X33.408
G1 Y30.527
G1 X50.477
G1 Y89.32
G1 X56.167
G1 Y77.941
G1 X84.615
G1 X103.581Y101.648
G1 X84.615Y125.355
G1 X56.167
; Layer C00 Pass 5 of 10
G1 Y113.976
G1 X50.477
G1 Y172.77
G1 X33.408
G1 Y30.527
G1 X50.477
G1 Y89.32
G1 X56.167
G1 Y77.941
G1 X84.615
G1 X103.581Y101.648
G1 X84.615Y125.355
G1 X56.167
; Layer C00 Pass 6 of 10
G1 Y113.976
G1 X50.477
G1 Y172.77
G1 X33.408
G1 Y30.527
G1 X50.477
G1 Y89.32
G1 X56.167
G1 Y77.941
G1 X84.615
G1 X103.581Y101.648
G1 X84.615Y125.355
G1 X56.167
; Layer C00 Pass 7 of 10
G1 Y113.976
G1 X50.477
G1 Y172.77
G1 X33.408
G1 Y30.527
G1 X50.477
G1 Y89.32
G1 X56.167
G1 Y77.941
G1 X84.615
G1 X103.581Y101.648
G1 X84.615Y125.355
G1 X56.167
; Layer C00 Pass 8 of 10
G1 Y113.976
G1 X50.477
G1 Y172.77
G1 X33.408
G1 Y30.527
G1 X50.477
G1 Y89.32
G1 X56.167
G1 Y77.941
G1 X84.615
G1 X103.581Y101.648
G1 X84.615Y125.355
G1 X56.167
; Layer C00 Pass 9 of 10
G1 Y113.976
G1 X50.477
G1 Y172.77
G1 X33.408
G1 Y30.527
G1 X50.477
G1 Y89.32
G1 X56.167
G1 Y77.941
G1 X84.615
G1 X103.581Y101.648
G1 X84.615Y125.355
G1 X56.167
; Layer C00 Pass 10 of 10
G1 Y113.976
G1 X50.477
G1 Y172.77
G1 X33.408
G1 Y30.527
G1 X50.477
G1 Y89.32
G1 X56.167
G1 Y77.941
G1 X84.615
G1 X103.581Y101.648
G1 X84.615Y125.355
G1 X56.167
G0 X77.029Y236.305
; Layer C00 Pass 1 of 10
G1 X84.615
G1 Y264.754
G1 X77.029
G1 Y236.305
; Layer C00 Pass 2 of 10
G1 X84.615
G1 Y264.754
G1 X77.029
G1 Y236.305
; Layer C00 Pass 3 of 10
G1 X84.615
G1 Y264.754
G1 X77.029
G1 Y236.305
; Layer C00 Pass 4 of 10
G1 X84.615
G1 Y264.754
G1 X77.029
G1 Y236.305
; Layer C00 Pass 5 of 10
G1 X84.615
G1 Y264.754
G1 X77.029
G1 Y236.305
; Layer C00 Pass 6 of 10
G1 X84.615
G1 Y264.754
G1 X77.029
G1 Y236.305
; Layer C00 Pass 7 of 10
G1 X84.615
G1 Y264.754
G1 X77.029
G1 Y236.305
; Layer C00 Pass 8 of 10
G1 X84.615
G1 Y264.754
G1 X77.029
G1 Y236.305
; Layer C00 Pass 9 of 10
G1 X84.615
G1 Y264.754
G1 X77.029
G1 Y236.305
; Layer C00 Pass 10 of 10
G1 X84.615
G1 Y264.754
G1 X77.029
G1 Y236.305
G0 X95.046Y226.822
; Layer C00 Pass 1 of 10
G1 Y215.443
G1 X89.357
G1 Y274.237
G1 X72.287
G1 Y131.993
G1 X89.357
G1 Y190.787
G1 X95.046
G1 Y179.408
G1 X123.495
G1 X142.461Y203.115
G1 X123.495Y226.822
G1 X95.046
; Layer C00 Pass 2 of 10
G1 Y215.443
G1 X89.357
G1 Y274.237
G1 X72.287
G1 Y131.993
G1 X89.357
G1 Y190.787
G1 X95.046
G1 Y179.408
G1 X123.495
G1 X142.461Y203.115
G1 X123.495Y226.822
G1 X95.046
; Layer C00 Pass 3 of 10
G1 Y215.443
G1 X89.357
G1 Y274.237
G1 X72.287
G1 Y131.993
G1 X89.357
G1 Y190.787
G1 X95.046
G1 Y179.408
G1 X123.495
G1 X142.461Y203.115
G1 X123.495Y226.822
G1 X95.046
; Layer C00 Pass 4 of 10
G1 Y215.443
G1 X89.357
G1 Y274.237
G1 X72.287
G1 Y131.993
G1 X89.357
G1 Y190.787
G1 X95.046
G1 Y179.408
G1 X123.495
G1 X142.461Y203.115
G1 X123.495Y226.822
G1 X95.046
; Layer C00 Pass 5 of 10
G1 Y215.443
G1 X89.357
G1 Y274.237
G1 X72.287
G1 Y131.993
G1 X89.357
G1 Y190.787
G1 X95.046
G1 Y179.408
G1 X123.495
G1 X142.461Y203.115
G1 X123.495Y226.822
G1 X95.046
; Layer C00 Pass 6 of 10
G1 Y215.443
G1 X89.357
G1 Y274.237
G1 X72.287
G1 Y131.993
G1 X89.357
G1 Y190.787
G1 X95.046
G1 Y179.408
G1 X123.495
G1 X142.461Y203.115
G1 X123.495Y226.822
G1 X95.046
; Layer C00 Pass 7 of 10
G1 Y215.443
G1 X89.357
G1 Y274.237
G1 X72.287
G1 Y131.993
G1 X89.357
G1 Y190.787
G1 X95.046
G1 Y179.408
G1 X123.495
G1 X142.461Y203.115
G1 X123.495Y226.822
G1 X95.046
; Layer C00 Pass 8 of 10
G1 Y215.443
G1 X89.357
G1 Y274.237
G1 X72.287
G1 Y131.993
G1 X89.357
G1 Y190.787
G1 X95.046
G1 Y179.408
G1 X123.495
G1 X142.461Y203.115
G1 X123.495Y226.822
G1 X95.046
; Layer C00 Pass 9 of 10
G1 Y215.443
G1 X89.357
G1 Y274.237
G1 X72.287
G1 Y131.993
G1 X89.357
G1 Y190.787
G1 X95.046
G1 Y179.408
G1 X123.495
G1 X142.461Y203.115
G1 X123.495Y226.822
G1 X95.046
; Layer C00 Pass 10 of 10
G1 Y215.443
G1 X89.357
G1 Y274.237
G1 X72.287
G1 Y131.993
G1 X89.357
G1 Y190.787
G1 X95.046
G1 Y179.408
G1 X123.495
G1 X142.461Y203.115
G1 X123.495Y226.822
G1 X95.046
G0 X118.754Y238.202
; Layer C00 Pass 1 of 10
G1 Y266.651
G1 X126.34
G1 Y238.202
G1 X118.754
; Layer C00 Pass 2 of 10
G1 Y266.651
G1 X126.34
G1 Y238.202
G1 X118.754
; Layer C00 Pass 3 of 10
G1 Y266.651
G1 X126.34
G1 Y238.202
G1 X118.754
; Layer C00 Pass 4 of 10
G1 Y266.651
G1 X126.34
G1 Y238.202
G1 X118.754
; Layer C00 Pass 5 of 10
G1 Y266.651
G1 X126.34
G1 Y238.202
G1 X118.754
; Layer C00 Pass 6 of 10
G1 Y266.651
G1 X126.34
G1 Y238.202
G1 X118.754
; Layer C00 Pass 7 of 10
G1 Y266.651
G1 X126.34
G1 Y238.202
G1 X118.754
; Layer C00 Pass 8 of 10
G1 Y266.651
G1 X126.34
G1 Y238.202
G1 X118.754
; Layer C00 Pass 9 of 10
G1 Y266.651
G1 X126.34
G1 Y238.202
G1 X118.754
; Layer C00 Pass 10 of 10
G1 Y266.651
G1 X126.34
G1 Y238.202
G1 X118.754
G0 X153.84Y235.357
; Layer C00 Pass 1 of 10
G1 X161.427
G1 Y263.806
G1 X153.84
G1 Y235.357
; Layer C00 Pass 2 of 10
G1 X161.427
G1 Y263.806
G1 X153.84
G1 Y235.357
; Layer C00 Pass 3 of 10
G1 X161.427
G1 Y263.806
G1 X153.84
G1 Y235.357
; Layer C00 Pass 4 of 10
G1 X161.427
G1 Y263.806
G1 X153.84
G1 Y235.357
; Layer C00 Pass 5 of 10
G1 X161.427
G1 Y263.806
G1 X153.84
G1 Y235.357
; Layer C00 Pass 6 of 10
G1 X161.427
G1 Y263.806
G1 X153.84
G1 Y235.357
; Layer C00 Pass 7 of 10
G1 X161.427
G1 Y263.806
G1 X153.84
G1 Y235.357
; Layer C00 Pass 8 of 10
G1 X161.427
G1 Y263.806
G1 X153.84
G1 Y235.357
; Layer C00 Pass 9 of 10
G1 X161.427
G1 Y263.806
G1 X153.84
G1 Y235.357
; Layer C00 Pass 10 of 10
G1 X161.427
G1 Y263.806
G1 X153.84
G1 Y235.357
G0 X171.858Y225.874
; Layer C00 Pass 1 of 10
G1 Y214.495
G1 X166.168
G1 Y273.289
G1 X149.099
G1 Y131.045
G1 X166.168
G1 Y189.839
G1 X171.858
G1 Y178.46
G1 X200.307
G1 X219.272Y202.167
G1 X200.307Y225.874
G1 X171.858
; Layer C00 Pass 2 of 10
G1 Y214.495
G1 X166.168
G1 Y273.289
G1 X149.099
G1 Y131.045
G1 X166.168
G1 Y189.839
G1 X171.858
G1 Y178.46
G1 X200.307
G1 X219.272Y202.167
G1 X200.307Y225.874
G1 X171.858
; Layer C00 Pass 3 of 10
G1 Y214.495
G1 X166.168
G1 Y273.289
G1 X149.099
G1 Y131.045
G1 X166.168
G1 Y189.839
G1 X171.858
G1 Y178.46
G1 X200.307
G1 X219.272Y202.167
G1 X200.307Y225.874
G1 X171.858
; Layer C00 Pass 4 of 10
G1 Y214.495
G1 X166.168
G1 Y273.289
G1 X149.099
G1 Y131.045
G1 X166.168
G1 Y189.839
G1 X171.858
G1 Y178.46
G1 X200.307
G1 X219.272Y202.167
G1 X200.307Y225.874
G1 X171.858
; Layer C00 Pass 5 of 10
G1 Y214.495
G1 X166.168
G1 Y273.289
G1 X149.099
G1 Y131.045
G1 X166.168
G1 Y189.839
G1 X171.858
G1 Y178.46
G1 X200.307
G1 X219.272Y202.167
G1 X200.307Y225.874
G1 X171.858
; Layer C00 Pass 6 of 10
G1 Y214.495
G1 X166.168
G1 Y273.289
G1 X149.099
G1 Y131.045
G1 X166.168
G1 Y189.839
G1 X171.858
G1 Y178.46
G1 X200.307
G1 X219.272Y202.167
G1 X200.307Y225.874
G1 X171.858
; Layer C00 Pass 7 of 10
G1 Y214.495
G1 X166.168
G1 Y273.289
G1 X149.099
G1 Y131.045
G1 X166.168
G1 Y189.839
G1 X171.858
G1 Y178.46
G1 X200.307
G1 X219.272Y202.167
G1 X200.307Y225.874
G1 X171.858
; Layer C00 Pass 8 of 10
G1 Y214.495
G1 X166.168
G1 Y273.289
G1 X149.099
G1 Y131.045
G1 X166.168
G1 Y189.839
G1 X171.858
G1 Y178.46
G1 X200.307
G1 X219.272Y202.167
G1 X200.307Y225.874
G1 X171.858
; Layer C00 Pass 9 of 10
G1 Y214.495
G1 X166.168
G1 Y273.289
G1 X149.099
G1 Y131.045
G1 X166.168
G1 Y189.839
G1 X171.858
G1 Y178.46
G1 X200.307
G1 X219.272Y202.167
G1 X200.307Y225.874
G1 X171.858
; Layer C00 Pass 10 of 10
G1 Y214.495
G1 X166.168
G1 Y273.289
G1 X149.099
G1 Y131.045
G1 X166.168
G1 Y189.839
G1 X171.858
G1 Y178.46
G1 X200.307
G1 X219.272Y202.167
G1 X200.307Y225.874
G1 X171.858
G0 X192.72Y241.995
; Layer C00 Pass 1 of 10
G1 Y270.444
G1 X200.307
G1 Y241.995
G1 X192.72
; Layer C00 Pass 2 of 10
G1 Y270.444
G1 X200.307
G1 Y241.995
G1 X192.72
; Layer C00 Pass 3 of 10
G1 Y270.444
G1 X200.307
G1 Y241.995
G1 X192.72
; Layer C00 Pass 4 of 10
G1 Y270.444
G1 X200.307
G1 Y241.995
G1 X192.72
; Layer C00 Pass 5 of 10
G1 Y270.444
G1 X200.307
G1 Y241.995
G1 X192.72
; Layer C00 Pass 6 of 10
G1 Y270.444
G1 X200.307
G1 Y241.995
G1 X192.72
; Layer C00 Pass 7 of 10
G1 Y270.444
G1 X200.307
G1 Y241.995
G1 X192.72
; Layer C00 Pass 8 of 10
G1 Y270.444
G1 X200.307
G1 Y241.995
G1 X192.72
; Layer C00 Pass 9 of 10
G1 Y270.444
G1 X200.307
G1 Y241.995
G1 X192.72
; Layer C00 Pass 10 of 10
G1 Y270.444
G1 X200.307
G1 Y241.995
G1 X192.72
G0 X226.837Y236.017
; Layer C00 Pass 1 of 10
G1 X234.424
G1 Y264.466
G1 X226.837
G1 Y236.017
; Layer C00 Pass 2 of 10
G1 X234.424
G1 Y264.466
G1 X226.837
G1 Y236.017
; Layer C00 Pass 3 of 10
G1 X234.424
G1 Y264.466
G1 X226.837
G1 Y236.017
; Layer C00 Pass 4 of 10
G1 X234.424
G1 Y264.466
G1 X226.837
G1 Y236.017
; Layer C00 Pass 5 of 10
G1 X234.424
G1 Y264.466
G1 X226.837
G1 Y236.017
; Layer C00 Pass 6 of 10
G1 X234.424
G1 Y264.466
G1 X226.837
G1 Y236.017
; Layer C00 Pass 7 of 10
G1 X234.424
G1 Y264.466
G1 X226.837
G1 Y236.017
; Layer C00 Pass 8 of 10
G1 X234.424
G1 Y264.466
G1 X226.837
G1 Y236.017
; Layer C00 Pass 9 of 10
G1 X234.424
G1 Y264.466
G1 X226.837
G1 Y236.017
; Layer C00 Pass 10 of 10
G1 X234.424
G1 Y264.466
G1 X226.837
G1 Y236.017
G0 X244.855Y226.534
; Layer C00 Pass 1 of 10
G1 Y215.155
G1 X239.165
G1 Y273.949
G1 X222.096
G1 Y131.705
G1 X239.165
G1 Y190.499
G1 X244.855
G1 Y179.12
G1 X273.303
G1 X292.269Y202.827
G1 X273.303Y226.534
G1 X244.855
; Layer C00 Pass 2 of 10
G1 Y215.155
G1 X239.165
G1 Y273.949
G1 X222.096
G1 Y131.705
G1 X239.165
G1 Y190.499
G1 X244.855
G1 Y179.12
G1 X273.303
G1 X292.269Y202.827
G1 X273.303Y226.534
G1 X244.855
; Layer C00 Pass 3 of 10
G1 Y215.155
G1 X239.165
G1 Y273.949
G1 X222.096
G1 Y131.705
G1 X239.165
G1 Y190.499
G1 X244.855
G1 Y179.12
G1 X273.303
G1 X292.269Y202.827
G1 X273.303Y226.534
G1 X244.855
; Layer C00 Pass 4 of 10
G1 Y215.155
G1 X239.165
G1 Y273.949
G1 X222.096
G1 Y131.705
G1 X239.165
G1 Y190.499
G1 X244.855
G1 Y179.12
G1 X273.303
G1 X292.269Y202.827
G1 X273.303Y226.534
G1 X244.855
; Layer C00 Pass 5 of 10
G1 Y215.155
G1 X239.165
G1 Y273.949
G1 X222.096
G1 Y131.705
G1 X239.165
G1 Y190.499
G1 X244.855
G1 Y179.12
G1 X273.303
G1 X292.269Y202.827
G1 X273.303Y226.534
G1 X244.855
; Layer C00 Pass 6 of 10
G1 Y215.155
G1 X239.165
G1 Y273.949
G1 X222.096
G1 Y131.705
G1 X239.165
G1 Y190.499
G1 X244.855
G1 Y179.12
G1 X273.303
G1 X292.269Y202.827
G1 X273.303Y226.534
G1 X244.855
; Layer C00 Pass 7 of 10
G1 Y215.155
G1 X239.165
G1 Y273.949
G1 X222.096
G1 Y131.705
G1 X239.165
G1 Y190.499
G1 X244.855
G1 Y179.12
G1 X273.303
G1 X292.269Y202.827
G1 X273.303Y226.534
G1 X244.855
; Layer C00 Pass 8 of 10
G1 Y215.155
G1 X239.165
G1 Y273.949
G1 X222.096
G1 Y131.705
G1 X239.165
G1 Y190.499
G1 X244.855
G1 Y179.12
G1 X273.303
G1 X292.269Y202.827
G1 X273.303Y226.534
G1 X244.855
; Layer C00 Pass 9 of 10
G1 Y215.155
G1 X239.165
G1 Y273.949
G1 X222.096
G1 Y131.705
G1 X239.165
G1 Y190.499
G1 X244.855
G1 Y179.12
G1 X273.303
G1 X292.269Y202.827
G1 X273.303Y226.534
G1 X244.855
; Layer C00 Pass 10 of 10
G1 Y215.155
G1 X239.165
G1 Y273.949
G1 X222.096
G1 Y131.705
G1 X239.165
G1 Y190.499
G1 X244.855
G1 Y179.12
G1 X273.303
G1 X292.269Y202.827
G1 X273.303Y226.534
G1 X244.855
G0 X266.687Y239.15
; Layer C00 Pass 1 of 10
G1 Y267.599
G1 X274.273
G1 Y239.15
G1 X266.687
; Layer C00 Pass 2 of 10
G1 Y267.599
G1 X274.273
G1 Y239.15
G1 X266.687
; Layer C00 Pass 3 of 10
G1 Y267.599
G1 X274.273
G1 Y239.15
G1 X266.687
; Layer C00 Pass 4 of 10
G1 Y267.599
G1 X274.273
G1 Y239.15
G1 X266.687
; Layer C00 Pass 5 of 10
G1 Y267.599
G1 X274.273
G1 Y239.15
G1 X266.687
; Layer C00 Pass 6 of 10
G1 Y267.599
G1 X274.273
G1 Y239.15
G1 X266.687
; Layer C00 Pass 7 of 10
G1 Y267.599
G1 X274.273
G1 Y239.15
G1 X266.687
; Layer C00 Pass 8 of 10
G1 Y267.599
G1 X274.273
G1 Y239.15
G1 X266.687
; Layer C00 Pass 9 of 10
G1 Y267.599
G1 X274.273
G1 Y239.15
G1 X266.687
; Layer C00 Pass 10 of 10
G1 Y267.599
G1 X274.273
G1 Y239.15
G1 X266.687
G0 X303.67Y236.305
; Layer C00 Pass 1 of 10
G1 X311.256
G1 Y264.754
G1 X303.67
G1 Y236.305
; Layer C00 Pass 2 of 10
G1 X311.256
G1 Y264.754
G1 X303.67
G1 Y236.305
; Layer C00 Pass 3 of 10
G1 X311.256
G1 Y264.754
G1 X303.67
G1 Y236.305
; Layer C00 Pass 4 of 10
G1 X311.256
G1 Y264.754
G1 X303.67
G1 Y236.305
; Layer C00 Pass 5 of 10
G1 X311.256
G1 Y264.754
G1 X303.67
G1 Y236.305
; Layer C00 Pass 6 of 10
G1 X311.256
G1 Y264.754
G1 X303.67
G1 Y236.305
; Layer C00 Pass 7 of 10
G1 X311.256
G1 Y264.754
G1 X303.67
G1 Y236.305
; Layer C00 Pass 8 of 10
G1 X311.256
G1 Y264.754
G1 X303.67
G1 Y236.305
; Layer C00 Pass 9 of 10
G1 X311.256
G1 Y264.754
G1 X303.67
G1 Y236.305
; Layer C00 Pass 10 of 10
G1 X311.256
G1 Y264.754
G1 X303.67
G1 Y236.305
G0 X321.688Y226.822
; Layer C00 Pass 1 of 10
G1 Y215.443
G1 X315.998
G1 Y274.237
G1 X298.929
G1 Y131.993
G1 X315.998
G1 Y190.787
G1 X321.688
G1 Y179.408
G1 X350.136
G1 X369.102Y203.115
G1 X350.136Y226.822
G1 X321.688
; Layer C00 Pass 2 of 10
G1 Y215.443
G1 X315.998
G1 Y274.237
G1 X298.929
G1 Y131.993
G1 X315.998
G1 Y190.787
G1 X321.688
G1 Y179.408
G1 X350.136
G1 X369.102Y203.115
G1 X350.136Y226.822
G1 X321.688
; Layer C00 Pass 3 of 10
G1 Y215.443
G1 X315.998
G1 Y274.237
G1 X298.929
G1 Y131.993
G1 X315.998
G1 Y190.787
G1 X321.688
G1 Y179.408
G1 X350.136
G1 X369.102Y203.115
G1 X350.136Y226.822
G1 X321.688
; Layer C00 Pass 4 of 10
G1 Y215.443
G1 X315.998
G1 Y274.237
G1 X298.929
G1 Y131.993
G1 X315.998
G1 Y190.787
G1 X321.688
G1 Y179.408
G1 X350.136
G1 X369.102Y203.115
G1 X350.136Y226.822
G1 X321.688
; Layer C00 Pass 5 of 10
G1 Y215.443
G1 X315.998
G1 Y274.237
G1 X298.929
G1 Y131.993
G1 X315.998
G1 Y190.787
G1 X321.688
G1 Y179.408
G1 X350.136
G1 X369.102Y203.115
G1 X350.136Y226.822
G1 X321.688
; Layer C00 Pass 6 of 10
G1 Y215.443
G1 X315.998
G1 Y274.237
G1 X298.929
G1 Y131.993
G1 X315.998
G1 Y190.787
G1 X321.688
G1 Y179.408
G1 X350.136
G1 X369.102Y203.115
G1 X350.136Y226.822
G1 X321.688
; Layer C00 Pass 7 of 10
G1 Y215.443
G1 X315.998
G1 Y274.237
G1 X298.929
G1 Y131.993
G1 X315.998
G1 Y190.787
G1 X321.688
G1 Y179.408
G1 X350.136
G1 X369.102Y203.115
G1 X350.136Y226.822
G1 X321.688
; Layer C00 Pass 8 of 10
G1 Y215.443
G1 X315.998
G1 Y274.237
G1 X298.929
G1 Y131.993
G1 X315.998
G1 Y190.787
G1 X321.688
G1 Y179.408
G1 X350.136
G1 X369.102Y203.115
G1 X350.136Y226.822
G1 X321.688
; Layer C00 Pass 9 of 10
G1 Y215.443
G1 X315.998
G1 Y274.237
G1 X298.929
G1 Y131.993
G1 X315.998
G1 Y190.787
G1 X321.688
G1 Y179.408
G1 X350.136
G1 X369.102Y203.115
G1 X350.136Y226.822
G1 X321.688
; Layer C00 Pass 10 of 10
G1 Y215.443
G1 X315.998
G1 Y274.237
G1 X298.929
G1 Y131.993
G1 X315.998
G1 Y190.787
G1 X321.688
G1 Y179.408
G1 X350.136
G1 X369.102Y203.115
G1 X350.136Y226.822
G1 X321.688
G0 X274.273Y333.979
; Layer C00 Pass 1 of 10
G1 Y362.428
G1 X266.687
G1 Y333.979
G1 X274.273
; Layer C00 Pass 2 of 10
G1 Y362.428
G1 X266.687
G1 Y333.979
G1 X274.273
; Layer C00 Pass 3 of 10
G1 Y362.428
G1 X266.687
G1 Y333.979
G1 X274.273
; Layer C00 Pass 4 of 10
G1 Y362.428
G1 X266.687
G1 Y333.979
G1 X274.273
; Layer C00 Pass 5 of 10
G1 Y362.428
G1 X266.687
G1 Y333.979
G1 X274.273
; Layer C00 Pass 6 of 10
G1 Y362.428
G1 X266.687
G1 Y333.979
G1 X274.273
; Layer C00 Pass 7 of 10
G1 Y362.428
G1 X266.687
G1 Y333.979
G1 X274.273
; Layer C00 Pass 8 of 10
G1 Y362.428
G1 X266.687
G1 Y333.979
G1 X274.273
; Layer C00 Pass 9 of 10
G1 Y362.428
G1 X266.687
G1 Y333.979
G1 X274.273
; Layer C00 Pass 10 of 10
G1 Y362.428
G1 X266.687
G1 Y333.979
G1 X274.273
G0 X284.704Y324.496
; Layer C00 Pass 1 of 10
G1 Y313.117
G1 X279.015
G1 Y371.911
G1 X261.945
G1 Y229.667
G1 X279.015
G1 Y288.461
G1 X284.704
G1 Y277.082
G1 X313.153
G1 X332.119Y300.789
G1 X313.153Y324.496
G1 X284.704
; Layer C00 Pass 2 of 10
G1 Y313.117
G1 X279.015
G1 Y371.911
G1 X261.945
G1 Y229.667
G1 X279.015
G1 Y288.461
G1 X284.704
G1 Y277.082
G1 X313.153
G1 X332.119Y300.789
G1 X313.153Y324.496
G1 X284.704
; Layer C00 Pass 3 of 10
G1 Y313.117
G1 X279.015
G1 Y371.911
G1 X261.945
G1 Y229.667
G1 X279.015
G1 Y288.461
G1 X284.704
G1 Y277.082
G1 X313.153
G1 X332.119Y300.789
G1 X313.153Y324.496
G1 X284.704
; Layer C00 Pass 4 of 10
G1 Y313.117
G1 X279.015
G1 Y371.911
G1 X261.945
G1 Y229.667
G1 X279.015
G1 Y288.461
G1 X284.704
G1 Y277.082
G1 X313.153
G1 X332.119Y300.789
G1 X313.153Y324.496
G1 X284.704
; Layer C00 Pass 5 of 10
G1 Y313.117
G1 X279.015
G1 Y371.911
G1 X261.945
G1 Y229.667
G1 X279.015
G1 Y288.461
G1 X284.704
G1 Y277.082
G1 X313.153
G1 X332.119Y300.789
G1 X313.153Y324.496
G1 X284.704
; Layer C00 Pass 6 of 10
G1 Y313.117
G1 X279.015
G1 Y371.911
G1 X261.945
G1 Y229.667
G1 X279.015
G1 Y288.461
G1 X284.704
G1 Y277.082
G1 X313.153
G1 X332.119Y300.789
G1 X313.153Y324.496
G1 X284.704
; Layer C00 Pass 7 of 10
G1 Y313.117
G1 X279.015
G1 Y371.911
G1 X261.945
G1 Y229.667
G1 X279.015
G1 Y288.461
G1 X284.704
G1 Y277.082
G1 X313.153
G1 X332.119Y300.789
G1 X313.153Y324.496
G1 X284.704
; Layer C00 Pass 8 of 10
G1 Y313.117
G1 X279.015
G1 Y371.911
G1 X261.945
G1 Y229.667
G1 X279.015
G1 Y288.461
G1 X284.704
G1 Y277.082
G1 X313.153
G1 X332.119Y300.789
G1 X313.153Y324.496
G1 X284.704
; Layer C00 Pass 9 of 10
G1 Y313.117
G1 X279.015
G1 Y371.911
G1 X261.945
G1 Y229.667
G1 X279.015
G1 Y288.461
G1 X284.704
G1 Y277.082
G1 X313.153
G1 X332.119Y300.789
G1 X313.153Y324.496
G1 X284.704
; Layer C00 Pass 10 of 10
G1 Y313.117
G1 X279.015
G1 Y371.911
G1 X261.945
G1 Y229.667
G1 X279.015
G1 Y288.461
G1 X284.704
G1 Y277.082
G1 X313.153
G1 X332.119Y300.789
G1 X313.153Y324.496
G1 X284.704
G0 X200.307Y336.824
; Layer C00 Pass 1 of 10
G1 Y365.273
G1 X192.72
G1 Y336.824
G1 X200.307
; Layer C00 Pass 2 of 10
G1 Y365.273
G1 X192.72
G1 Y336.824
G1 X200.307
; Layer C00 Pass 3 of 10
G1 Y365.273
G1 X192.72
G1 Y336.824
G1 X200.307
; Layer C00 Pass 4 of 10
G1 Y365.273
G1 X192.72
G1 Y336.824
G1 X200.307
; Layer C00 Pass 5 of 10
G1 Y365.273
G1 X192.72
G1 Y336.824
G1 X200.307
; Layer C00 Pass 6 of 10
G1 Y365.273
G1 X192.72
G1 Y336.824
G1 X200.307
; Layer C00 Pass 7 of 10
G1 Y365.273
G1 X192.72
G1 Y336.824
G1 X200.307
; Layer C00 Pass 8 of 10
G1 Y365.273
G1 X192.72
G1 Y336.824
G1 X200.307
; Layer C00 Pass 9 of 10
G1 Y365.273
G1 X192.72
G1 Y336.824
G1 X200.307
; Layer C00 Pass 10 of 10
G1 Y365.273
G1 X192.72
G1 Y336.824
G1 X200.307
G0 X210.738Y327.341
; Layer C00 Pass 1 of 10
G1 Y315.962
G1 X205.048
G1 Y374.756
G1 X187.979
G1 Y232.512
G1 X205.048
G1 Y291.306
G1 X210.738
G1 Y279.927
G1 X239.186
G1 X258.152Y303.634
G1 X239.186Y327.341
G1 X210.738
; Layer C00 Pass 2 of 10
G1 Y315.962
G1 X205.048
G1 Y374.756
G1 X187.979
G1 Y232.512
G1 X205.048
G1 Y291.306
G1 X210.738
G1 Y279.927
G1 X239.186
G1 X258.152Y303.634
G1 X239.186Y327.341
G1 X210.738
; Layer C00 Pass 3 of 10
G1 Y315.962
G1 X205.048
G1 Y374.756
G1 X187.979
G1 Y232.512
G1 X205.048
G1 Y291.306
G1 X210.738
G1 Y279.927
G1 X239.186
G1 X258.152Y303.634
G1 X239.186Y327.341
G1 X210.738
; Layer C00 Pass 4 of 10
G1 Y315.962
G1 X205.048
G1 Y374.756
G1 X187.979
G1 Y232.512
G1 X205.048
G1 Y291.306
G1 X210.738
G1 Y279.927
G1 X239.186
G1 X258.152Y303.634
G1 X239.186Y327.341
G1 X210.738
; Layer C00 Pass 5 of 10
G1 Y315.962
G1 X205.048
G1 Y374.756
G1 X187.979
G1 Y232.512
G1 X205.048
G1 Y291.306
G1 X210.738
G1 Y279.927
G1 X239.186
G1 X258.152Y303.634
G1 X239.186Y327.341
G1 X210.738
; Layer C00 Pass 6 of 10
G1 Y315.962
G1 X205.048
G1 Y374.756
G1 X187.979
G1 Y232.512
G1 X205.048
G1 Y291.306
G1 X210.738
G1 Y279.927
G1 X239.186
G1 X258.152Y303.634
G1 X239.186Y327.341
G1 X210.738
; Layer C00 Pass 7 of 10
G1 Y315.962
G1 X205.048
G1 Y374.756
G1 X187.979
G1 Y232.512
G1 X205.048
G1 Y291.306
G1 X210.738
G1 Y279.927
G1 X239.186
G1 X258.152Y303.634
G1 X239.186Y327.341
G1 X210.738
; Layer C00 Pass 8 of 10
G1 Y315.962
G1 X205.048
G1 Y374.756
G1 X187.979
G1 Y232.512
G1 X205.048
G1 Y291.306
G1 X210.738
G1 Y279.927
G1 X239.186
G1 X258.152Y303.634
G1 X239.186Y327.341
G1 X210.738
; Layer C00 Pass 9 of 10
G1 Y315.962
G1 X205.048
G1 Y374.756
G1 X187.979
G1 Y232.512
G1 X205.048
G1 Y291.306
G1 X210.738
G1 Y279.927
G1 X239.186
G1 X258.152Y303.634
G1 X239.186Y327.341
G1 X210.738
; Layer C00 Pass 10 of 10
G1 Y315.962
G1 X205.048
G1 Y374.756
G1 X187.979
G1 Y232.512
G1 X205.048
G1 Y291.306
G1 X210.738
G1 Y279.927
G1 X239.186
G1 X258.152Y303.634
G1 X239.186Y327.341
G1 X210.738
G0 X126.34Y333.031
; Layer C00 Pass 1 of 10
G1 Y361.48
G1 X118.754
G1 Y333.031
G1 X126.34
; Layer C00 Pass 2 of 10
G1 Y361.48
G1 X118.754
G1 Y333.031
G1 X126.34
; Layer C00 Pass 3 of 10
G1 Y361.48
G1 X118.754
G1 Y333.031
G1 X126.34
; Layer C00 Pass 4 of 10
G1 Y361.48
G1 X118.754
G1 Y333.031
G1 X126.34
; Layer C00 Pass 5 of 10
G1 Y361.48
G1 X118.754
G1 Y333.031
G1 X126.34
; Layer C00 Pass 6 of 10
G1 Y361.48
G1 X118.754
G1 Y333.031
G1 X126.34
; Layer C00 Pass 7 of 10
G1 Y361.48
G1 X118.754
G1 Y333.031
G1 X126.34
; Layer C00 Pass 8 of 10
G1 Y361.48
G1 X118.754
G1 Y333.031
G1 X126.34
; Layer C00 Pass 9 of 10
G1 Y361.48
G1 X118.754
G1 Y333.031
G1 X126.34
; Layer C00 Pass 10 of 10
G1 Y361.48
G1 X118.754
G1 Y333.031
G1 X126.34
G0 X136.771Y323.548
; Layer C00 Pass 1 of 10
G1 Y312.169
G1 X131.081
G1 Y370.962
G1 X114.012
G1 Y228.719
G1 X131.081
G1 Y287.513
G1 X136.771
G1 Y276.134
G1 X165.22
G1 X184.186Y299.841
G1 X165.22Y323.548
G1 X136.771
; Layer C00 Pass 2 of 10
G1 Y312.169
G1 X131.081
G1 Y370.962
G1 X114.012
G1 Y228.719
G1 X131.081
G1 Y287.513
G1 X136.771
G1 Y276.134
G1 X165.22
G1 X184.186Y299.841
G1 X165.22Y323.548
G1 X136.771
; Layer C00 Pass 3 of 10
G1 Y312.169
G1 X131.081
G1 Y370.962
G1 X114.012
G1 Y228.719
G1 X131.081
G1 Y287.513
G1 X136.771
G1 Y276.134
G1 X165.22
G1 X184.186Y299.841
G1 X165.22Y323.548
G1 X136.771
; Layer C00 Pass 4 of 10
G1 Y312.169
G1 X131.081
G1 Y370.962
G1 X114.012
G1 Y228.719
G1 X131.081
G1 Y287.513
G1 X136.771
G1 Y276.134
G1 X165.22
G1 X184.186Y299.841
G1 X165.22Y323.548
G1 X136.771
; Layer C00 Pass 5 of 10
G1 Y312.169
G1 X131.081
G1 Y370.962
G1 X114.012
G1 Y228.719
G1 X131.081
G1 Y287.513
G1 X136.771
G1 Y276.134
G1 X165.22
G1 X184.186Y299.841
G1 X165.22Y323.548
G1 X136.771
; Layer C00 Pass 6 of 10
G1 Y312.169
G1 X131.081
G1 Y370.962
G1 X114.012
G1 Y228.719
G1 X131.081
G1 Y287.513
G1 X136.771
G1 Y276.134
G1 X165.22
G1 X184.186Y299.841
G1 X165.22Y323.548
G1 X136.771
; Layer C00 Pass 7 of 10
G1 Y312.169
G1 X131.081
G1 Y370.962
G1 X114.012
G1 Y228.719
G1 X131.081
G1 Y287.513
G1 X136.771
G1 Y276.134
G1 X165.22
G1 X184.186Y299.841
G1 X165.22Y323.548
G1 X136.771
; Layer C00 Pass 8 of 10
G1 Y312.169
G1 X131.081
G1 Y370.962
G1 X114.012
G1 Y228.719
G1 X131.081
G1 Y287.513
G1 X136.771
G1 Y276.134
G1 X165.22
G1 X184.186Y299.841
G1 X165.22Y323.548
G1 X136.771
; Layer C00 Pass 9 of 10
G1 Y312.169
G1 X131.081
G1 Y370.962
G1 X114.012
G1 Y228.719
G1 X131.081
G1 Y287.513
G1 X136.771
G1 Y276.134
G1 X165.22
G1 X184.186Y299.841
G1 X165.22Y323.548
G1 X136.771
; Layer C00 Pass 10 of 10
G1 Y312.169
G1 X131.081
G1 Y370.962
G1 X114.012
G1 Y228.719
G1 X131.081
G1 Y287.513
G1 X136.771
G1 Y276.134
G1 X165.22
G1 X184.186Y299.841
G1 X165.22Y323.548
G1 X136.771
G0 X49.529Y333.979
; Layer C00 Pass 1 of 10
G1 Y362.428
G1 X41.942
G1 Y333.979
G1 X49.529
; Layer C00 Pass 2 of 10
G1 Y362.428
G1 X41.942
G1 Y333.979
G1 X49.529
; Layer C00 Pass 3 of 10
G1 Y362.428
G1 X41.942
G1 Y333.979
G1 X49.529
; Layer C00 Pass 4 of 10
G1 Y362.428
G1 X41.942
G1 Y333.979
G1 X49.529
; Layer C00 Pass 5 of 10
G1 Y362.428
G1 X41.942
G1 Y333.979
G1 X49.529
; Layer C00 Pass 6 of 10
G1 Y362.428
G1 X41.942
G1 Y333.979
G1 X49.529
; Layer C00 Pass 7 of 10
G1 Y362.428
G1 X41.942
G1 Y333.979
G1 X49.529
; Layer C00 Pass 8 of 10
G1 Y362.428
G1 X41.942
G1 Y333.979
G1 X49.529
; Layer C00 Pass 9 of 10
G1 Y362.428
G1 X41.942
G1 Y333.979
G1 X49.529
; Layer C00 Pass 10 of 10
G1 Y362.428
G1 X41.942
G1 Y333.979
G1 X49.529
G0 X49.529Y267.599
; Layer C00 Pass 1 of 10
G1 Y239.15
G1 X41.942
G1 Y267.599
G1 X49.529
; Layer C00 Pass 2 of 10
G1 Y239.15
G1 X41.942
G1 Y267.599
G1 X49.529
; Layer C00 Pass 3 of 10
G1 Y239.15
G1 X41.942
G1 Y267.599
G1 X49.529
; Layer C00 Pass 4 of 10
G1 Y239.15
G1 X41.942
G1 Y267.599
G1 X49.529
; Layer C00 Pass 5 of 10
G1 Y239.15
G1 X41.942
G1 Y267.599
G1 X49.529
; Layer C00 Pass 6 of 10
G1 Y239.15
G1 X41.942
G1 Y267.599
G1 X49.529
; Layer C00 Pass 7 of 10
G1 Y239.15
G1 X41.942
G1 Y267.599
G1 X49.529
; Layer C00 Pass 8 of 10
G1 Y239.15
G1 X41.942
G1 Y267.599
G1 X49.529
; Layer C00 Pass 9 of 10
G1 Y239.15
G1 X41.942
G1 Y267.599
G1 X49.529
; Layer C00 Pass 10 of 10
G1 Y239.15
G1 X41.942
G1 Y267.599
G1 X49.529
G0 X59.96Y277.082
; Layer C00 Pass 1 of 10
G1 X88.408
G1 X107.374Y300.789
G1 X88.408Y324.496
G1 X59.96
G1 Y313.117
G1 X54.27
G1 Y371.911
G1 X37.201
G1 Y229.667
G1 X54.27
G1 Y288.461
G1 X59.96
G1 Y277.082
; Layer C00 Pass 2 of 10
G1 X88.408
G1 X107.374Y300.789
G1 X88.408Y324.496
G1 X59.96
G1 Y313.117
G1 X54.27
G1 Y371.911
G1 X37.201
G1 Y229.667
G1 X54.27
G1 Y288.461
G1 X59.96
G1 Y277.082
; Layer C00 Pass 3 of 10
G1 X88.408
G1 X107.374Y300.789
G1 X88.408Y324.496
G1 X59.96
G1 Y313.117
G1 X54.27
G1 Y371.911
G1 X37.201
G1 Y229.667
G1 X54.27
G1 Y288.461
G1 X59.96
G1 Y277.082
; Layer C00 Pass 4 of 10
G1 X88.408
G1 X107.374Y300.789
G1 X88.408Y324.496
G1 X59.96
G1 Y313.117
G1 X54.27
G1 Y371.911
G1 X37.201
G1 Y229.667
G1 X54.27
G1 Y288.461
G1 X59.96
G1 Y277.082
; Layer C00 Pass 5 of 10
G1 X88.408
G1 X107.374Y300.789
G1 X88.408Y324.496
G1 X59.96
G1 Y313.117
G1 X54.27
G1 Y371.911
G1 X37.201
G1 Y229.667
G1 X54.27
G1 Y288.461
G1 X59.96
G1 Y277.082
; Layer C00 Pass 6 of 10
G1 X88.408
G1 X107.374Y300.789
G1 X88.408Y324.496
G1 X59.96
G1 Y313.117
G1 X54.27
G1 Y371.911
G1 X37.201
G1 Y229.667
G1 X54.27
G1 Y288.461
G1 X59.96
G1 Y277.082
; Layer C00 Pass 7 of 10
G1 X88.408
G1 X107.374Y300.789
G1 X88.408Y324.496
G1 X59.96
G1 Y313.117
G1 X54.27
G1 Y371.911
G1 X37.201
G1 Y229.667
G1 X54.27
G1 Y288.461
G1 X59.96
G1 Y277.082
; Layer C00 Pass 8 of 10
G1 X88.408
G1 X107.374Y300.789
G1 X88.408Y324.496
G1 X59.96
G1 Y313.117
G1 X54.27
G1 Y371.911
G1 X37.201
G1 Y229.667
G1 X54.27
G1 Y288.461
G1 X59.96
G1 Y277.082
; Layer C00 Pass 9 of 10
G1 X88.408
G1 X107.374Y300.789
G1 X88.408Y324.496
G1 X59.96
G1 Y313.117
G1 X54.27
G1 Y371.911
G1 X37.201
G1 Y229.667
G1 X54.27
G1 Y288.461
G1 X59.96
G1 Y277.082
; Layer C00 Pass 10 of 10
G1 X88.408
G1 X107.374Y300.789
G1 X88.408Y324.496
G1 X59.96
G1 Y313.117
G1 X54.27
G1 Y371.911
G1 X37.201
G1 Y229.667
G1 X54.27
G1 Y288.461
G1 X59.96
G1 Y277.082
M9
G1 S0
M5
G90
; return to user-defined finish pos
G0 X0Y0
M2
