;FLAVOR:Marlin
;TIME:10255
;Filament used: 11.4636m
;Layer height: 0.28
;MINX:68.623
;MINY:47.691
;MINZ:0.28
;MAXX:152.377
;MAXY:172.264
;MAXZ:12.6
;TARGET_MACHINE.NAME:Creality Ender-3 S1 Pro
;Generated with Cura_SteamEngine 5.7.0
M82 ;absolute extrusion mode
; Ender 3 S1 Pro Start G-code
; M413 S0 ; Disable power loss recovery
G92 E0 ; Reset Extruder

; Prep surfaces before auto home for better accuracy
M140 S70
M104 S200

G28 ; Home all axes
G1 Z10.0 F3000 ; Move Z Axis up little to prevent scratching of Heat Bed
G1 X0 Y0

M190 S70
M109 S200

G1 X0.1 Y20 Z0.3 F5000.0 ; Move to start position
G1 X0.1 Y200.0 Z0.3 F1500.0 E15 ; Draw the first line
G1 X0.4 Y200.0 Z0.3 F5000.0 ; Move to side a little
G1 X0.4 Y20 Z0.3 F1500.0 E30 ; Draw the second line
G92 E0 ; Reset Extruder
G1 Z2.0 F3000 ; Move Z Axis up little to prevent scratching of Heat Bed
G1 X5 Y20 Z0.3 F5000.0 ; Move over to prevent blob squish

G92 E0
G92 E0
G1 F2400 E-0.8
;LAYER_COUNT:45
;LAYER:0
M107
M204 S2000
G0 F7500 X70.787 Y53.16 Z0.28
M204 S500
;TYPE:SKIRT
G1 F2400 E0
G1 F1500 X71.354 Y52.456 E0.04209
G1 X72.079 Y51.704 E0.09073
G1 X72.815 Y51.067 E0.13606
G1 X73.547 Y50.537 E0.17814
G1 X74.444 Y50.002 E0.22677
G1 X75.322 Y49.581 E0.27211
G1 X76.235 Y49.239 E0.31751
G1 X77.172 Y48.98 E0.36277
G1 X78.129 Y48.804 E0.40808
G1 X79.001 Y48.719 E0.44888
G1 X79.837 Y48.67 E0.48787
G1 X82.487 Y48.479 E0.61159
G1 X84.961 Y48.231 E0.72737
G1 X87.538 Y47.899 E0.84835
G1 X88.211 Y47.804 E0.88
G1 X89.361 Y47.706 E0.93375
G1 X90.018 Y47.691 E0.96435
G1 X104.131 Y47.691 E1.62151
G1 X105.27 Y47.71 E1.67455
G1 X106.36 Y47.756 E1.72535
G1 X108.96 Y47.83 E1.84647
G1 X111.449 Y47.83 E1.96237
G1 X114.017 Y47.757 E2.08199
G1 X115.005 Y47.71 E2.12805
G1 X115.835 Y47.691 E2.16671
G1 X130.084 Y47.692 E2.8302
G1 X130.851 Y47.705 E2.86592
G1 X132.111 Y47.803 E2.92477
G1 X134.278 Y48.106 E3.02665
G1 X136.774 Y48.39 E3.14363
G1 X139.306 Y48.607 E3.26196
G1 X141.185 Y48.733 E3.34965
G1 X142.154 Y48.847 E3.39508
G1 X143.106 Y49.048 E3.44039
G1 X144.038 Y49.332 E3.48576
G1 X144.941 Y49.697 E3.53111
G1 X145.808 Y50.141 E3.57647
G1 X146.603 Y50.64 E3.62017
G1 X147.408 Y51.25 E3.6672
G1 X148.126 Y51.905 E3.71246
G1 X148.786 Y52.622 E3.75784
G1 X149.379 Y53.394 E3.80317
G1 X149.902 Y54.215 E3.84849
G1 X150.32 Y55.016 E3.89056
G1 X150.72 Y55.981 E3.9392
G1 X151.008 Y56.911 E3.98454
G1 X151.213 Y57.864 E4.02993
G1 X151.333 Y58.821 E4.07484
G1 X151.367 Y59.543 E4.1085
G1 X151.414 Y62.797 E4.26003
G1 X151.523 Y65.362 E4.37958
G1 X151.697 Y67.825 E4.49455
G1 X151.944 Y70.317 E4.61116
G1 X152.283 Y72.979 E4.73611
G1 X152.362 Y74.007 E4.78412
G1 X152.377 Y74.664 E4.81472
G1 X152.376 Y108.148 E6.37388
G1 X152.363 Y108.912 E6.40946
G1 X152.277 Y110.097 E6.46478
G1 X152.071 Y111.703 E6.54018
G1 X151.789 Y114.259 E6.65992
G1 X151.58 Y116.79 E6.77817
G1 X151.45 Y119.23 E6.89195
G1 X151.377 Y122.911 E7.06339
G1 X151.376 Y159.68 E8.7755
G1 X151.364 Y160.441 E8.81094
G1 X151.306 Y161.414 E8.85633
G1 X151.16 Y162.377 E8.90169
G1 X150.929 Y163.324 E8.94707
G1 X150.616 Y164.246 E8.99241
G1 X150.224 Y165.137 E9.03774
G1 X149.772 Y165.959 E9.08142
G1 X149.21 Y166.797 E9.1284
G1 X148.62 Y167.527 E9.17211
G1 X147.917 Y168.253 E9.21917
G1 X147.181 Y168.889 E9.26446
G1 X146.391 Y169.459 E9.30982
G1 X145.615 Y169.922 E9.3519
G1 X144.675 Y170.375 E9.40049
G1 X143.762 Y170.717 E9.44588
G1 X142.824 Y170.976 E9.4912
G1 X141.858 Y171.153 E9.53693
G1 X140.722 Y171.249 E9.59001
G1 X140.065 Y171.264 E9.62061
G1 X118.945 Y171.264 E10.60405
G1 X116.361 Y171.301 E10.72438
G1 X113.796 Y171.41 E10.84393
G1 X111.317 Y171.586 E10.95965
G1 X108.836 Y171.831 E11.07574
G1 X106.167 Y172.171 E11.20102
G1 X105.118 Y172.251 E11.25001
G1 X104.494 Y172.264 E11.27907
G1 X90.245 Y172.263 E11.94257
G1 X89.479 Y172.25 E11.97824
G1 X88.236 Y172.155 E12.03629
G1 X86.059 Y171.855 E12.13861
G1 X83.615 Y171.579 E12.25314
G1 X81.001 Y171.356 E12.3753
G1 X78.93 Y171.231 E12.47191
G1 X77.962 Y171.127 E12.51725
G1 X77.076 Y170.953 E12.55929
G1 X76.071 Y170.662 E12.60801
G1 X75.196 Y170.32 E12.65175
G1 X74.294 Y169.871 E12.69867
G1 X73.464 Y169.361 E12.74403
G1 X72.683 Y168.78 E12.78936
G1 X71.981 Y168.157 E12.83306
G1 X71.289 Y167.422 E12.88007
G1 X70.687 Y166.656 E12.92543
G1 X70.156 Y165.84 E12.97077
G1 X69.7 Y164.979 E13.01613
G1 X69.322 Y164.083 E13.06142
G1 X69.022 Y163.155 E13.10683
G1 X68.808 Y162.206 E13.15213
G1 X68.678 Y161.25 E13.19705
G1 X68.636 Y160.547 E13.22985
G1 X68.623 Y159.922 E13.25896
G1 X68.624 Y60.216 E17.90169
G1 X68.635 Y59.516 E17.93428
G1 X68.693 Y58.543 E17.97967
G1 X68.839 Y57.58 E18.02503
G1 X69.069 Y56.634 E18.07036
G1 X69.382 Y55.711 E18.11574
G1 X69.774 Y54.821 E18.16102
G1 X70.244 Y53.968 E18.20637
G1 X70.787 Y53.16 E18.2517
M204 S2000
G0 F7500 X71.099 Y53.411
M204 S500
G1 F1500 X71.666 Y52.707 E18.2938
G1 X72.341 Y52.006 E18.33911
G1 X73.05 Y51.391 E18.38281
G1 X73.782 Y50.861 E18.42489
G1 X74.618 Y50.362 E18.47023
G1 X75.463 Y49.955 E18.5139
G1 X76.342 Y49.624 E18.55764
G1 X77.245 Y49.373 E18.60128
G1 X78.168 Y49.202 E18.64499
G1 X79.024 Y49.118 E18.68504
G1 X79.866 Y49.069 E18.72431
G1 X82.52 Y48.878 E18.84821
G1 X85.012 Y48.628 E18.96484
G1 X87.589 Y48.296 E19.08582
G1 X88.245 Y48.203 E19.11667
G1 X89.395 Y48.105 E19.17042
G1 X90.027 Y48.091 E19.19985
G1 X104.124 Y48.091 E19.85627
G1 X105.253 Y48.11 E19.90885
G1 X106.343 Y48.156 E19.95965
G1 X108.949 Y48.23 E20.08104
G1 X111.46 Y48.23 E20.19796
G1 X114.036 Y48.157 E20.31796
G1 X115.014 Y48.11 E20.36355
G1 X115.835 Y48.091 E20.40179
G1 X130.078 Y48.092 E21.06501
G1 X130.82 Y48.104 E21.09956
G1 X132.08 Y48.202 E21.15841
G1 X134.223 Y48.502 E21.25917
G1 X136.74 Y48.789 E21.37713
G1 X139.272 Y49.006 E21.49547
G1 X141.139 Y49.13 E21.58259
G1 X142.072 Y49.239 E21.62633
G1 X142.99 Y49.431 E21.67
G1 X143.889 Y49.703 E21.71374
G1 X144.759 Y50.053 E21.7574
G1 X145.595 Y50.48 E21.80112
G1 X146.39 Y50.979 E21.84482
G1 X147.139 Y51.546 E21.88857
G1 X147.832 Y52.176 E21.93218
G1 X148.469 Y52.866 E21.9759
G1 X149.042 Y53.609 E22.01959
G1 X149.547 Y54.4 E22.06329
G1 X149.965 Y55.201 E22.10536
G1 X150.338 Y56.1 E22.15068
G1 X150.617 Y56.996 E22.19438
G1 X150.816 Y57.914 E22.23812
G1 X150.933 Y58.84 E22.28158
G1 X150.967 Y59.549 E22.31463
G1 X151.014 Y62.814 E22.46668
G1 X151.123 Y65.379 E22.58623
G1 X151.299 Y67.864 E22.70223
G1 X151.547 Y70.368 E22.8194
G1 X151.884 Y73.01 E22.94342
G1 X151.962 Y74.016 E22.9904
G1 X151.977 Y74.664 E23.02058
G1 X151.976 Y108.142 E24.57946
G1 X151.964 Y108.883 E24.61397
G1 X151.88 Y110.046 E24.66826
G1 X151.674 Y111.652 E24.74366
G1 X151.391 Y114.215 E24.86372
G1 X151.182 Y116.757 E24.98249
G1 X151.05 Y119.222 E25.09744
G1 X150.977 Y122.903 E25.26887
G1 X150.976 Y159.674 E26.98108
G1 X150.965 Y160.418 E27.01573
G1 X150.91 Y161.355 E27.05944
G1 X150.771 Y162.283 E27.10313
G1 X150.55 Y163.196 E27.14687
G1 X150.25 Y164.085 E27.19056
G1 X149.873 Y164.944 E27.23424
G1 X149.421 Y165.766 E27.27792
G1 X148.898 Y166.546 E27.32165
G1 X148.332 Y167.249 E27.36368
G1 X147.655 Y167.951 E27.40909
G1 X146.947 Y168.565 E27.45273
G1 X146.186 Y169.115 E27.49645
G1 X145.41 Y169.578 E27.53853
G1 X144.534 Y170.001 E27.58382
G1 X143.655 Y170.332 E27.62756
G1 X142.751 Y170.583 E27.67124
G1 X141.824 Y170.754 E27.71514
G1 X140.688 Y170.85 E27.76822
G1 X140.056 Y170.864 E27.79766
G1 X118.939 Y170.864 E28.78095
G1 X116.344 Y170.901 E28.9018
G1 X113.779 Y171.01 E29.02135
G1 X111.286 Y171.187 E29.13772
G1 X108.785 Y171.434 E29.25475
G1 X106.136 Y171.772 E29.3791
G1 X105.11 Y171.851 E29.42701
G1 X104.494 Y171.864 E29.4557
G1 X90.251 Y171.863 E30.11892
G1 X89.509 Y171.851 E30.15347
G1 X88.266 Y171.756 E30.21152
G1 X86.114 Y171.459 E30.31267
G1 X83.649 Y171.18 E30.42819
G1 X81.035 Y170.958 E30.55034
G1 X78.972 Y170.833 E30.64658
G1 X78.039 Y170.734 E30.69027
G1 X77.153 Y170.56 E30.73232
G1 X76.217 Y170.289 E30.77769
G1 X75.342 Y169.947 E30.82143
G1 X74.503 Y169.53 E30.86506
G1 X73.702 Y169.04 E30.90878
G1 X72.949 Y168.481 E30.95245
G1 X72.247 Y167.858 E30.99616
G1 X71.603 Y167.174 E31.0399
G1 X71.022 Y166.437 E31.0836
G1 X70.509 Y165.652 E31.12727
G1 X70.068 Y164.823 E31.17099
G1 X69.702 Y163.96 E31.21464
G1 X69.412 Y163.066 E31.2584
G1 X69.204 Y162.152 E31.30205
G1 X69.077 Y161.226 E31.34557
G1 X69.036 Y160.539 E31.37762
G1 X69.023 Y159.922 E31.40636
G1 X69.024 Y60.222 E36.04881
G1 X69.034 Y59.539 E36.08061
G1 X69.089 Y58.602 E36.12432
G1 X69.228 Y57.674 E36.16801
G1 X69.448 Y56.762 E36.2117
G1 X69.748 Y55.872 E36.25543
G1 X70.125 Y55.013 E36.29911
G1 X70.576 Y54.191 E36.34277
G1 X71.099 Y53.411 E36.3865
M204 S2000
G0 F7500 X71.411 Y53.662
M204 S500
G1 F1500 X71.978 Y52.958 E36.42859
G1 X72.604 Y52.308 E36.47061
G1 X73.285 Y51.715 E36.51266
G1 X74.017 Y51.185 E36.55474
G1 X74.792 Y50.722 E36.59678
G1 X75.605 Y50.329 E36.63883
G1 X76.45 Y50.009 E36.6809
G1 X77.319 Y49.766 E36.72292
G1 X78.207 Y49.6 E36.76498
G1 X79.047 Y49.517 E36.80428
G1 X79.895 Y49.468 E36.84384
G1 X82.553 Y49.277 E36.96792
G1 X85.063 Y49.025 E37.08539
G1 X87.64 Y48.693 E37.20638
G1 X88.279 Y48.602 E37.23643
G1 X89.429 Y48.504 E37.29017
G1 X90.036 Y48.491 E37.31844
G1 X104.117 Y48.491 E37.97411
G1 X105.236 Y48.51 E38.02623
G1 X106.326 Y48.556 E38.07703
G1 X108.938 Y48.63 E38.1987
G1 X111.471 Y48.63 E38.31665
G1 X114.055 Y48.557 E38.43702
G1 X115.023 Y48.51 E38.48215
G1 X115.835 Y48.491 E38.51997
G1 X130.072 Y48.492 E39.1829
G1 X130.789 Y48.503 E39.21629
G1 X132.049 Y48.601 E39.27514
G1 X134.167 Y48.898 E39.37473
G1 X136.706 Y49.188 E39.49372
G1 X139.238 Y49.404 E39.61205
G1 X141.093 Y49.527 E39.69862
G1 X141.991 Y49.631 E39.74071
G1 X142.875 Y49.814 E39.78275
G1 X143.74 Y50.074 E39.82481
G1 X144.578 Y50.41 E39.86685
G1 X145.383 Y50.819 E39.90889
G1 X146.149 Y51.298 E39.95096
G1 X146.87 Y51.842 E39.99302
G1 X147.539 Y52.448 E40.03505
G1 X148.153 Y53.111 E40.07712
G1 X148.705 Y53.825 E40.11915
G1 X149.192 Y54.585 E40.16118
G1 X149.61 Y55.386 E40.20325
G1 X149.956 Y56.22 E40.24529
G1 X150.226 Y57.082 E40.28736
G1 X150.419 Y57.964 E40.3294
G1 X150.533 Y58.86 E40.37145
G1 X150.567 Y59.555 E40.40386
G1 X150.614 Y62.831 E40.55642
G1 X150.723 Y65.396 E40.67596
G1 X150.901 Y67.903 E40.79299
G1 X151.15 Y70.419 E40.91072
G1 X151.485 Y73.041 E41.0338
G1 X151.562 Y74.025 E41.07976
G1 X151.577 Y74.664 E41.10952
G1 X151.576 Y108.136 E42.66812
G1 X151.565 Y108.854 E42.70156
G1 X151.483 Y109.995 E42.75482
G1 X151.277 Y111.601 E42.83022
G1 X150.993 Y114.171 E42.95062
G1 X150.784 Y116.724 E43.06989
G1 X150.65 Y119.214 E43.18601
G1 X150.577 Y122.895 E43.35744
G1 X150.576 Y159.668 E45.06975
G1 X150.566 Y160.395 E45.1036
G1 X150.514 Y161.297 E45.14567
G1 X150.382 Y162.19 E45.18771
G1 X150.171 Y163.069 E45.2298
G1 X149.884 Y163.925 E45.27184
G1 X149.522 Y164.752 E45.31388
G1 X149.088 Y165.544 E45.35593
G1 X148.586 Y166.295 E45.39799
G1 X148.02 Y166.998 E45.44002
G1 X147.393 Y167.649 E45.4821
G1 X146.712 Y168.241 E45.52412
G1 X145.981 Y168.771 E45.56616
G1 X145.205 Y169.234 E45.60824
G1 X144.392 Y169.627 E45.65029
G1 X143.547 Y169.947 E45.69236
G1 X142.678 Y170.19 E45.73438
G1 X141.79 Y170.355 E45.77644
G1 X140.654 Y170.451 E45.82952
G1 X140.047 Y170.464 E45.85779
G1 X118.933 Y170.464 E46.84095
G1 X116.327 Y170.501 E46.96231
G1 X113.762 Y170.61 E47.08185
G1 X111.255 Y170.788 E47.19888
G1 X108.734 Y171.037 E47.31684
G1 X106.105 Y171.373 E47.44025
G1 X105.101 Y171.451 E47.48715
G1 X104.494 Y171.464 E47.51542
G1 X90.257 Y171.463 E48.17835
G1 X89.539 Y171.452 E48.21179
G1 X88.296 Y171.357 E48.26984
G1 X86.169 Y171.063 E48.36982
G1 X83.683 Y170.781 E48.48632
G1 X81.069 Y170.56 E48.60847
G1 X79.014 Y170.435 E48.70434
G1 X78.116 Y170.341 E48.74638
G1 X77.23 Y170.167 E48.78843
G1 X76.362 Y169.916 E48.8305
G1 X75.52 Y169.589 E48.87256
G1 X74.711 Y169.188 E48.91461
G1 X73.94 Y168.718 E48.95665
G1 X73.214 Y168.181 E48.9987
G1 X72.538 Y167.583 E49.04073
G1 X71.917 Y166.926 E49.08282
G1 X71.357 Y166.218 E49.12485
G1 X70.862 Y165.463 E49.16689
G1 X70.436 Y164.666 E49.20897
G1 X70.082 Y163.836 E49.25099
G1 X69.802 Y162.977 E49.29306
G1 X69.6 Y162.097 E49.3351
G1 X69.476 Y161.202 E49.37718
G1 X69.436 Y160.53 E49.40852
G1 X69.423 Y159.922 E49.43684
G1 X69.424 Y60.227 E54.07906
G1 X69.433 Y59.562 E54.11002
G1 X69.485 Y58.66 E54.15209
G1 X69.617 Y57.767 E54.19413
G1 X69.827 Y56.889 E54.23616
G1 X70.114 Y56.032 E54.27825
G1 X70.476 Y55.205 E54.32028
G1 X70.909 Y54.413 E54.36232
G1 X71.411 Y53.662 E54.40438
M204 S2000
G1 F2400 E53.60438
G0 F7500 X89.559 Y59.038
G0 X89.559 Y63.083
G0 X83.889 Y63.43
M204 S500
G1 F2400 E54.40438
G1 F1500 X89.706 Y63.43 E54.67524
G1 X89.825 Y63.391 E54.68107
G1 X89.906 Y63.23 E54.68947
G1 X89.906 Y58.891 E54.89151
G1 X104.624 Y58.891 E55.57684
G1 X104.624 Y63.23 E55.77888
G1 X104.663 Y63.349 E55.78471
G1 X104.824 Y63.43 E55.7931
G1 X115.505 Y63.43 E56.29046
G1 X115.624 Y63.391 E56.29629
G1 X115.705 Y63.23 E56.30468
G1 X115.705 Y58.891 E56.50672
G1 X130.423 Y58.891 E57.19205
G1 X130.423 Y63.23 E57.3941
G1 X130.462 Y63.349 E57.39993
G1 X130.623 Y63.43 E57.40832
G1 X136.163 Y63.43 E57.66628
G1 X136.163 Y74.334 E58.17402
G1 X136.202 Y74.453 E58.17985
G1 X136.363 Y74.534 E58.18824
G1 X141.177 Y74.534 E58.4124
G1 X141.177 Y108.487 E59.9934
G1 X136.363 Y108.487 E60.21756
G1 X136.244 Y108.526 E60.22339
G1 X136.163 Y108.687 E60.23178
G1 X136.163 Y155.523 E62.41266
G1 X104.824 Y155.523 E63.87194
G1 X104.705 Y155.562 E63.87777
G1 X104.624 Y155.723 E63.88616
G1 X104.624 Y161.064 E64.13486
G1 X89.906 Y161.064 E64.82019
G1 X89.906 Y155.723 E65.06889
G1 X89.867 Y155.604 E65.07472
G1 X89.706 Y155.523 E65.08311
G1 X83.889 Y155.523 E65.35398
G1 X83.889 Y63.43 E69.64221
M204 S2000
G0 F7500 X84.289 Y63.83
M204 S500
G1 F1500 X89.706 Y63.83 E69.89445
G1 X89.921 Y63.79 E69.90463
G1 X90.107 Y63.677 E69.91477
G1 X90.24 Y63.504 E69.92493
G1 X90.306 Y63.23 E69.93805
G1 X90.306 Y59.291 E70.12147
G1 X104.224 Y59.291 E70.76955
G1 X104.224 Y63.23 E70.95297
G1 X104.264 Y63.445 E70.96315
G1 X104.377 Y63.631 E70.97328
G1 X104.55 Y63.764 E70.98344
G1 X104.824 Y63.83 E70.99657
G1 X115.505 Y63.83 E71.49392
G1 X115.72 Y63.79 E71.5041
G1 X115.906 Y63.677 E71.51424
G1 X116.039 Y63.504 E71.5244
G1 X116.105 Y63.23 E71.53752
G1 X116.105 Y59.291 E71.72094
G1 X130.023 Y59.291 E72.36902
G1 X130.023 Y63.23 E72.55243
G1 X130.063 Y63.445 E72.56262
G1 X130.176 Y63.631 E72.57275
G1 X130.349 Y63.764 E72.58291
G1 X130.623 Y63.83 E72.59604
G1 X135.763 Y63.83 E72.83538
G1 X135.763 Y74.334 E73.32449
G1 X135.803 Y74.549 E73.33467
G1 X135.916 Y74.735 E73.3448
G1 X136.089 Y74.868 E73.35496
G1 X136.363 Y74.934 E73.36809
G1 X140.777 Y74.934 E73.57362
G1 X140.777 Y108.087 E75.11736
G1 X136.363 Y108.087 E75.3229
G1 X136.148 Y108.127 E75.33308
G1 X135.962 Y108.24 E75.34322
G1 X135.829 Y108.413 E75.35338
G1 X135.763 Y108.687 E75.3665
G1 X135.763 Y155.123 E77.52876
G1 X104.824 Y155.123 E78.9694
G1 X104.609 Y155.163 E78.97959
G1 X104.423 Y155.276 E78.98972
G1 X104.29 Y155.449 E78.99988
G1 X104.224 Y155.723 E79.01301
G1 X104.224 Y160.664 E79.24308
G1 X90.306 Y160.664 E79.89116
G1 X90.306 Y155.723 E80.12123
G1 X90.266 Y155.508 E80.13142
G1 X90.153 Y155.322 E80.14155
G1 X89.98 Y155.189 E80.15171
G1 X89.706 Y155.123 E80.16484
G1 X84.289 Y155.123 E80.41707
G1 X84.289 Y63.83 E84.66806
M204 S2000
G0 F7500 X84.689 Y64.23
M204 S500
G1 F1500 X89.706 Y64.23 E84.90167
G1 X89.985 Y64.19 E84.9148
G1 X90.242 Y64.074 E84.92792
G1 X90.457 Y63.891 E84.94107
G1 X90.611 Y63.655 E84.95419
G1 X90.694 Y63.385 E84.96735
G1 X90.706 Y63.23 E84.97459
G1 X90.706 Y59.691 E85.13938
G1 X103.824 Y59.691 E85.75021
G1 X103.824 Y63.23 E85.915
G1 X103.864 Y63.509 E85.92812
G1 X103.98 Y63.766 E85.94125
G1 X104.163 Y63.981 E85.9544
G1 X104.399 Y64.135 E85.96752
G1 X104.669 Y64.218 E85.98067
G1 X104.824 Y64.23 E85.98791
G1 X115.505 Y64.23 E86.48526
G1 X115.784 Y64.19 E86.49839
G1 X116.041 Y64.074 E86.51152
G1 X116.256 Y63.891 E86.52466
G1 X116.41 Y63.655 E86.53778
G1 X116.493 Y63.385 E86.55094
G1 X116.505 Y63.23 E86.55818
G1 X116.505 Y59.691 E86.72297
G1 X129.623 Y59.691 E87.3338
G1 X129.623 Y63.23 E87.49859
G1 X129.663 Y63.509 E87.51171
G1 X129.779 Y63.766 E87.52484
G1 X129.962 Y63.981 E87.53799
