; LightBurn 1.6.00
; GRBL device profile, absolute coords
; Bounds: X124.37 Y110.2 to X276.69 Y320.56
G00 G17 G40 G21 G54
G90
M4
; Cut @ 100 mm/sec, 70% power
M8
G0 X141.263Y110.513
; Layer C00
G1 Y320.178S700F6000
G0 X157.077Y319.865
G1 Y110.2
G0 X172.34Y110.517
G1 Y320.328
G0 X199.322Y320.021
G1 Y110.357
G0 X227.317Y110.559
G1 Y320.369
G0 X243.634Y320.178
G1 Y110.513
G0 X259.449Y110.2
G1 Y319.865
G0 X275.05Y284.534
G1 X124.644
G0 X151.969Y253.7
G1 X188.285Y215.189
G0 X188.178Y215.029
G1 X151.449Y176.995
G0 X124.473Y161.966
G1 X274.171
G0 X245.957Y176.577
G1 X209.642Y215.089
G0 X209.435Y215.533
G1 X246.164Y253.567
G0 X275.05Y225.267
G1 X124.644
G0 X124.815Y218.932
G1 X149.876
G1 Y211.446
G1 X124.815
G1 Y218.932
G0 X124.473Y215.189
G1 X274.171
G0 X276.688Y220.105
G1 X276.658Y217.787
G1 X276.641Y216.039
G1 X276.627Y214.175
G1 X276.623Y213.272
G1 Y212.427
G1 X276.626Y211.671
G1 X276.633Y211.031
G1 X276.639Y210.765
G1 X276.646Y210.538
G1 X276.654Y210.356
G1 X276.664Y210.221
G1 X276.675Y210.137
G1 X276.688Y210.109
G0 X275.05Y204.998
G1 X124.644
G0 X180.111Y218.91
G1 Y211.468
G1 X191.112
G1 Y218.651
G1 X180.355
G0 X124.473Y215.189
G1 X199.322Y320.021
G1 X274.171Y215.189
G1 X199.322Y110.357
G1 X124.473Y215.189
G0 X124.847Y110.305
G1 Y320.305
G1 X274.847
G1 Y110.305
G1 X124.847
; Cut @ 100 mm/sec, 100% power
M8
G0 X212.363Y211.85
; Layer C01 Pass 1 of 5
G1 X212.046Y212.003S1000
G1 X211.747Y212.184
G1 X211.468Y212.393
G1 X211.211Y212.627
G1 X210.977Y212.884
G1 X210.769Y213.163
G1 X210.587Y213.462
G1 X210.434Y213.778
G1 X210.313Y214.111
G1 X210.223Y214.459
G1 X210.168Y214.818
G1 X210.15Y215.189
G1 X210.168Y215.559
G1 X210.223Y215.919
G1 X210.313Y216.266
G1 X210.434Y216.599
G1 X210.587Y216.916
G1 X210.769Y217.215
G1 X210.977Y217.494
G1 X211.211Y217.751
G1 X211.468Y217.985
G1 X211.747Y218.194
G1 X212.046Y218.375
G1 X212.363Y218.528
G1 X212.696Y218.65
G1 X213.043Y218.739
G1 X213.403Y218.794
G1 X213.773Y218.813
G1 X214.144Y218.794
G1 X214.504Y218.739
G1 X214.851Y218.65
G1 X215.184Y218.528
G1 X215.501Y218.375
G1 X215.799Y218.194
G1 X216.078Y217.985
G1 X216.336Y217.751
G1 X216.57Y217.494
G1 X216.778Y217.215
G1 X216.96Y216.916
G1 X217.112Y216.599
G1 X217.234Y216.266
G1 X217.323Y215.919
G1 X217.378Y215.559
G1 X217.397Y215.189
G1 X217.378Y214.818
G1 X217.323Y214.459
G1 X217.234Y214.111
G1 X217.112Y213.778
G1 X216.96Y213.462
G1 X216.778Y213.163
G1 X216.57Y212.884
G1 X216.336Y212.627
G1 X216.078Y212.393
G1 X215.799Y212.184
G1 X215.501Y212.003
G1 X215.184Y211.85
G1 X214.851Y211.728
G1 X214.504Y211.639
G1 X214.144Y211.584
G1 X213.773Y211.565
G1 X213.403Y211.584
G1 X213.043Y211.639
G1 X212.696Y211.728
G1 X212.363Y211.85
; Layer C01 Pass 2 of 5
G1 X212.046Y212.003
G1 X211.747Y212.184
G1 X211.468Y212.393
G1 X211.211Y212.627
G1 X210.977Y212.884
G1 X210.769Y213.163
G1 X210.587Y213.462
G1 X210.434Y213.778
G1 X210.313Y214.111
G1 X210.223Y214.459
G1 X210.168Y214.818
G1 X210.15Y215.189
G1 X210.168Y215.559
G1 X210.223Y215.919
G1 X210.313Y216.266
G1 X210.434Y216.599
G1 X210.587Y216.916
G1 X210.769Y217.215
G1 X210.977Y217.494
G1 X211.211Y217.751
G1 X211.468Y217.985
G1 X211.747Y218.194
G1 X212.046Y218.375
G1 X212.363Y218.528
G1 X212.696Y218.65
G1 X213.043Y218.739
G1 X213.403Y218.794
G1 X213.773Y218.813
G1 X214.144Y218.794
G1 X214.504Y218.739
G1 X214.851Y218.65
G1 X215.184Y218.528
G1 X215.501Y218.375
G1 X215.799Y218.194
G1 X216.078Y217.985
G1 X216.336Y217.751
G1 X216.57Y217.494
G1 X216.778Y217.215
G1 X216.96Y216.916
G1 X217.112Y216.599
G1 X217.234Y216.266
G1 X217.323Y215.919
G1 X217.378Y215.559
G1 X217.397Y215.189
G1 X217.378Y214.818
G1 X217.323Y214.459
G1 X217.234Y214.111
G1 X217.112Y213.778
G1 X216.96Y213.462
G1 X216.778Y213.163
G1 X216.57Y212.884
G1 X216.336Y212.627
G1 X216.078Y212.393
G1 X215.799Y212.184
G1 X215.501Y212.003
G1 X215.184Y211.85
G1 X214.851Y211.728
G1 X214.504Y211.639
G1 X214.144Y211.584
G1 X213.773Y211.565
G1 X213.403Y211.584
G1 X213.043Y211.639
G1 X212.696Y211.728
G1 X212.363Y211.85
; Layer C01 Pass 3 of 5
G1 X212.046Y212.003
G1 X211.747Y212.184
G1 X211.468Y212.393
G1 X211.211Y212.627
G1 X210.977Y212.884
G1 X210.769Y213.163
G1 X210.587Y213.462
G1 X210.434Y213.778
G1 X210.313Y214.111
G1 X210.223Y214.459
G1 X210.168Y214.818
G1 X210.15Y215.189
G1 X210.168Y215.559
G1 X210.223Y215.919
G1 X210.313Y216.266
G1 X210.434Y216.599
G1 X210.587Y216.916
G1 X210.769Y217.215
G1 X210.977Y217.494
G1 X211.211Y217.751
G1 X211.468Y217.985
G1 X211.747Y218.194
G1 X212.046Y218.375
G1 X212.363Y218.528
G1 X212.696Y218.65
G1 X213.043Y218.739
G1 X213.403Y218.794
G1 X213.773Y218.813
G1 X214.144Y218.794
G1 X214.504Y218.739
G1 X214.851Y218.65
G1 X215.184Y218.528
G1 X215.501Y218.375
G1 X215.799Y218.194
G1 X216.078Y217.985
G1 X216.336Y217.751
G1 X216.57Y217.494
G1 X216.778Y217.215
G1 X216.96Y216.916
G1 X217.112Y216.599
G1 X217.234Y216.266
G1 X217.323Y215.919
G1 X217.378Y215.559
G1 X217.397Y215.189
G1 X217.378Y214.818
G1 X217.323Y214.459
G1 X217.234Y214.111
G1 X217.112Y213.778
G1 X216.96Y213.462
G1 X216.778Y213.163
G1 X216.57Y212.884
G1 X216.336Y212.627
G1 X216.078Y212.393
G1 X215.799Y212.184
G1 X215.501Y212.003
G1 X215.184Y211.85
G1 X214.851Y211.728
G1 X214.504Y211.639
G1 X214.144Y211.584
G1 X213.773Y211.565
G1 X213.403Y211.584
G1 X213.043Y211.639
G1 X212.696Y211.728
G1 X212.363Y211.85
; Layer C01 Pass 4 of 5
G1 X212.046Y212.003
G1 X211.747Y212.184
G1 X211.468Y212.393
G1 X211.211Y212.627
G1 X210.977Y212.884
G1 X210.769Y213.163
G1 X210.587Y213.462
G1 X210.434Y213.778
G1 X210.313Y214.111
G1 X210.223Y214.459
G1 X210.168Y214.818
G1 X210.15Y215.189
G1 X210.168Y215.559
G1 X210.223Y215.919
G1 X210.313Y216.266
G1 X210.434Y216.599
G1 X210.587Y216.916
G1 X210.769Y217.215
G1 X210.977Y217.494
G1 X211.211Y217.751
G1 X211.468Y217.985
G1 X211.747Y218.194
G1 X212.046Y218.375
G1 X212.363Y218.528
G1 X212.696Y218.65
G1 X213.043Y218.739
G1 X213.403Y218.794
G1 X213.773Y218.813
G1 X214.144Y218.794
G1 X214.504Y218.739
G1 X214.851Y218.65
G1 X215.184Y218.528
G1 X215.501Y218.375
G1 X215.799Y218.194
G1 X216.078Y217.985
G1 X216.336Y217.751
G1 X216.57Y217.494
G1 X216.778Y217.215
G1 X216.96Y216.916
G1 X217.112Y216.599
G1 X217.234Y216.266
G1 X217.323Y215.919
G1 X217.378Y215.559
G1 X217.397Y215.189
G1 X217.378Y214.818
G1 X217.323Y214.459
G1 X217.234Y214.111
G1 X217.112Y213.778
G1 X216.96Y213.462
G1 X216.778Y213.163
G1 X216.57Y212.884
G1 X216.336Y212.627
G1 X216.078Y212.393
G1 X215.799Y212.184
G1 X215.501Y212.003
G1 X215.184Y211.85
G1 X214.851Y211.728
G1 X214.504Y211.639
G1 X214.144Y211.584
G1 X213.773Y211.565
G1 X213.403Y211.584
G1 X213.043Y211.639
G1 X212.696Y211.728
G1 X212.363Y211.85
; Layer C01 Pass 5 of 5
G1 X212.046Y212.003
G1 X211.747Y212.184
G1 X211.468Y212.393
G1 X211.211Y212.627
G1 X210.977Y212.884
G1 X210.769Y213.163
G1 X210.587Y213.462
G1 X210.434Y213.778
G1 X210.313Y214.111
G1 X210.223Y214.459
G1 X210.168Y214.818
G1 X210.15Y215.189
G1 X210.168Y215.559
G1 X210.223Y215.919
G1 X210.313Y216.266
G1 X210.434Y216.599
G1 X210.587Y216.916
G1 X210.769Y217.215
G1 X210.977Y217.494
G1 X211.211Y217.751
G1 X211.468Y217.985
G1 X211.747Y218.194
G1 X212.046Y218.375
G1 X212.363Y218.528
G1 X212.696Y218.65
G1 X213.043Y218.739
G1 X213.403Y218.794
G1 X213.773Y218.813
G1 X214.144Y218.794
G1 X214.504Y218.739
G1 X214.851Y218.65
G1 X215.184Y218.528
G1 X215.501Y218.375
G1 X215.799Y218.194
G1 X216.078Y217.985
G1 X216.336Y217.751
G1 X216.57Y217.494
G1 X216.778Y217.215
G1 X216.96Y216.916
G1 X217.112Y216.599
G1 X217.234Y216.266
G1 X217.323Y215.919
G1 X217.378Y215.559
G1 X217.397Y215.189
G1 X217.378Y214.818
G1 X217.323Y214.459
G1 X217.234Y214.111
G1 X217.112Y213.778
G1 X216.96Y213.462
G1 X216.778Y213.163
G1 X216.57Y212.884
G1 X216.336Y212.627
G1 X216.078Y212.393
G1 X215.799Y212.184
G1 X215.501Y212.003
G1 X215.184Y211.85
G1 X214.851Y211.728
G1 X214.504Y211.639
G1 X214.144Y211.584
G1 X213.773Y211.565
G1 X213.403Y211.584
G1 X213.043Y211.639
G1 X212.696Y211.728
G1 X212.363Y211.85
G0 X274.847Y229.237
; Layer C01 Pass 1 of 5
G1 X238.676
G1 Y233.208
G1 X234.129
G1 Y320.305
; Layer C01 Pass 2 of 5
G1 Y233.208
G1 X238.676
G1 Y229.237
G1 X274.847
; Layer C01 Pass 3 of 5
G1 X238.676
G1 Y233.208
G1 X234.129
G1 Y320.305
; Layer C01 Pass 4 of 5
G1 Y233.208
G1 X238.676
G1 Y229.237
G1 X274.847
; Layer C01 Pass 5 of 5
G1 X238.676
G1 Y233.208
G1 X234.129
G1 Y320.305
G0 X178.285Y320.559
; Layer C01 Pass 1 of 5
G1 X219.972
G1 Y233.19
G1 X178.285
G1 Y320.559
; Layer C01 Pass 2 of 5
G1 Y233.19
G1 X219.972
G1 Y320.559
G1 X178.285
; Layer C01 Pass 3 of 5
G1 X219.972
G1 Y233.19
G1 X178.285
G1 Y320.559
; Layer C01 Pass 4 of 5
G1 Y233.19
G1 X219.972
G1 Y320.559
G1 X178.285
; Layer C01 Pass 5 of 5
G1 X219.972
G1 Y233.19
G1 X178.285
G1 Y320.559
G0 X165.149Y320.013
; Layer C01 Pass 1 of 5
G1 Y232.916
G1 X160.595
G1 Y228.946
G1 X124.373
; Layer C01 Pass 2 of 5
G1 X160.595
G1 Y232.916
G1 X165.149
G1 Y320.013
; Layer C01 Pass 3 of 5
G1 Y232.916
G1 X160.595
G1 Y228.946
G1 X124.373
; Layer C01 Pass 4 of 5
G1 X160.595
G1 Y232.916
G1 X165.149
G1 Y320.013
; Layer C01 Pass 5 of 5
G1 Y232.916
G1 X160.595
G1 Y228.946
G1 X124.373
M9
G1 S0
M5
G90
; return to user-defined finish pos
G0 X0Y0
M2
