; LightBurn 1.5.06
; GRBL device profile, absolute coords
; Bounds: X125.97 Y81 to X274.03 Y321
G00 G17 G40 G21 G54
G90
M4
; Cut @ 70 mm/sec, 70% power
M8
G0 X146Y81.003
; Layer C00 Pass 1 of 10
G1 X252S700F4200
G1 Y97.409
G1 X274.031Y159.554
G1 X214.647Y150.008
G1 X207.585Y130.087
G1 Y201.63
G1 X200.566
G1 Y131.592
G1 X198.36
G1 Y201.63
G1 X191.341
G1 Y131.002
G1 X185.44Y149.377
G1 X125.969Y160.184
G1 X146Y97.809
G1 Y81.003
; Layer C00 Pass 2 of 10
G1 X252
G1 Y97.409
G1 X274.031Y159.554
G1 X214.647Y150.008
G1 X207.585Y130.087
G1 Y201.63
G1 X200.566
G1 Y131.592
G1 X198.36
G1 Y201.63
G1 X191.341
G1 Y131.002
G1 X185.44Y149.377
G1 X125.969Y160.184
G1 X146Y97.809
G1 Y81.003
; Layer C00 Pass 3 of 10
G1 X252
G1 Y97.409
G1 X274.031Y159.554
G1 X214.647Y150.008
G1 X207.585Y130.087
G1 Y201.63
G1 X200.566
G1 Y131.592
G1 X198.36
G1 Y201.63
G1 X191.341
G1 Y131.002
G1 X185.44Y149.377
G1 X125.969Y160.184
G1 X146Y97.809
G1 Y81.003
; Layer C00 Pass 4 of 10
G1 X252
G1 Y97.409
G1 X274.031Y159.554
G1 X214.647Y150.008
G1 X207.585Y130.087
G1 Y201.63
G1 X200.566
G1 Y131.592
G1 X198.36
G1 Y201.63
G1 X191.341
G1 Y131.002
G1 X185.44Y149.377
G1 X125.969Y160.184
G1 X146Y97.809
G1 Y81.003
; Layer C00 Pass 5 of 10
G1 X252
G1 Y97.409
G1 X274.031Y159.554
G1 X214.647Y150.008
G1 X207.585Y130.087
G1 Y201.63
G1 X200.566
G1 Y131.592
G1 X198.36
G1 Y201.63
G1 X191.341
G1 Y131.002
G1 X185.44Y149.377
G1 X125.969Y160.184
G1 X146Y97.809
G1 Y81.003
; Layer C00 Pass 6 of 10
G1 X252
G1 Y97.409
G1 X274.031Y159.554
G1 X214.647Y150.008
G1 X207.585Y130.087
G1 Y201.63
G1 X200.566
G1 Y131.592
G1 X198.36
G1 Y201.63
G1 X191.341
G1 Y131.002
G1 X185.44Y149.377
G1 X125.969Y160.184
G1 X146Y97.809
G1 Y81.003
; Layer C00 Pass 7 of 10
G1 X252
G1 Y97.409
G1 X274.031Y159.554
G1 X214.647Y150.008
G1 X207.585Y130.087
G1 Y201.63
G1 X200.566
G1 Y131.592
G1 X198.36
G1 Y201.63
G1 X191.341
G1 Y131.002
G1 X185.44Y149.377
G1 X125.969Y160.184
G1 X146Y97.809
G1 Y81.003
; Layer C00 Pass 8 of 10
G1 X252
G1 Y97.409
G1 X274.031Y159.554
G1 X214.647Y150.008
G1 X207.585Y130.087
G1 Y201.63
G1 X200.566
G1 Y131.592
G1 X198.36
G1 Y201.63
G1 X191.341
G1 Y131.002
G1 X185.44Y149.377
G1 X125.969Y160.184
G1 X146Y97.809
G1 Y81.003
; Layer C00 Pass 9 of 10
G1 X252
G1 Y97.409
G1 X274.031Y159.554
G1 X214.647Y150.008
G1 X207.585Y130.087
G1 Y201.63
G1 X200.566
G1 Y131.592
G1 X198.36
G1 Y201.63
G1 X191.341
G1 Y131.002
G1 X185.44Y149.377
G1 X125.969Y160.184
G1 X146Y97.809
G1 Y81.003
; Layer C00 Pass 10 of 10
G1 X252
G1 Y97.409
G1 X274.031Y159.554
G1 X214.647Y150.008
G1 X207.585Y130.087
G1 Y201.63
G1 X200.566
G1 Y131.592
G1 X198.36
G1 Y201.63
G1 X191.341
G1 Y131.002
G1 X185.44Y149.377
G1 X125.969Y160.184
G1 X146Y97.809
G1 Y81.003
G0 X160.106Y158.139
; Layer C00 Pass 1 of 10
G1 Y169.743
G1 X162.312
G1 Y158.139
G1 X162.504Y158.163
G1 X162.923Y158.238
G1 X163.737Y158.448
G1 X164.513Y158.731
G1 X165.248Y159.082
G1 X165.938Y159.498
G1 X166.581Y159.974
G1 X167.173Y160.505
G1 X167.711Y161.086
G1 X168.192Y161.715
G1 X168.613Y162.384
G1 X168.971Y163.091
G1 X169.262Y163.831
G1 X169.484Y164.599
G1 X169.634Y165.391
G1 X169.707Y166.202
G1 X169.702Y167.028
G1 X169.615Y167.864
G1 X169.439Y168.717
G1 X169.183Y169.532
G1 X168.852Y170.306
G1 X168.45Y171.034
G1 X167.983Y171.715
G1 X167.455Y172.343
G1 X166.871Y172.915
G1 X166.237Y173.429
G1 X165.556Y173.879
G1 X164.835Y174.263
G1 X164.077Y174.578
G1 X163.287Y174.819
G1 X162.472Y174.982
G1 X161.634Y175.065
G1 X160.78
G1 X159.914Y174.975
G1 X159.09Y174.807
G1 X158.301Y174.563
G1 X157.55Y174.249
G1 X156.84Y173.869
G1 X156.175Y173.426
G1 X155.557Y172.926
G1 X154.991Y172.372
G1 X154.479Y171.769
G1 X154.025Y171.121
G1 X153.632Y170.433
G1 X153.304Y169.709
G1 X153.043Y168.954
G1 X152.855Y168.17
G1 X152.74Y167.364
G1 X152.704Y166.539
G1 X152.749Y165.7
G1 X152.855Y164.974
G1 X153.02Y164.27
G1 X153.242Y163.59
G1 X153.518Y162.936
G1 X153.846Y162.311
G1 X154.223Y161.718
G1 X154.646Y161.16
G1 X155.112Y160.64
G1 X155.62Y160.159
G1 X156.166Y159.721
G1 X156.748Y159.328
G1 X157.364Y158.984
G1 X158.01Y158.69
G1 X158.684Y158.449
G1 X159.384Y158.265
G1 X160.106Y158.139
; Layer C00 Pass 2 of 10
G1 Y169.743
G1 X162.312
G1 Y158.139
G1 X162.504Y158.163
G1 X162.923Y158.238
G1 X163.737Y158.448
G1 X164.513Y158.731
G1 X165.248Y159.082
G1 X165.938Y159.498
G1 X166.581Y159.974
G1 X167.173Y160.505
G1 X167.711Y161.086
G1 X168.192Y161.715
G1 X168.613Y162.384
G1 X168.971Y163.091
G1 X169.262Y163.831
G1 X169.484Y164.599
G1 X169.634Y165.391
G1 X169.707Y166.202
G1 X169.702Y167.028
G1 X169.615Y167.864
G1 X169.439Y168.717
G1 X169.183Y169.532
G1 X168.852Y170.306
G1 X168.45Y171.034
G1 X167.983Y171.715
G1 X167.455Y172.343
G1 X166.871Y172.915
G1 X166.237Y173.429
G1 X165.556Y173.879
G1 X164.835Y174.263
G1 X164.077Y174.578
G1 X163.287Y174.819
G1 X162.472Y174.982
G1 X161.634Y175.065
G1 X160.78
G1 X159.914Y174.975
G1 X159.09Y174.807
G1 X158.301Y174.563
G1 X157.55Y174.249
G1 X156.84Y173.869
G1 X156.175Y173.426
G1 X155.557Y172.926
G1 X154.991Y172.372
G1 X154.479Y171.769
G1 X154.025Y171.121
G1 X153.632Y170.433
G1 X153.304Y169.709
G1 X153.043Y168.954
G1 X152.855Y168.17
G1 X152.74Y167.364
G1 X152.704Y166.539
G1 X152.749Y165.7
G1 X152.855Y164.974
G1 X153.02Y164.27
G1 X153.242Y163.59
G1 X153.518Y162.936
G1 X153.846Y162.311
G1 X154.223Y161.718
G1 X154.646Y161.16
G1 X155.112Y160.64
G1 X155.62Y160.159
G1 X156.166Y159.721
G1 X156.748Y159.328
G1 X157.364Y158.984
G1 X158.01Y158.69
G1 X158.684Y158.449
G1 X159.384Y158.265
G1 X160.106Y158.139
; Layer C00 Pass 3 of 10
G1 Y169.743
G1 X162.312
G1 Y158.139
G1 X162.504Y158.163
G1 X162.923Y158.238
G1 X163.737Y158.448
G1 X164.513Y158.731
G1 X165.248Y159.082
G1 X165.938Y159.498
G1 X166.581Y159.974
G1 X167.173Y160.505
G1 X167.711Y161.086
G1 X168.192Y161.715
G1 X168.613Y162.384
G1 X168.971Y163.091
G1 X169.262Y163.831
G1 X169.484Y164.599
G1 X169.634Y165.391
G1 X169.707Y166.202
G1 X169.702Y167.028
G1 X169.615Y167.864
G1 X169.439Y168.717
G1 X169.183Y169.532
G1 X168.852Y170.306
G1 X168.45Y171.034
G1 X167.983Y171.715
G1 X167.455Y172.343
G1 X166.871Y172.915
G1 X166.237Y173.429
G1 X165.556Y173.879
G1 X164.835Y174.263
G1 X164.077Y174.578
G1 X163.287Y174.819
G1 X162.472Y174.982
G1 X161.634Y175.065
G1 X160.78
G1 X159.914Y174.975
G1 X159.09Y174.807
G1 X158.301Y174.563
G1 X157.55Y174.249
G1 X156.84Y173.869
G1 X156.175Y173.426
G1 X155.557Y172.926
G1 X154.991Y172.372
G1 X154.479Y171.769
G1 X154.025Y171.121
G1 X153.632Y170.433
G1 X153.304Y169.709
G1 X153.043Y168.954
G1 X152.855Y168.17
G1 X152.74Y167.364
G1 X152.704Y166.539
G1 X152.749Y165.7
G1 X152.855Y164.974
G1 X153.02Y164.27
G1 X153.242Y163.59
G1 X153.518Y162.936
G1 X153.846Y162.311
G1 X154.223Y161.718
G1 X154.646Y161.16
G1 X155.112Y160.64
G1 X155.62Y160.159
G1 X156.166Y159.721
G1 X156.748Y159.328
G1 X157.364Y158.984
G1 X158.01Y158.69
G1 X158.684Y158.449
G1 X159.384Y158.265
G1 X160.106Y158.139
; Layer C00 Pass 4 of 10
G1 Y169.743
G1 X162.312
G1 Y158.139
G1 X162.504Y158.163
G1 X162.923Y158.238
G1 X163.737Y158.448
G1 X164.513Y158.731
G1 X165.248Y159.082
G1 X165.938Y159.498
G1 X166.581Y159.974
G1 X167.173Y160.505
G1 X167.711Y161.086
G1 X168.192Y161.715
G1 X168.613Y162.384
G1 X168.971Y163.091
G1 X169.262Y163.831
G1 X169.484Y164.599
G1 X169.634Y165.391
G1 X169.707Y166.202
G1 X169.702Y167.028
G1 X169.615Y167.864
G1 X169.439Y168.717
G1 X169.183Y169.532
G1 X168.852Y170.306
G1 X168.45Y171.034
G1 X167.983Y171.715
G1 X167.455Y172.343
G1 X166.871Y172.915
G1 X166.237Y173.429
G1 X165.556Y173.879
G1 X164.835Y174.263
G1 X164.077Y174.578
G1 X163.287Y174.819
G1 X162.472Y174.982
G1 X161.634Y175.065
G1 X160.78
G1 X159.914Y174.975
G1 X159.09Y174.807
G1 X158.301Y174.563
G1 X157.55Y174.249
G1 X156.84Y173.869
G1 X156.175Y173.426
G1 X155.557Y172.926
G1 X154.991Y172.372
G1 X154.479Y171.769
G1 X154.025Y171.121
G1 X153.632Y170.433
G1 X153.304Y169.709
G1 X153.043Y168.954
G1 X152.855Y168.17
G1 X152.74Y167.364
G1 X152.704Y166.539
G1 X152.749Y165.7
G1 X152.855Y164.974
G1 X153.02Y164.27
G1 X153.242Y163.59
G1 X153.518Y162.936
G1 X153.846Y162.311
G1 X154.223Y161.718
G1 X154.646Y161.16
G1 X155.112Y160.64
G1 X155.62Y160.159
G1 X156.166Y159.721
G1 X156.748Y159.328
G1 X157.364Y158.984
G1 X158.01Y158.69
G1 X158.684Y158.449
G1 X159.384Y158.265
G1 X160.106Y158.139
; Layer C00 Pass 5 of 10
G1 Y169.743
G1 X162.312
G1 Y158.139
G1 X162.504Y158.163
G1 X162.923Y158.238
G1 X163.737Y158.448
G1 X164.513Y158.731
G1 X165.248Y159.082
G1 X165.938Y159.498
G1 X166.581Y159.974
G1 X167.173Y160.505
G1 X167.711Y161.086
G1 X168.192Y161.715
G1 X168.613Y162.384
G1 X168.971Y163.091
G1 X169.262Y163.831
G1 X169.484Y164.599
G1 X169.634Y165.391
G1 X169.707Y166.202
G1 X169.702Y167.028
G1 X169.615Y167.864
G1 X169.439Y168.717
G1 X169.183Y169.532
G1 X168.852Y170.306
G1 X168.45Y171.034
G1 X167.983Y171.715
G1 X167.455Y172.343
G1 X166.871Y172.915
G1 X166.237Y173.429
G1 X165.556Y173.879
G1 X164.835Y174.263
G1 X164.077Y174.578
G1 X163.287Y174.819
G1 X162.472Y174.982
G1 X161.634Y175.065
G1 X160.78
G1 X159.914Y174.975
G1 X159.09Y174.807
G1 X158.301Y174.563
G1 X157.55Y174.249
G1 X156.84Y173.869
G1 X156.175Y173.426
G1 X155.557Y172.926
G1 X154.991Y172.372
G1 X154.479Y171.769
G1 X154.025Y171.121
G1 X153.632Y170.433
G1 X153.304Y169.709
G1 X153.043Y168.954
G1 X152.855Y168.17
G1 X152.74Y167.364
G1 X152.704Y166.539
G1 X152.749Y165.7
G1 X152.855Y164.974
G1 X153.02Y164.27
G1 X153.242Y163.59
G1 X153.518Y162.936
G1 X153.846Y162.311
G1 X154.223Y161.718
G1 X154.646Y161.16
G1 X155.112Y160.64
G1 X155.62Y160.159
G1 X156.166Y159.721
G1 X156.748Y159.328
G1 X157.364Y158.984
G1 X158.01Y158.69
G1 X158.684Y158.449
G1 X159.384Y158.265
G1 X160.106Y158.139
; Layer C00 Pass 6 of 10
G1 Y169.743
G1 X162.312
G1 Y158.139
G1 X162.504Y158.163
G1 X162.923Y158.238
G1 X163.737Y158.448
G1 X164.513Y158.731
G1 X165.248Y159.082
G1 X165.938Y159.498
G1 X166.581Y159.974
G1 X167.173Y160.505
G1 X167.711Y161.086
G1 X168.192Y161.715
G1 X168.613Y162.384
G1 X168.971Y163.091
G1 X169.262Y163.831
G1 X169.484Y164.599
G1 X169.634Y165.391
G1 X169.707Y166.202
G1 X169.702Y167.028
G1 X169.615Y167.864
G1 X169.439Y168.717
G1 X169.183Y169.532
G1 X168.852Y170.306
G1 X168.45Y171.034
G1 X167.983Y171.715
G1 X167.455Y172.343
G1 X166.871Y172.915
G1 X166.237Y173.429
G1 X165.556Y173.879
G1 X164.835Y174.263
G1 X164.077Y174.578
G1 X163.287Y174.819
G1 X162.472Y174.982
G1 X161.634Y175.065
G1 X160.78
G1 X159.914Y174.975
G1 X159.09Y174.807
G1 X158.301Y174.563
G1 X157.55Y174.249
G1 X156.84Y173.869
G1 X156.175Y173.426
G1 X155.557Y172.926
G1 X154.991Y172.372
G1 X154.479Y171.769
G1 X154.025Y171.121
G1 X153.632Y170.433
G1 X153.304Y169.709
G1 X153.043Y168.954
G1 X152.855Y168.17
G1 X152.74Y167.364
G1 X152.704Y166.539
G1 X152.749Y165.7
G1 X152.855Y164.974
G1 X153.02Y164.27
G1 X153.242Y163.59
G1 X153.518Y162.936
G1 X153.846Y162.311
G1 X154.223Y161.718
G1 X154.646Y161.16
G1 X155.112Y160.64
G1 X155.62Y160.159
G1 X156.166Y159.721
G1 X156.748Y159.328
G1 X157.364Y158.984
G1 X158.01Y158.69
G1 X158.684Y158.449
G1 X159.384Y158.265
G1 X160.106Y158.139
; Layer C00 Pass 7 of 10
G1 Y169.743
G1 X162.312
G1 Y158.139
G1 X162.504Y158.163
G1 X162.923Y158.238
G1 X163.737Y158.448
G1 X164.513Y158.731
G1 X165.248Y159.082
G1 X165.938Y159.498
G1 X166.581Y159.974
G1 X167.173Y160.505
G1 X167.711Y161.086
G1 X168.192Y161.715
G1 X168.613Y162.384
G1 X168.971Y163.091
G1 X169.262Y163.831
G1 X169.484Y164.599
G1 X169.634Y165.391
G1 X169.707Y166.202
G1 X169.702Y167.028
G1 X169.615Y167.864
G1 X169.439Y168.717
G1 X169.183Y169.532
G1 X168.852Y170.306
G1 X168.45Y171.034
G1 X167.983Y171.715
G1 X167.455Y172.343
G1 X166.871Y172.915
G1 X166.237Y173.429
G1 X165.556Y173.879
G1 X164.835Y174.263
G1 X164.077Y174.578
G1 X163.287Y174.819
G1 X162.472Y174.982
G1 X161.634Y175.065
G1 X160.78
G1 X159.914Y174.975
G1 X159.09Y174.807
G1 X158.301Y174.563
G1 X157.55Y174.249
G1 X156.84Y173.869
G1 X156.175Y173.426
G1 X155.557Y172.926
G1 X154.991Y172.372
G1 X154.479Y171.769
G1 X154.025Y171.121
G1 X153.632Y170.433
G1 X153.304Y169.709
G1 X153.043Y168.954
G1 X152.855Y168.17
G1 X152.74Y167.364
G1 X152.704Y166.539
G1 X152.749Y165.7
G1 X152.855Y164.974
G1 X153.02Y164.27
G1 X153.242Y163.59
G1 X153.518Y162.936
G1 X153.846Y162.311
G1 X154.223Y161.718
G1 X154.646Y161.16
G1 X155.112Y160.64
G1 X155.62Y160.159
G1 X156.166Y159.721
G1 X156.748Y159.328
G1 X157.364Y158.984
G1 X158.01Y158.69
G1 X158.684Y158.449
G1 X159.384Y158.265
G1 X160.106Y158.139
; Layer C00 Pass 8 of 10
G1 Y169.743
G1 X162.312
G1 Y158.139
G1 X162.504Y158.163
G1 X162.923Y158.238
G1 X163.737Y158.448
G1 X164.513Y158.731
G1 X165.248Y159.082
G1 X165.938Y159.498
G1 X166.581Y159.974
G1 X167.173Y160.505
G1 X167.711Y161.086
G1 X168.192Y161.715
G1 X168.613Y162.384
G1 X168.971Y163.091
G1 X169.262Y163.831
G1 X169.484Y164.599
G1 X169.634Y165.391
G1 X169.707Y166.202
G1 X169.702Y167.028
G1 X169.615Y167.864
G1 X169.439Y168.717
G1 X169.183Y169.532
G1 X168.852Y170.306
G1 X168.45Y171.034
G1 X167.983Y171.715
G1 X167.455Y172.343
G1 X166.871Y172.915
G1 X166.237Y173.429
G1 X165.556Y173.879
G1 X164.835Y174.263
G1 X164.077Y174.578
G1 X163.287Y174.819
G1 X162.472Y174.982
G1 X161.634Y175.065
G1 X160.78
G1 X159.914Y174.975
G1 X159.09Y174.807
G1 X158.301Y174.563
G1 X157.55Y174.249
G1 X156.84Y173.869
G1 X156.175Y173.426
G1 X155.557Y172.926
G1 X154.991Y172.372
G1 X154.479Y171.769
G1 X154.025Y171.121
G1 X153.632Y170.433
G1 X153.304Y169.709
G1 X153.043Y168.954
G1 X152.855Y168.17
G1 X152.74Y167.364
G1 X152.704Y166.539
G1 X152.749Y165.7
G1 X152.855Y164.974
G1 X153.02Y164.27
G1 X153.242Y163.59
G1 X153.518Y162.936
G1 X153.846Y162.311
G1 X154.223Y161.718
G1 X154.646Y161.16
G1 X155.112Y160.64
G1 X155.62Y160.159
G1 X156.166Y159.721
G1 X156.748Y159.328
G1 X157.364Y158.984
G1 X158.01Y158.69
G1 X158.684Y158.449
G1 X159.384Y158.265
G1 X160.106Y158.139
; Layer C00 Pass 9 of 10
G1 Y169.743
G1 X162.312
G1 Y158.139
G1 X162.504Y158.163
G1 X162.923Y158.238
G1 X163.737Y158.448
G1 X164.513Y158.731
G1 X165.248Y159.082
G1 X165.938Y159.498
G1 X166.581Y159.974
G1 X167.173Y160.505
G1 X167.711Y161.086
G1 X168.192Y161.715
G1 X168.613Y162.384
G1 X168.971Y163.091
G1 X169.262Y163.831
G1 X169.484Y164.599
G1 X169.634Y165.391
G1 X169.707Y166.202
G1 X169.702Y167.028
G1 X169.615Y167.864
G1 X169.439Y168.717
G1 X169.183Y169.532
G1 X168.852Y170.306
G1 X168.45Y171.034
G1 X167.983Y171.715
G1 X167.455Y172.343
G1 X166.871Y172.915
G1 X166.237Y173.429
G1 X165.556Y173.879
G1 X164.835Y174.263
G1 X164.077Y174.578
G1 X163.287Y174.819
G1 X162.472Y174.982
G1 X161.634Y175.065
G1 X160.78
G1 X159.914Y174.975
G1 X159.09Y174.807
G1 X158.301Y174.563
G1 X157.55Y174.249
G1 X156.84Y173.869
G1 X156.175Y173.426
G1 X155.557Y172.926
G1 X154.991Y172.372
G1 X154.479Y171.769
G1 X154.025Y171.121
G1 X153.632Y170.433
G1 X153.304Y169.709
G1 X153.043Y168.954
G1 X152.855Y168.17
G1 X152.74Y167.364
G1 X152.704Y166.539
G1 X152.749Y165.7
G1 X152.855Y164.974
G1 X153.02Y164.27
G1 X153.242Y163.59
G1 X153.518Y162.936
G1 X153.846Y162.311
G1 X154.223Y161.718
G1 X154.646Y161.16
G1 X155.112Y160.64
G1 X155.62Y160.159
G1 X156.166Y159.721
G1 X156.748Y159.328
G1 X157.364Y158.984
G1 X158.01Y158.69
G1 X158.684Y158.449
G1 X159.384Y158.265
G1 X160.106Y158.139
; Layer C00 Pass 10 of 10
G1 Y169.743
G1 X162.312
G1 Y158.139
G1 X162.504Y158.163
G1 X162.923Y158.238
G1 X163.737Y158.448
G1 X164.513Y158.731
G1 X165.248Y159.082
G1 X165.938Y159.498
G1 X166.581Y159.974
G1 X167.173Y160.505
G1 X167.711Y161.086
G1 X168.192Y161.715
G1 X168.613Y162.384
G1 X168.971Y163.091
G1 X169.262Y163.831
G1 X169.484Y164.599
G1 X169.634Y165.391
G1 X169.707Y166.202
G1 X169.702Y167.028
G1 X169.615Y167.864
G1 X169.439Y168.717
G1 X169.183Y169.532
G1 X168.852Y170.306
G1 X168.45Y171.034
G1 X167.983Y171.715
G1 X167.455Y172.343
G1 X166.871Y172.915
G1 X166.237Y173.429
G1 X165.556Y173.879
G1 X164.835Y174.263
G1 X164.077Y174.578
G1 X163.287Y174.819
G1 X162.472Y174.982
G1 X161.634Y175.065
G1 X160.78
G1 X159.914Y174.975
G1 X159.09Y174.807
G1 X158.301Y174.563
G1 X157.55Y174.249
G1 X156.84Y173.869
G1 X156.175Y173.426
G1 X155.557Y172.926
G1 X154.991Y172.372
G1 X154.479Y171.769
G1 X154.025Y171.121
G1 X153.632Y170.433
G1 X153.304Y169.709
G1 X153.043Y168.954
G1 X152.855Y168.17
G1 X152.74Y167.364
G1 X152.704Y166.539
G1 X152.749Y165.7
G1 X152.855Y164.974
G1 X153.02Y164.27
G1 X153.242Y163.59
G1 X153.518Y162.936
G1 X153.846Y162.311
G1 X154.223Y161.718
G1 X154.646Y161.16
G1 X155.112Y160.64
G1 X155.62Y160.159
G1 X156.166Y159.721
G1 X156.748Y159.328
G1 X157.364Y158.984
G1 X158.01Y158.69
G1 X158.684Y158.449
G1 X159.384Y158.265
G1 X160.106Y158.139
G0 X172.017Y161.718
; Layer C00 Pass 1 of 10
G1 X172.44Y161.16
G1 X172.907Y160.64
G1 X173.414Y160.159
G1 X173.961Y159.721
G1 X174.543Y159.328
G1 X175.158Y158.984
G1 X175.804Y158.69
G1 X176.478Y158.449
G1 X177.178Y158.265
G1 X177.901Y158.139
G1 Y169.743
G1 X180.106
G1 Y158.139
G1 X180.298Y158.163
G1 X180.717Y158.238
G1 X181.531Y158.448
G1 X182.307Y158.731
G1 X183.042Y159.082
G1 X183.732Y159.498
G1 X184.375Y159.974
G1 X184.967Y160.505
G1 X185.505Y161.086
G1 X185.986Y161.715
G1 X186.407Y162.384
G1 X186.765Y163.091
G1 X187.057Y163.831
G1 X187.279Y164.599
G1 X187.428Y165.391
G1 X187.502Y166.202
G1 X187.496Y167.028
G1 X187.409Y167.864
G1 X187.233Y168.717
G1 X186.977Y169.532
G1 X186.646Y170.306
G1 X186.244Y171.034
G1 X185.777Y171.715
G1 X185.249Y172.343
G1 X184.666Y172.915
G1 X184.031Y173.429
G1 X183.351Y173.879
G1 X182.629Y174.263
G1 X181.871Y174.578
G1 X181.082Y174.819
G1 X180.266Y174.982
G1 X179.429Y175.065
G1 X178.574
G1 X177.708Y174.975
G1 X176.885Y174.807
G1 X176.096Y174.563
G1 X175.345Y174.249
G1 X174.635Y173.869
G1 X173.969Y173.426
G1 X173.351Y172.926
G1 X172.785Y172.372
G1 X172.273Y171.769
G1 X171.819Y171.121
G1 X171.426Y170.433
G1 X171.098Y169.709
G1 X170.838Y168.954
G1 X170.649Y168.17
G1 X170.535Y167.364
G1 X170.498Y166.539
G1 X170.543Y165.7
G1 X170.649Y164.974
G1 X170.815Y164.27
G1 X171.037Y163.59
G1 X171.313Y162.936
G1 X171.64Y162.311
G1 X172.017Y161.718
; Layer C00 Pass 2 of 10
G1 X172.44Y161.16
G1 X172.907Y160.64
G1 X173.414Y160.159
G1 X173.961Y159.721
G1 X174.543Y159.328
G1 X175.158Y158.984
G1 X175.804Y158.69
G1 X176.478Y158.449
G1 X177.178Y158.265
G1 X177.901Y158.139
G1 Y169.743
G1 X180.106
G1 Y158.139
G1 X180.298Y158.163
G1 X180.717Y158.238
G1 X181.531Y158.448
G1 X182.307Y158.731
G1 X183.042Y159.082
G1 X183.732Y159.498
G1 X184.375Y159.974
G1 X184.967Y160.505
G1 X185.505Y161.086
G1 X185.986Y161.715
G1 X186.407Y162.384
G1 X186.765Y163.091
G1 X187.057Y163.831
G1 X187.279Y164.599
G1 X187.428Y165.391
G1 X187.502Y166.202
G1 X187.496Y167.028
G1 X187.409Y167.864
G1 X187.233Y168.717
G1 X186.977Y169.532
G1 X186.646Y170.306
G1 X186.244Y171.034
G1 X185.777Y171.715
G1 X185.249Y172.343
G1 X184.666Y172.915
G1 X184.031Y173.429
G1 X183.351Y173.879
G1 X182.629Y174.263
G1 X181.871Y174.578
G1 X181.082Y174.819
G1 X180.266Y174.982
G1 X179.429Y175.065
G1 X178.574
G1 X177.708Y174.975
G1 X176.885Y174.807
G1 X176.096Y174.563
G1 X175.345Y174.249
G1 X174.635Y173.869
G1 X173.969Y173.426
G1 X173.351Y172.926
G1 X172.785Y172.372
G1 X172.273Y171.769
G1 X171.819Y171.121
G1 X171.426Y170.433
G1 X171.098Y169.709
G1 X170.838Y168.954
G1 X170.649Y168.17
G1 X170.535Y167.364
G1 X170.498Y166.539
G1 X170.543Y165.7
G1 X170.649Y164.974
G1 X170.815Y164.27
G1 X171.037Y163.59
G1 X171.313Y162.936
G1 X171.64Y162.311
G1 X172.017Y161.718
; Layer C00 Pass 3 of 10
G1 X172.44Y161.16
G1 X172.907Y160.64
G1 X173.414Y160.159
G1 X173.961Y159.721
G1 X174.543Y159.328
G1 X175.158Y158.984
G1 X175.804Y158.69
G1 X176.478Y158.449
G1 X177.178Y158.265
G1 X177.901Y158.139
G1 Y169.743
G1 X180.106
G1 Y158.139
G1 X180.298Y158.163
G1 X180.717Y158.238
G1 X181.531Y158.448
G1 X182.307Y158.731
G1 X183.042Y159.082
G1 X183.732Y159.498
G1 X184.375Y159.974
G1 X184.967Y160.505
G1 X185.505Y161.086
G1 X185.986Y161.715
G1 X186.407Y162.384
G1 X186.765Y163.091
G1 X187.057Y163.831
G1 X187.279Y164.599
G1 X187.428Y165.391
G1 X187.502Y166.202
G1 X187.496Y167.028
G1 X187.409Y167.864
G1 X187.233Y168.717
G1 X186.977Y169.532
G1 X186.646Y170.306
G1 X186.244Y171.034
G1 X185.777Y171.715
G1 X185.249Y172.343
G1 X184.666Y172.915
G1 X184.031Y173.429
G1 X183.351Y173.879
G1 X182.629Y174.263
G1 X181.871Y174.578
G1 X181.082Y174.819
G1 X180.266Y174.982
G1 X179.429Y175.065
G1 X178.574
G1 X177.708Y174.975
G1 X176.885Y174.807
G1 X176.096Y174.563
G1 X175.345Y174.249
G1 X174.635Y173.869
G1 X173.969Y173.426
G1 X173.351Y172.926
G1 X172.785Y172.372
G1 X172.273Y171.769
G1 X171.819Y171.121
G1 X171.426Y170.433
G1 X171.098Y169.709
G1 X170.838Y168.954
G1 X170.649Y168.17
G1 X170.535Y167.364
G1 X170.498Y166.539
G1 X170.543Y165.7
G1 X170.649Y164.974
G1 X170.815Y164.27
G1 X171.037Y163.59
G1 X171.313Y162.936
G1 X171.64Y162.311
G1 X172.017Y161.718
; Layer C00 Pass 4 of 10
G1 X172.44Y161.16
G1 X172.907Y160.64
G1 X173.414Y160.159
G1 X173.961Y159.721
G1 X174.543Y159.328
G1 X175.158Y158.984
G1 X175.804Y158.69
G1 X176.478Y158.449
G1 X177.178Y158.265
G1 X177.901Y158.139
G1 Y169.743
G1 X180.106
G1 Y158.139
G1 X180.298Y158.163
G1 X180.717Y158.238
G1 X181.531Y158.448
G1 X182.307Y158.731
G1 X183.042Y159.082
G1 X183.732Y159.498
G1 X184.375Y159.974
G1 X184.967Y160.505
G1 X185.505Y161.086
G1 X185.986Y161.715
G1 X186.407Y162.384
G1 X186.765Y163.091
G1 X187.057Y163.831
G1 X187.279Y164.599
G1 X187.428Y165.391
G1 X187.502Y166.202
G1 X187.496Y167.028
G1 X187.409Y167.864
G1 X187.233Y168.717
G1 X186.977Y169.532
G1 X186.646Y170.306
G1 X186.244Y171.034
G1 X185.777Y171.715
G1 X185.249Y172.343
G1 X184.666Y172.915
G1 X184.031Y173.429
G1 X183.351Y173.879
G1 X182.629Y174.263
G1 X181.871Y174.578
G1 X181.082Y174.819
G1 X180.266Y174.982
G1 X179.429Y175.065
G1 X178.574
G1 X177.708Y174.975
G1 X176.885Y174.807
G1 X176.096Y174.563
G1 X175.345Y174.249
G1 X174.635Y173.869
G1 X173.969Y173.426
G1 X173.351Y172.926
G1 X172.785Y172.372
G1 X172.273Y171.769
G1 X171.819Y171.121
G1 X171.426Y170.433
G1 X171.098Y169.709
G1 X170.838Y168.954
G1 X170.649Y168.17
G1 X170.535Y167.364
G1 X170.498Y166.539
G1 X170.543Y165.7
G1 X170.649Y164.974
G1 X170.815Y164.27
G1 X171.037Y163.59
G1 X171.313Y162.936
G1 X171.64Y162.311
G1 X172.017Y161.718
; Layer C00 Pass 5 of 10
G1 X172.44Y161.16
G1 X172.907Y160.64
G1 X173.414Y160.159
G1 X173.961Y159.721
G1 X174.543Y159.328
G1 X175.158Y158.984
G1 X175.804Y158.69
G1 X176.478Y158.449
G1 X177.178Y158.265
G1 X177.901Y158.139
G1 Y169.743
G1 X180.106
G1 Y158.139
G1 X180.298Y158.163
G1 X180.717Y158.238
G1 X181.531Y158.448
G1 X182.307Y158.731
G1 X183.042Y159.082
G1 X183.732Y159.498
G1 X184.375Y159.974
G1 X184.967Y160.505
G1 X185.505Y161.086
G1 X185.986Y161.715
G1 X186.407Y162.384
G1 X186.765Y163.091
G1 X187.057Y163.831
G1 X187.279Y164.599
G1 X187.428Y165.391
G1 X187.502Y166.202
G1 X187.496Y167.028
G1 X187.409Y167.864
G1 X187.233Y168.717
G1 X186.977Y169.532
G1 X186.646Y170.306
G1 X186.244Y171.034
G1 X185.777Y171.715
G1 X185.249Y172.343
G1 X184.666Y172.915
G1 X184.031Y173.429
G1 X183.351Y173.879
G1 X182.629Y174.263
G1 X181.871Y174.578
G1 X181.082Y174.819
G1 X180.266Y174.982
G1 X179.429Y175.065
G1 X178.574
G1 X177.708Y174.975
G1 X176.885Y174.807
G1 X176.096Y174.563
G1 X175.345Y174.249
G1 X174.635Y173.869
G1 X173.969Y173.426
G1 X173.351Y172.926
G1 X172.785Y172.372
G1 X172.273Y171.769
G1 X171.819Y171.121
G1 X171.426Y170.433
G1 X171.098Y169.709
G1 X170.838Y168.954
G1 X170.649Y168.17
G1 X170.535Y167.364
G1 X170.498Y166.539
G1 X170.543Y165.7
G1 X170.649Y164.974
G1 X170.815Y164.27
G1 X171.037Y163.59
G1 X171.313Y162.936
G1 X171.64Y162.311
G1 X172.017Y161.718
; Layer C00 Pass 6 of 10
G1 X172.44Y161.16
G1 X172.907Y160.64
G1 X173.414Y160.159
G1 X173.961Y159.721
G1 X174.543Y159.328
G1 X175.158Y158.984
G1 X175.804Y158.69
G1 X176.478Y158.449
G1 X177.178Y158.265
G1 X177.901Y158.139
G1 Y169.743
G1 X180.106
G1 Y158.139
G1 X180.298Y158.163
G1 X180.717Y158.238
G1 X181.531Y158.448
G1 X182.307Y158.731
G1 X183.042Y159.082
G1 X183.732Y159.498
G1 X184.375Y159.974
G1 X184.967Y160.505
G1 X185.505Y161.086
G1 X185.986Y161.715
G1 X186.407Y162.384
G1 X186.765Y163.091
G1 X187.057Y163.831
G1 X187.279Y164.599
G1 X187.428Y165.391
G1 X187.502Y166.202
G1 X187.496Y167.028
G1 X187.409Y167.864
G1 X187.233Y168.717
G1 X186.977Y169.532
G1 X186.646Y170.306
G1 X186.244Y171.034
G1 X185.777Y171.715
G1 X185.249Y172.343
G1 X184.666Y172.915
G1 X184.031Y173.429
G1 X183.351Y173.879
G1 X182.629Y174.263
G1 X181.871Y174.578
G1 X181.082Y174.819
G1 X180.266Y174.982
G1 X179.429Y175.065
G1 X178.574
G1 X177.708Y174.975
G1 X176.885Y174.807
G1 X176.096Y174.563
G1 X175.345Y174.249
G1 X174.635Y173.869
G1 X173.969Y173.426
G1 X173.351Y172.926
G1 X172.785Y172.372
G1 X172.273Y171.769
G1 X171.819Y171.121
G1 X171.426Y170.433
G1 X171.098Y169.709
G1 X170.838Y168.954
G1 X170.649Y168.17
G1 X170.535Y167.364
G1 X170.498Y166.539
G1 X170.543Y165.7
G1 X170.649Y164.974
G1 X170.815Y164.27
G1 X171.037Y163.59
G1 X171.313Y162.936
G1 X171.64Y162.311
G1 X172.017Y161.718
; Layer C00 Pass 7 of 10
G1 X172.44Y161.16
G1 X172.907Y160.64
G1 X173.414Y160.159
G1 X173.961Y159.721
G1 X174.543Y159.328
G1 X175.158Y158.984
G1 X175.804Y158.69
G1 X176.478Y158.449
G1 X177.178Y158.265
G1 X177.901Y158.139
G1 Y169.743
G1 X180.106
G1 Y158.139
G1 X180.298Y158.163
G1 X180.717Y158.238
G1 X181.531Y158.448
G1 X182.307Y158.731
G1 X183.042Y159.082
G1 X183.732Y159.498
G1 X184.375Y159.974
G1 X184.967Y160.505
G1 X185.505Y161.086
G1 X185.986Y161.715
G1 X186.407Y162.384
G1 X186.765Y163.091
G1 X187.057Y163.831
G1 X187.279Y164.599
G1 X187.428Y165.391
G1 X187.502Y166.202
G1 X187.496Y167.028
G1 X187.409Y167.864
G1 X187.233Y168.717
G1 X186.977Y169.532
G1 X186.646Y170.306
G1 X186.244Y171.034
G1 X185.777Y171.715
G1 X185.249Y172.343
G1 X184.666Y172.915
G1 X184.031Y173.429
G1 X183.351Y173.879
G1 X182.629Y174.263
G1 X181.871Y174.578
G1 X181.082Y174.819
G1 X180.266Y174.982
G1 X179.429Y175.065
G1 X178.574
G1 X177.708Y174.975
G1 X176.885Y174.807
G1 X176.096Y174.563
G1 X175.345Y174.249
G1 X174.635Y173.869
G1 X173.969Y173.426
G1 X173.351Y172.926
G1 X172.785Y172.372
G1 X172.273Y171.769
G1 X171.819Y171.121
G1 X171.426Y170.433
G1 X171.098Y169.709
G1 X170.838Y168.954
G1 X170.649Y168.17
G1 X170.535Y167.364
G1 X170.498Y166.539
G1 X170.543Y165.7
G1 X170.649Y164.974
G1 X170.815Y164.27
G1 X171.037Y163.59
G1 X171.313Y162.936
G1 X171.64Y162.311
G1 X172.017Y161.718
; Layer C00 Pass 8 of 10
G1 X172.44Y161.16
G1 X172.907Y160.64
G1 X173.414Y160.159
G1 X173.961Y159.721
G1 X174.543Y159.328
G1 X175.158Y158.984
G1 X175.804Y158.69
G1 X176.478Y158.449
G1 X177.178Y158.265
G1 X177.901Y158.139
G1 Y169.743
G1 X180.106
G1 Y158.139
G1 X180.298Y158.163
G1 X180.717Y158.238
G1 X181.531Y158.448
G1 X182.307Y158.731
G1 X183.042Y159.082
G1 X183.732Y159.498
G1 X184.375Y159.974
G1 X184.967Y160.505
G1 X185.505Y161.086
G1 X185.986Y161.715
G1 X186.407Y162.384
G1 X186.765Y163.091
G1 X187.057Y163.831
G1 X187.279Y164.599
G1 X187.428Y165.391
G1 X187.502Y166.202
G1 X187.496Y167.028
G1 X187.409Y167.864
G1 X187.233Y168.717
G1 X186.977Y169.532
G1 X186.646Y170.306
G1 X186.244Y171.034
G1 X185.777Y171.715
G1 X185.249Y172.343
G1 X184.666Y172.915
G1 X184.031Y173.429
G1 X183.351Y173.879
G1 X182.629Y174.263
G1 X181.871Y174.578
G1 X181.082Y174.819
G1 X180.266Y174.982
G1 X179.429Y175.065
G1 X178.574
G1 X177.708Y174.975
G1 X176.885Y174.807
G1 X176.096Y174.563
G1 X175.345Y174.249
G1 X174.635Y173.869
G1 X173.969Y173.426
G1 X173.351Y172.926
G1 X172.785Y172.372
G1 X172.273Y171.769
G1 X171.819Y171.121
G1 X171.426Y170.433
G1 X171.098Y169.709
G1 X170.838Y168.954
G1 X170.649Y168.17
G1 X170.535Y167.364
G1 X170.498Y166.539
G1 X170.543Y165.7
G1 X170.649Y164.974
G1 X170.815Y164.27
G1 X171.037Y163.59
G1 X171.313Y162.936
G1 X171.64Y162.311
G1 X172.017Y161.718
; Layer C00 Pass 9 of 10
G1 X172.44Y161.16
G1 X172.907Y160.64
G1 X173.414Y160.159
G1 X173.961Y159.721
G1 X174.543Y159.328
G1 X175.158Y158.984
G1 X175.804Y158.69
G1 X176.478Y158.449
G1 X177.178Y158.265
G1 X177.901Y158.139
G1 Y169.743
G1 X180.106
G1 Y158.139
G1 X180.298Y158.163
G1 X180.717Y158.238
G1 X181.531Y158.448
G1 X182.307Y158.731
G1 X183.042Y159.082
G1 X183.732Y159.498
G1 X184.375Y159.974
G1 X184.967Y160.505
G1 X185.505Y161.086
G1 X185.986Y161.715
G1 X186.407Y162.384
G1 X186.765Y163.091
G1 X187.057Y163.831
G1 X187.279Y164.599
G1 X187.428Y165.391
G1 X187.502Y166.202
G1 X187.496Y167.028
G1 X187.409Y167.864
G1 X187.233Y168.717
G1 X186.977Y169.532
G1 X186.646Y170.306
G1 X186.244Y171.034
G1 X185.777Y171.715
G1 X185.249Y172.343
G1 X184.666Y172.915
G1 X184.031Y173.429
G1 X183.351Y173.879
G1 X182.629Y174.263
G1 X181.871Y174.578
G1 X181.082Y174.819
G1 X180.266Y174.982
G1 X179.429Y175.065
G1 X178.574
G1 X177.708Y174.975
G1 X176.885Y174.807
G1 X176.096Y174.563
G1 X175.345Y174.249
G1 X174.635Y173.869
G1 X173.969Y173.426
G1 X173.351Y172.926
G1 X172.785Y172.372
G1 X172.273Y171.769
G1 X171.819Y171.121
G1 X171.426Y170.433
G1 X171.098Y169.709
G1 X170.838Y168.954
G1 X170.649Y168.17
G1 X170.535Y167.364
G1 X170.498Y166.539
G1 X170.543Y165.7
G1 X170.649Y164.974
G1 X170.815Y164.27
G1 X171.037Y163.59
G1 X171.313Y162.936
G1 X171.64Y162.311
G1 X172.017Y161.718
; Layer C00 Pass 10 of 10
G1 X172.44Y161.16
G1 X172.907Y160.64
G1 X173.414Y160.159
G1 X173.961Y159.721
G1 X174.543Y159.328
G1 X175.158Y158.984
G1 X175.804Y158.69
G1 X176.478Y158.449
G1 X177.178Y158.265
G1 X177.901Y158.139
G1 Y169.743
G1 X180.106
G1 Y158.139
G1 X180.298Y158.163
G1 X180.717Y158.238
G1 X181.531Y158.448
G1 X182.307Y158.731
G1 X183.042Y159.082
G1 X183.732Y159.498
G1 X184.375Y159.974
G1 X184.967Y160.505
G1 X185.505Y161.086
G1 X185.986Y161.715
G1 X186.407Y162.384
G1 X186.765Y163.091
G1 X187.057Y163.831
G1 X187.279Y164.599
G1 X187.428Y165.391
G1 X187.502Y166.202
G1 X187.496Y167.028
G1 X187.409Y167.864
G1 X187.233Y168.717
G1 X186.977Y169.532
G1 X186.646Y170.306
G1 X186.244Y171.034
G1 X185.777Y171.715
G1 X185.249Y172.343
G1 X184.666Y172.915
G1 X184.031Y173.429
G1 X183.351Y173.879
G1 X182.629Y174.263
G1 X181.871Y174.578
G1 X181.082Y174.819
G1 X180.266Y174.982
G1 X179.429Y175.065
G1 X178.574
G1 X177.708Y174.975
G1 X176.885Y174.807
G1 X176.096Y174.563
G1 X175.345Y174.249
G1 X174.635Y173.869
G1 X173.969Y173.426
G1 X173.351Y172.926
G1 X172.785Y172.372
G1 X172.273Y171.769
G1 X171.819Y171.121
G1 X171.426Y170.433
G1 X171.098Y169.709
G1 X170.838Y168.954
G1 X170.649Y168.17
G1 X170.535Y167.364
G1 X170.498Y166.539
G1 X170.543Y165.7
G1 X170.649Y164.974
G1 X170.815Y164.27
G1 X171.037Y163.59
G1 X171.313Y162.936
G1 X171.64Y162.311
G1 X172.017Y161.718
G0 X149.732Y164.994
; Layer C00 Pass 1 of 10
G1 X149.899Y165.487
G1 X150.019Y165.997
G1 X150.091Y166.519
G1 X150.112Y167.052
G1 X150.082Y167.592
G1 X149.998Y168.135
G1 X149.855Y168.687
G1 X149.661Y169.211
G1 X149.419Y169.706
G1 X149.132Y170.169
G1 X148.805Y170.598
G1 X148.439Y170.991
G1 X148.039Y171.346
G1 X147.608Y171.661
G1 X147.148Y171.933
G1 X146.664Y172.161
G1 X146.159Y172.341
G1 X145.635Y172.473
G1 X145.096Y172.553
G1 X144.546Y172.58
G1 X143.988Y172.551
G1 X143.425Y172.465
G1 X142.874Y172.322
G1 X142.349Y172.128
G1 X141.855Y171.886
G1 X141.392Y171.6
G1 X140.962Y171.272
G1 X140.569Y170.907
G1 X140.214Y170.507
G1 X139.899Y170.075
G1 X139.627Y169.616
G1 X139.4Y169.132
G1 X139.219Y168.626
G1 X139.088Y168.102
G1 X139.007Y167.564
G1 X138.98Y167.014
G1 X139.009Y166.456
G1 X139.095Y165.893
G1 X139.194Y165.489
G1 X139.322Y165.097
G1 X139.476Y164.719
G1 X139.657Y164.356
G1 X139.863Y164.008
G1 X140.092Y163.678
G1 X140.345Y163.366
G1 X140.618Y163.073
G1 X140.912Y162.8
G1 X141.226Y162.549
G1 X141.557Y162.321
G1 X141.905Y162.116
G1 X142.269Y161.937
G1 X142.647Y161.783
G1 X143.039Y161.657
G1 X143.444Y161.56
G1 Y167.014
G1 X145.649
G1 Y161.56
G1 X145.668Y161.563
G1 X145.937Y161.625
G1 X146.462Y161.788
G1 X146.96Y161.999
G1 X147.429Y162.252
G1 X147.867Y162.547
G1 X148.271Y162.879
G1 X148.641Y163.245
G1 X148.974Y163.643
G1 X149.268Y164.069
G1 X149.521Y164.52
G1 X149.732Y164.994
; Layer C00 Pass 2 of 10
G1 X149.899Y165.487
G1 X150.019Y165.997
G1 X150.091Y166.519
G1 X150.112Y167.052
G1 X150.082Y167.592
G1 X149.998Y168.135
G1 X149.855Y168.687
G1 X149.661Y169.211
G1 X149.419Y169.706
G1 X149.132Y170.169
G1 X148.805Y170.598
G1 X148.439Y170.991
G1 X148.039Y171.346
G1 X147.608Y171.661
G1 X147.148Y171.933
G1 X146.664Y172.161
G1 X146.159Y172.341
G1 X145.635Y172.473
G1 X145.096Y172.553
G1 X144.546Y172.58
G1 X143.988Y172.551
G1 X143.425Y172.465
G1 X142.874Y172.322
G1 X142.349Y172.128
G1 X141.855Y171.886
G1 X141.392Y171.6
G1 X140.962Y171.272
G1 X140.569Y170.907
G1 X140.214Y170.507
G1 X139.899Y170.075
G1 X139.627Y169.616
G1 X139.4Y169.132
G1 X139.219Y168.626
G1 X139.088Y168.102
G1 X139.007Y167.564
G1 X138.98Y167.014
G1 X139.009Y166.456
G1 X139.095Y165.893
G1 X139.194Y165.489
G1 X139.322Y165.097
G1 X139.476Y164.719
G1 X139.657Y164.356
G1 X139.863Y164.008
G1 X140.092Y163.678
G1 X140.345Y163.366
G1 X140.618Y163.073
G1 X140.912Y162.8
G1 X141.226Y162.549
G1 X141.557Y162.321
G1 X141.905Y162.116
G1 X142.269Y161.937
G1 X142.647Y161.783
G1 X143.039Y161.657
G1 X143.444Y161.56
G1 Y167.014
G1 X145.649
G1 Y161.56
G1 X145.668Y161.563
G1 X145.937Y161.625
G1 X146.462Y161.788
G1 X146.96Y161.999
G1 X147.429Y162.252
G1 X147.867Y162.547
G1 X148.271Y162.879
G1 X148.641Y163.245
G1 X148.974Y163.643
G1 X149.268Y164.069
G1 X149.521Y164.52
G1 X149.732Y164.994
; Layer C00 Pass 3 of 10
G1 X149.899Y165.487
G1 X150.019Y165.997
G1 X150.091Y166.519
G1 X150.112Y167.052
G1 X150.082Y167.592
G1 X149.998Y168.135
G1 X149.855Y168.687
G1 X149.661Y169.211
G1 X149.419Y169.706
G1 X149.132Y170.169
G1 X148.805Y170.598
G1 X148.439Y170.991
G1 X148.039Y171.346
G1 X147.608Y171.661
G1 X147.148Y171.933
G1 X146.664Y172.161
G1 X146.159Y172.341
G1 X145.635Y172.473
G1 X145.096Y172.553
G1 X144.546Y172.58
G1 X143.988Y172.551
G1 X143.425Y172.465
G1 X142.874Y172.322
G1 X142.349Y172.128
G1 X141.855Y171.886
G1 X141.392Y171.6
G1 X140.962Y171.272
G1 X140.569Y170.907
G1 X140.214Y170.507
G1 X139.899Y170.075
G1 X139.627Y169.616
G1 X139.4Y169.132
G1 X139.219Y168.626
G1 X139.088Y168.102
G1 X139.007Y167.564
G1 X138.98Y167.014
G1 X139.009Y166.456
G1 X139.095Y165.893
G1 X139.194Y165.489
G1 X139.322Y165.097
G1 X139.476Y164.719
G1 X139.657Y164.356
G1 X139.863Y164.008
G1 X140.092Y163.678
G1 X140.345Y163.366
G1 X140.618Y163.073
G1 X140.912Y162.8
G1 X141.226Y162.549
G1 X141.557Y162.321
G1 X141.905Y162.116
G1 X142.269Y161.937
G1 X142.647Y161.783
G1 X143.039Y161.657
G1 X143.444Y161.56
G1 Y167.014
G1 X145.649
G1 Y161.56
G1 X145.668Y161.563
G1 X145.937Y161.625
G1 X146.462Y161.788
G1 X146.96Y161.999
G1 X147.429Y162.252
G1 X147.867Y162.547
G1 X148.271Y162.879
G1 X148.641Y163.245
G1 X148.974Y163.643
G1 X149.268Y164.069
G1 X149.521Y164.52
G1 X149.732Y164.994
; Layer C00 Pass 4 of 10
G1 X149.899Y165.487
G1 X150.019Y165.997
G1 X150.091Y166.519
G1 X150.112Y167.052
G1 X150.082Y167.592
G1 X149.998Y168.135
G1 X149.855Y168.687
G1 X149.661Y169.211
G1 X149.419Y169.706
G1 X149.132Y170.169
G1 X148.805Y170.598
G1 X148.439Y170.991
G1 X148.039Y171.346
G1 X147.608Y171.661
G1 X147.148Y171.933
G1 X146.664Y172.161
G1 X146.159Y172.341
G1 X145.635Y172.473
G1 X145.096Y172.553
G1 X144.546Y172.58
G1 X143.988Y172.551
G1 X143.425Y172.465
G1 X142.874Y172.322
G1 X142.349Y172.128
G1 X141.855Y171.886
G1 X141.392Y171.6
G1 X140.962Y171.272
G1 X140.569Y170.907
G1 X140.214Y170.507
G1 X139.899Y170.075
G1 X139.627Y169.616
G1 X139.4Y169.132
G1 X139.219Y168.626
G1 X139.088Y168.102
G1 X139.007Y167.564
G1 X138.98Y167.014
G1 X139.009Y166.456
G1 X139.095Y165.893
G1 X139.194Y165.489
G1 X139.322Y165.097
G1 X139.476Y164.719
G1 X139.657Y164.356
G1 X139.863Y164.008
G1 X140.092Y163.678
G1 X140.345Y163.366
G1 X140.618Y163.073
G1 X140.912Y162.8
G1 X141.226Y162.549
G1 X141.557Y162.321
G1 X141.905Y162.116
G1 X142.269Y161.937
G1 X142.647Y161.783
G1 X143.039Y161.657
G1 X143.444Y161.56
G1 Y167.014
G1 X145.649
G1 Y161.56
G1 X145.668Y161.563
G1 X145.937Y161.625
G1 X146.462Y161.788
G1 X146.96Y161.999
G1 X147.429Y162.252
G1 X147.867Y162.547
G1 X148.271Y162.879
G1 X148.641Y163.245
G1 X148.974Y163.643
G1 X149.268Y164.069
G1 X149.521Y164.52
G1 X149.732Y164.994
; Layer C00 Pass 5 of 10
G1 X149.899Y165.487
G1 X150.019Y165.997
G1 X150.091Y166.519
G1 X150.112Y167.052
G1 X150.082Y167.592
G1 X149.998Y168.135
G1 X149.855Y168.687
G1 X149.661Y169.211
G1 X149.419Y169.706
G1 X149.132Y170.169
G1 X148.805Y170.598
G1 X148.439Y170.991
G1 X148.039Y171.346
G1 X147.608Y171.661
G1 X147.148Y171.933
G1 X146.664Y172.161
G1 X146.159Y172.341
G1 X145.635Y172.473
G1 X145.096Y172.553
G1 X144.546Y172.58
G1 X143.988Y172.551
G1 X143.425Y172.465
G1 X142.874Y172.322
G1 X142.349Y172.128
G1 X141.855Y171.886
G1 X141.392Y171.6
G1 X140.962Y171.272
G1 X140.569Y170.907
G1 X140.214Y170.507
G1 X139.899Y170.075
G1 X139.627Y169.616
G1 X139.4Y169.132
G1 X139.219Y168.626
G1 X139.088Y168.102
G1 X139.007Y167.564
G1 X138.98Y167.014
G1 X139.009Y166.456
G1 X139.095Y165.893
G1 X139.194Y165.489
G1 X139.322Y165.097
G1 X139.476Y164.719
G1 X139.657Y164.356
G1 X139.863Y164.008
G1 X140.092Y163.678
G1 X140.345Y163.366
G1 X140.618Y163.073
G1 X140.912Y162.8
G1 X141.226Y162.549
G1 X141.557Y162.321
G1 X141.905Y162.116
G1 X142.269Y161.937
G1 X142.647Y161.783
G1 X143.039Y161.657
G1 X143.444Y161.56
G1 Y167.014
G1 X145.649
G1 Y161.56
G1 X145.668Y161.563
G1 X145.937Y161.625
G1 X146.462Y161.788
G1 X146.96Y161.999
G1 X147.429Y162.252
G1 X147.867Y162.547
G1 X148.271Y162.879
G1 X148.641Y163.245
G1 X148.974Y163.643
G1 X149.268Y164.069
G1 X149.521Y164.52
G1 X149.732Y164.994
; Layer C00 Pass 6 of 10
G1 X149.899Y165.487
G1 X150.019Y165.997
G1 X150.091Y166.519
G1 X150.112Y167.052
G1 X150.082Y167.592
G1 X149.998Y168.135
G1 X149.855Y168.687
G1 X149.661Y169.211
G1 X149.419Y169.706
G1 X149.132Y170.169
G1 X148.805Y170.598
G1 X148.439Y170.991
G1 X148.039Y171.346
G1 X147.608Y171.661
G1 X147.148Y171.933
G1 X146.664Y172.161
G1 X146.159Y172.341
G1 X145.635Y172.473
G1 X145.096Y172.553
G1 X144.546Y172.58
G1 X143.988Y172.551
G1 X143.425Y172.465
G1 X142.874Y172.322
G1 X142.349Y172.128
G1 X141.855Y171.886
G1 X141.392Y171.6
G1 X140.962Y171.272
G1 X140.569Y170.907
G1 X140.214Y170.507
G1 X139.899Y170.075
G1 X139.627Y169.616
G1 X139.4Y169.132
G1 X139.219Y168.626
G1 X139.088Y168.102
G1 X139.007Y167.564
G1 X138.98Y167.014
G1 X139.009Y166.456
G1 X139.095Y165.893
G1 X139.194Y165.489
G1 X139.322Y165.097
G1 X139.476Y164.719
G1 X139.657Y164.356
G1 X139.863Y164.008
G1 X140.092Y163.678
G1 X140.345Y163.366
G1 X140.618Y163.073
G1 X140.912Y162.8
G1 X141.226Y162.549
G1 X141.557Y162.321
G1 X141.905Y162.116
G1 X142.269Y161.937
G1 X142.647Y161.783
G1 X143.039Y161.657
G1 X143.444Y161.56
G1 Y167.014
G1 X145.649
G1 Y161.56
G1 X145.668Y161.563
G1 X145.937Y161.625
G1 X146.462Y161.788
G1 X146.96Y161.999
G1 X147.429Y162.252
G1 X147.867Y162.547
G1 X148.271Y162.879
G1 X148.641Y163.245
G1 X148.974Y163.643
G1 X149.268Y164.069
G1 X149.521Y164.52
G1 X149.732Y164.994
; Layer C00 Pass 7 of 10
G1 X149.899Y165.487
G1 X150.019Y165.997
G1 X150.091Y166.519
G1 X150.112Y167.052
G1 X150.082Y167.592
G1 X149.998Y168.135
G1 X149.855Y168.687
G1 X149.661Y169.211
G1 X149.419Y169.706
G1 X149.132Y170.169
G1 X148.805Y170.598
G1 X148.439Y170.991
G1 X148.039Y171.346
G1 X147.608Y171.661
G1 X147.148Y171.933
G1 X146.664Y172.161
G1 X146.159Y172.341
G1 X145.635Y172.473
G1 X145.096Y172.553
G1 X144.546Y172.58
G1 X143.988Y172.551
G1 X143.425Y172.465
G1 X142.874Y172.322
G1 X142.349Y172.128
G1 X141.855Y171.886
G1 X141.392Y171.6
G1 X140.962Y171.272
G1 X140.569Y170.907
G1 X140.214Y170.507
G1 X139.899Y170.075
G1 X139.627Y169.616
G1 X139.4Y169.132
G1 X139.219Y168.626
G1 X139.088Y168.102
G1 X139.007Y167.564
G1 X138.98Y167.014
G1 X139.009Y166.456
G1 X139.095Y165.893
G1 X139.194Y165.489
G1 X139.322Y165.097
G1 X139.476Y164.719
G1 X139.657Y164.356
G1 X139.863Y164.008
G1 X140.092Y163.678
G1 X140.345Y163.366
G1 X140.618Y163.073
G1 X140.912Y162.8
G1 X141.226Y162.549
G1 X141.557Y162.321
G1 X141.905Y162.116
G1 X142.269Y161.937
G1 X142.647Y161.783
G1 X143.039Y161.657
G1 X143.444Y161.56
G1 Y167.014
G1 X145.649
G1 Y161.56
G1 X145.668Y161.563
G1 X145.937Y161.625
G1 X146.462Y161.788
G1 X146.96Y161.999
G1 X147.429Y162.252
G1 X147.867Y162.547
G1 X148.271Y162.879
G1 X148.641Y163.245
G1 X148.974Y163.643
G1 X149.268Y164.069
G1 X149.521Y164.52
G1 X149.732Y164.994
; Layer C00 Pass 8 of 10
G1 X149.899Y165.487
G1 X150.019Y165.997
G1 X150.091Y166.519
G1 X150.112Y167.052
G1 X150.082Y167.592
G1 X149.998Y168.135
G1 X149.855Y168.687
G1 X149.661Y169.211
G1 X149.419Y169.706
G1 X149.132Y170.169
G1 X148.805Y170.598
G1 X148.439Y170.991
G1 X148.039Y171.346
G1 X147.608Y171.661
G1 X147.148Y171.933
G1 X146.664Y172.161
G1 X146.159Y172.341
G1 X145.635Y172.473
G1 X145.096Y172.553
G1 X144.546Y172.58
G1 X143.988Y172.551
G1 X143.425Y172.465
G1 X142.874Y172.322
G1 X142.349Y172.128
G1 X141.855Y171.886
G1 X141.392Y171.6
G1 X140.962Y171.272
G1 X140.569Y170.907
G1 X140.214Y170.507
G1 X139.899Y170.075
G1 X139.627Y169.616
G1 X139.4Y169.132
G1 X139.219Y168.626
G1 X139.088Y168.102
G1 X139.007Y167.564
G1 X138.98Y167.014
G1 X139.009Y166.456
G1 X139.095Y165.893
G1 X139.194Y165.489
G1 X139.322Y165.097
G1 X139.476Y164.719
G1 X139.657Y164.356
G1 X139.863Y164.008
G1 X140.092Y163.678
G1 X140.345Y163.366
G1 X140.618Y163.073
G1 X140.912Y162.8
G1 X141.226Y162.549
G1 X141.557Y162.321
G1 X141.905Y162.116
G1 X142.269Y161.937
G1 X142.647Y161.783
G1 X143.039Y161.657
G1 X143.444Y161.56
G1 Y167.014
G1 X145.649
G1 Y161.56
G1 X145.668Y161.563
G1 X145.937Y161.625
G1 X146.462Y161.788
G1 X146.96Y161.999
G1 X147.429Y162.252
G1 X147.867Y162.547
G1 X148.271Y162.879
G1 X148.641Y163.245
G1 X148.974Y163.643
G1 X149.268Y164.069
G1 X149.521Y164.52
G1 X149.732Y164.994
; Layer C00 Pass 9 of 10
G1 X149.899Y165.487
G1 X150.019Y165.997
G1 X150.091Y166.519
G1 X150.112Y167.052
G1 X150.082Y167.592
G1 X149.998Y168.135
G1 X149.855Y168.687
G1 X149.661Y169.211
G1 X149.419Y169.706
G1 X149.132Y170.169
G1 X148.805Y170.598
G1 X148.439Y170.991
G1 X148.039Y171.346
G1 X147.608Y171.661
G1 X147.148Y171.933
G1 X146.664Y172.161
G1 X146.159Y172.341
G1 X145.635Y172.473
G1 X145.096Y172.553
G1 X144.546Y172.58
G1 X143.988Y172.551
G1 X143.425Y172.465
G1 X142.874Y172.322
G1 X142.349Y172.128
G1 X141.855Y171.886
G1 X141.392Y171.6
G1 X140.962Y171.272
G1 X140.569Y170.907
G1 X140.214Y170.507
G1 X139.899Y170.075
G1 X139.627Y169.616
G1 X139.4Y169.132
G1 X139.219Y168.626
G1 X139.088Y168.102
G1 X139.007Y167.564
G1 X138.98Y167.014
G1 X139.009Y166.456
G1 X139.095Y165.893
G1 X139.194Y165.489
G1 X139.322Y165.097
G1 X139.476Y164.719
G1 X139.657Y164.356
G1 X139.863Y164.008
G1 X140.092Y163.678
G1 X140.345Y163.366
G1 X140.618Y163.073
G1 X140.912Y162.8
G1 X141.226Y162.549
G1 X141.557Y162.321
G1 X141.905Y162.116
G1 X142.269Y161.937
G1 X142.647Y161.783
G1 X143.039Y161.657
G1 X143.444Y161.56
G1 Y167.014
G1 X145.649
G1 Y161.56
G1 X145.668Y161.563
G1 X145.937Y161.625
G1 X146.462Y161.788
G1 X146.96Y161.999
G1 X147.429Y162.252
G1 X147.867Y162.547
G1 X148.271Y162.879
G1 X148.641Y163.245
G1 X148.974Y163.643
G1 X149.268Y164.069
G1 X149.521Y164.52
G1 X149.732Y164.994
; Layer C00 Pass 10 of 10
G1 X149.899Y165.487
G1 X150.019Y165.997
G1 X150.091Y166.519
G1 X150.112Y167.052
G1 X150.082Y167.592
G1 X149.998Y168.135
G1 X149.855Y168.687
G1 X149.661Y169.211
G1 X149.419Y169.706
G1 X149.132Y170.169
G1 X148.805Y170.598
G1 X148.439Y170.991
G1 X148.039Y171.346
G1 X147.608Y171.661
G1 X147.148Y171.933
G1 X146.664Y172.161
G1 X146.159Y172.341
G1 X145.635Y172.473
G1 X145.096Y172.553
G1 X144.546Y172.58
G1 X143.988Y172.551
G1 X143.425Y172.465
G1 X142.874Y172.322
G1 X142.349Y172.128
G1 X141.855Y171.886
G1 X141.392Y171.6
G1 X140.962Y171.272
G1 X140.569Y170.907
G1 X140.214Y170.507
G1 X139.899Y170.075
G1 X139.627Y169.616
G1 X139.4Y169.132
G1 X139.219Y168.626
G1 X139.088Y168.102
G1 X139.007Y167.564
G1 X138.98Y167.014
G1 X139.009Y166.456
G1 X139.095Y165.893
G1 X139.194Y165.489
G1 X139.322Y165.097
G1 X139.476Y164.719
G1 X139.657Y164.356
G1 X139.863Y164.008
G1 X140.092Y163.678
G1 X140.345Y163.366
G1 X140.618Y163.073
G1 X140.912Y162.8
G1 X141.226Y162.549
G1 X141.557Y162.321
G1 X141.905Y162.116
G1 X142.269Y161.937
G1 X142.647Y161.783
G1 X143.039Y161.657
G1 X143.444Y161.56
G1 Y167.014
G1 X145.649
G1 Y161.56
G1 X145.668Y161.563
G1 X145.937Y161.625
G1 X146.462Y161.788
G1 X146.96Y161.999
G1 X147.429Y162.252
G1 X147.867Y162.547
G1 X148.271Y162.879
G1 X148.641Y163.245
G1 X148.974Y163.643
G1 X149.268Y164.069
G1 X149.521Y164.52
G1 X149.732Y164.994
G0 X144.575Y177.43
; Layer C00 Pass 1 of 10
G1 X144.845Y177.492
G1 X145.37Y177.655
G1 X145.868Y177.865
G1 X146.337Y178.119
G1 X146.774Y178.413
G1 X147.179Y178.745
G1 X147.549Y179.112
G1 X147.881Y179.51
G1 X148.175Y179.936
G1 X148.429Y180.387
G1 X148.64Y180.861
G1 X148.806Y181.354
G1 X148.926Y181.864
G1 X148.998Y182.386
G1 X149.02Y182.919
G1 X148.989Y183.458
G1 X148.905Y184.002
G1 X148.762Y184.554
G1 X148.568Y185.078
G1 X148.326Y185.572
G1 X148.04Y186.035
G1 X147.712Y186.465
G1 X147.347Y186.858
G1 X146.947Y187.213
G1 X146.515Y187.528
G1 X146.056Y187.8
G1 X145.572Y188.027
G1 X145.066Y188.208
G1 X144.542Y188.34
G1 X144.004Y188.42
G1 X143.454Y188.447
G1 X142.896Y188.418
G1 X142.333Y188.332
G1 X141.781Y188.189
G1 X141.257Y187.995
G1 X140.762Y187.753
G1 X140.299Y187.467
G1 X139.87Y187.139
G1 X139.477Y186.774
G1 X139.122Y186.373
G1 X138.807Y185.942
G1 X138.535Y185.483
G1 X138.307Y184.998
G1 X138.127Y184.493
G1 X137.995Y183.969
G1 X137.915Y183.431
G1 X137.888Y182.881
G1 X137.916Y182.323
G1 X138.003Y181.759
G1 X138.102Y181.355
G1 X138.229Y180.964
G1 X138.384Y180.586
G1 X138.565Y180.223
G1 X138.77Y179.875
G1 X139Y179.545
G1 X139.252Y179.232
G1 X139.526Y178.939
G1 X139.82Y178.667
G1 X140.133Y178.416
G1 X140.464Y178.187
G1 X140.813Y177.983
G1 X141.176Y177.803
G1 X141.555Y177.65
G1 X141.947Y177.524
G1 X142.351Y177.426
G1 Y182.881
G1 X144.557
G1 Y177.426
G1 X144.575Y177.43
; Layer C00 Pass 2 of 10
G1 X144.845Y177.492
G1 X145.37Y177.655
G1 X145.868Y177.865
G1 X146.337Y178.119
G1 X146.774Y178.413
G1 X147.179Y178.745
G1 X147.549Y179.112
G1 X147.881Y179.51
G1 X148.175Y179.936
G1 X148.429Y180.387
G1 X148.64Y180.861
G1 X148.806Y181.354
G1 X148.926Y181.864
G1 X148.998Y182.386
G1 X149.02Y182.919
G1 X148.989Y183.458
G1 X148.905Y184.002
G1 X148.762Y184.554
G1 X148.568Y185.078
G1 X148.326Y185.572
G1 X148.04Y186.035
G1 X147.712Y186.465
G1 X147.347Y186.858
G1 X146.947Y187.213
G1 X146.515Y187.528
G1 X146.056Y187.8
G1 X145.572Y188.027
G1 X145.066Y188.208
G1 X144.542Y188.34
G1 X144.004Y188.42
G1 X143.454Y188.447
G1 X142.896Y188.418
G1 X142.333Y188.332
G1 X141.781Y188.189
G1 X141.257Y187.995
G1 X140.762Y187.753
G1 X140.299Y187.467
G1 X139.87Y187.139
G1 X139.477Y186.774
G1 X139.122Y186.373
G1 X138.807Y185.942
G1 X138.535Y185.483
G1 X138.307Y184.998
G1 X138.127Y184.493
G1 X137.995Y183.969
G1 X137.915Y183.431
G1 X137.888Y182.881
G1 X137.916Y182.323
G1 X138.003Y181.759
G1 X138.102Y181.355
G1 X138.229Y180.964
G1 X138.384Y180.586
G1 X138.565Y180.223
G1 X138.77Y179.875
G1 X139Y179.545
G1 X139.252Y179.232
G1 X139.526Y178.939
G1 X139.82Y178.667
G1 X140.133Y178.416
G1 X140.464Y178.187
G1 X140.813Y177.983
G1 X141.176Y177.803
G1 X141.555Y177.65
G1 X141.947Y177.524
G1 X142.351Y177.426
G1 Y182.881
G1 X144.557
G1 Y177.426
G1 X144.575Y177.43
; Layer C00 Pass 3 of 10
G1 X144.845Y177.492
G1 X145.37Y177.655
G1 X145.868Y177.865
G1 X146.337Y178.119
G1 X146.774Y178.413
G1 X147.179Y178.745
G1 X147.549Y179.112
G1 X147.881Y179.51
G1 X148.175Y179.936
G1 X148.429Y180.387
G1 X148.64Y180.861
G1 X148.806Y181.354
G1 X148.926Y181.864
G1 X148.998Y182.386
G1 X149.02Y182.919
G1 X148.989Y183.458
G1 X148.905Y184.002
G1 X148.762Y184.554
G1 X148.568Y185.078
G1 X148.326Y185.572
G1 X148.04Y186.035
G1 X147.712Y186.465
G1 X147.347Y186.858
G1 X146.947Y187.213
G1 X146.515Y187.528
G1 X146.056Y187.8
G1 X145.572Y188.027
G1 X145.066Y188.208
G1 X144.542Y188.34
G1 X144.004Y188.42
G1 X143.454Y188.447
G1 X142.896Y188.418
G1 X142.333Y188.332
G1 X141.781Y188.189
G1 X141.257Y187.995
G1 X140.762Y187.753
G1 X140.299Y187.467
G1 X139.87Y187.139
G1 X139.477Y186.774
G1 X139.122Y186.373
G1 X138.807Y185.942
G1 X138.535Y185.483
G1 X138.307Y184.998
G1 X138.127Y184.493
G1 X137.995Y183.969
G1 X137.915Y183.431
G1 X137.888Y182.881
G1 X137.916Y182.323
G1 X138.003Y181.759
G1 X138.102Y181.355
G1 X138.229Y180.964
G1 X138.384Y180.586
G1 X138.565Y180.223
G1 X138.77Y179.875
G1 X139Y179.545
G1 X139.252Y179.232
G1 X139.526Y178.939
G1 X139.82Y178.667
G1 X140.133Y178.416
G1 X140.464Y178.187
G1 X140.813Y177.983
G1 X141.176Y177.803
G1 X141.555Y177.65
G1 X141.947Y177.524
G1 X142.351Y177.426
G1 Y182.881
G1 X144.557
G1 Y177.426
G1 X144.575Y177.43
; Layer C00 Pass 4 of 10
G1 X144.845Y177.492
G1 X145.37Y177.655
G1 X145.868Y177.865
G1 X146.337Y178.119
G1 X146.774Y178.413
G1 X147.179Y178.745
G1 X147.549Y179.112
G1 X147.881Y179.51
G1 X148.175Y179.936
G1 X148.429Y180.387
G1 X148.64Y180.861
G1 X148.806Y181.354
G1 X148.926Y181.864
G1 X148.998Y182.386
G1 X149.02Y182.919
G1 X148.989Y183.458
G1 X148.905Y184.002
G1 X148.762Y184.554
G1 X148.568Y185.078
G1 X148.326Y185.572
G1 X148.04Y186.035
G1 X147.712Y186.465
G1 X147.347Y186.858
G1 X146.947Y187.213
G1 X146.515Y187.528
G1 X146.056Y187.8
G1 X145.572Y188.027
G1 X145.066Y188.208
G1 X144.542Y188.34
G1 X144.004Y188.42
G1 X143.454Y188.447
G1 X142.896Y188.418
G1 X142.333Y188.332
G1 X141.781Y188.189
G1 X141.257Y187.995
G1 X140.762Y187.753
G1 X140.299Y187.467
G1 X139.87Y187.139
G1 X139.477Y186.774
G1 X139.122Y186.373
G1 X138.807Y185.942
G1 X138.535Y185.483
G1 X138.307Y184.998
G1 X138.127Y184.493
G1 X137.995Y183.969
G1 X137.915Y183.431
G1 X137.888Y182.881
G1 X137.916Y182.323
G1 X138.003Y181.759
G1 X138.102Y181.355
G1 X138.229Y180.964
G1 X138.384Y180.586
G1 X138.565Y180.223
G1 X138.77Y179.875
G1 X139Y179.545
G1 X139.252Y179.232
G1 X139.526Y178.939
G1 X139.82Y178.667
G1 X140.133Y178.416
G1 X140.464Y178.187
G1 X140.813Y177.983
G1 X141.176Y177.803
G1 X141.555Y177.65
G1 X141.947Y177.524
G1 X142.351Y177.426
G1 Y182.881
G1 X144.557
G1 Y177.426
G1 X144.575Y177.43
; Layer C00 Pass 5 of 10
G1 X144.845Y177.492
G1 X145.37Y177.655
G1 X145.868Y177.865
G1 X146.337Y178.119
G1 X146.774Y178.413
G1 X147.179Y178.745
G1 X147.549Y179.112
G1 X147.881Y179.51
G1 X148.175Y179.936
G1 X148.429Y180.387
G1 X148.64Y180.861
G1 X148.806Y181.354
G1 X148.926Y181.864
G1 X148.998Y182.386
G1 X149.02Y182.919
G1 X148.989Y183.458
G1 X148.905Y184.002
G1 X148.762Y184.554
G1 X148.568Y185.078
G1 X148.326Y185.572
G1 X148.04Y186.035
G1 X147.712Y186.465
G1 X147.347Y186.858
G1 X146.947Y187.213
G1 X146.515Y187.528
G1 X146.056Y187.8
G1 X145.572Y188.027
G1 X145.066Y188.208
G1 X144.542Y188.34
G1 X144.004Y188.42
G1 X143.454Y188.447
G1 X142.896Y188.418
G1 X142.333Y188.332
G1 X141.781Y188.189
G1 X141.257Y187.995
G1 X140.762Y187.753
G1 X140.299Y187.467
G1 X139.87Y187.139
G1 X139.477Y186.774
G1 X139.122Y186.373
G1 X138.807Y185.942
G1 X138.535Y185.483
G1 X138.307Y184.998
G1 X138.127Y184.493
G1 X137.995Y183.969
G1 X137.915Y183.431
G1 X137.888Y182.881
G1 X137.916Y182.323
G1 X138.003Y181.759
G1 X138.102Y181.355
G1 X138.229Y180.964
G1 X138.384Y180.586
G1 X138.565Y180.223
G1 X138.77Y179.875
G1 X139Y179.545
G1 X139.252Y179.232
G1 X139.526Y178.939
G1 X139.82Y178.667
G1 X140.133Y178.416
G1 X140.464Y178.187
G1 X140.813Y177.983
G1 X141.176Y177.803
G1 X141.555Y177.65
G1 X141.947Y177.524
G1 X142.351Y177.426
G1 Y182.881
G1 X144.557
G1 Y177.426
G1 X144.575Y177.43
; Layer C00 Pass 6 of 10
G1 X144.845Y177.492
G1 X145.37Y177.655
G1 X145.868Y177.865
G1 X146.337Y178.119
G1 X146.774Y178.413
G1 X147.179Y178.745
G1 X147.549Y179.112
G1 X147.881Y179.51
G1 X148.175Y179.936
G1 X148.429Y180.387
G1 X148.64Y180.861
G1 X148.806Y181.354
G1 X148.926Y181.864
G1 X148.998Y182.386
G1 X149.02Y182.919
G1 X148.989Y183.458
G1 X148.905Y184.002
G1 X148.762Y184.554
G1 X148.568Y185.078
G1 X148.326Y185.572
G1 X148.04Y186.035
G1 X147.712Y186.465
G1 X147.347Y186.858
G1 X146.947Y187.213
G1 X146.515Y187.528
G1 X146.056Y187.8
G1 X145.572Y188.027
G1 X145.066Y188.208
G1 X144.542Y188.34
G1 X144.004Y188.42
G1 X143.454Y188.447
G1 X142.896Y188.418
G1 X142.333Y188.332
G1 X141.781Y188.189
G1 X141.257Y187.995
G1 X140.762Y187.753
G1 X140.299Y187.467
G1 X139.87Y187.139
G1 X139.477Y186.774
G1 X139.122Y186.373
G1 X138.807Y185.942
G1 X138.535Y185.483
G1 X138.307Y184.998
G1 X138.127Y184.493
G1 X137.995Y183.969
G1 X137.915Y183.431
G1 X137.888Y182.881
G1 X137.916Y182.323
G1 X138.003Y181.759
G1 X138.102Y181.355
G1 X138.229Y180.964
G1 X138.384Y180.586
G1 X138.565Y180.223
G1 X138.77Y179.875
G1 X139Y179.545
G1 X139.252Y179.232
G1 X139.526Y178.939
G1 X139.82Y178.667
G1 X140.133Y178.416
G1 X140.464Y178.187
G1 X140.813Y177.983
G1 X141.176Y177.803
G1 X141.555Y177.65
G1 X141.947Y177.524
G1 X142.351Y177.426
G1 Y182.881
G1 X144.557
G1 Y177.426
G1 X144.575Y177.43
; Layer C00 Pass 7 of 10
G1 X144.845Y177.492
G1 X145.37Y177.655
G1 X145.868Y177.865
G1 X146.337Y178.119
G1 X146.774Y178.413
G1 X147.179Y178.745
G1 X147.549Y179.112
G1 X147.881Y179.51
G1 X148.175Y179.936
G1 X148.429Y180.387
G1 X148.64Y180.861
G1 X148.806Y181.354
G1 X148.926Y181.864
G1 X148.998Y182.386
G1 X149.02Y182.919
G1 X148.989Y183.458
G1 X148.905Y184.002
G1 X148.762Y184.554
G1 X148.568Y185.078
G1 X148.326Y185.572
G1 X148.04Y186.035
G1 X147.712Y186.465
G1 X147.347Y186.858
G1 X146.947Y187.213
G1 X146.515Y187.528
G1 X146.056Y187.8
G1 X145.572Y188.027
G1 X145.066Y188.208
G1 X144.542Y188.34
G1 X144.004Y188.42
G1 X143.454Y188.447
G1 X142.896Y188.418
G1 X142.333Y188.332
G1 X141.781Y188.189
G1 X141.257Y187.995
G1 X140.762Y187.753
G1 X140.299Y187.467
G1 X139.87Y187.139
G1 X139.477Y186.774
G1 X139.122Y186.373
G1 X138.807Y185.942
G1 X138.535Y185.483
G1 X138.307Y184.998
G1 X138.127Y184.493
G1 X137.995Y183.969
G1 X137.915Y183.431
G1 X137.888Y182.881
G1 X137.916Y182.323
G1 X138.003Y181.759
G1 X138.102Y181.355
G1 X138.229Y180.964
G1 X138.384Y180.586
G1 X138.565Y180.223
G1 X138.77Y179.875
G1 X139Y179.545
G1 X139.252Y179.232
G1 X139.526Y178.939
G1 X139.82Y178.667
G1 X140.133Y178.416
G1 X140.464Y178.187
G1 X140.813Y177.983
G1 X141.176Y177.803
G1 X141.555Y177.65
G1 X141.947Y177.524
G1 X142.351Y177.426
G1 Y182.881
G1 X144.557
G1 Y177.426
G1 X144.575Y177.43
; Layer C00 Pass 8 of 10
G1 X144.845Y177.492
G1 X145.37Y177.655
G1 X145.868Y177.865
G1 X146.337Y178.119
G1 X146.774Y178.413
G1 X147.179Y178.745
G1 X147.549Y179.112
G1 X147.881Y179.51
G1 X148.175Y179.936
G1 X148.429Y180.387
G1 X148.64Y180.861
G1 X148.806Y181.354
G1 X148.926Y181.864
G1 X148.998Y182.386
G1 X149.02Y182.919
G1 X148.989Y183.458
G1 X148.905Y184.002
G1 X148.762Y184.554
G1 X148.568Y185.078
G1 X148.326Y185.572
G1 X148.04Y186.035
G1 X147.712Y186.465
G1 X147.347Y186.858
G1 X146.947Y187.213
G1 X146.515Y187.528
G1 X146.056Y187.8
G1 X145.572Y188.027
G1 X145.066Y188.208
G1 X144.542Y188.34
G1 X144.004Y188.42
G1 X143.454Y188.447
G1 X142.896Y188.418
G1 X142.333Y188.332
G1 X141.781Y188.189
G1 X141.257Y187.995
G1 X140.762Y187.753
G1 X140.299Y187.467
G1 X139.87Y187.139
G1 X139.477Y186.774
G1 X139.122Y186.373
G1 X138.807Y185.942
G1 X138.535Y185.483
G1 X138.307Y184.998
G1 X138.127Y184.493
G1 X137.995Y183.969
G1 X137.915Y183.431
G1 X137.888Y182.881
G1 X137.916Y182.323
G1 X138.003Y181.759
G1 X138.102Y181.355
G1 X138.229Y180.964
G1 X138.384Y180.586
G1 X138.565Y180.223
G1 X138.77Y179.875
G1 X139Y179.545
G1 X139.252Y179.232
G1 X139.526Y178.939
G1 X139.82Y178.667
G1 X140.133Y178.416
G1 X140.464Y178.187
G1 X140.813Y177.983
G1 X141.176Y177.803
G1 X141.555Y177.65
G1 X141.947Y177.524
G1 X142.351Y177.426
G1 Y182.881
G1 X144.557
G1 Y177.426
G1 X144.575Y177.43
; Layer C00 Pass 9 of 10
G1 X144.845Y177.492
G1 X145.37Y177.655
G1 X145.868Y177.865
G1 X146.337Y178.119
G1 X146.774Y178.413
G1 X147.179Y178.745
G1 X147.549Y179.112
G1 X147.881Y179.51
G1 X148.175Y179.936
G1 X148.429Y180.387
G1 X148.64Y180.861
G1 X148.806Y181.354
G1 X148.926Y181.864
G1 X148.998Y182.386
G1 X149.02Y182.919
G1 X148.989Y183.458
G1 X148.905Y184.002
G1 X148.762Y184.554
G1 X148.568Y185.078
G1 X148.326Y185.572
G1 X148.04Y186.035
G1 X147.712Y186.465
G1 X147.347Y186.858
G1 X146.947Y187.213
G1 X146.515Y187.528
G1 X146.056Y187.8
G1 X145.572Y188.027
G1 X145.066Y188.208
G1 X144.542Y188.34
G1 X144.004Y188.42
G1 X143.454Y188.447
G1 X142.896Y188.418
G1 X142.333Y188.332
G1 X141.781Y188.189
G1 X141.257Y187.995
G1 X140.762Y187.753
G1 X140.299Y187.467
G1 X139.87Y187.139
G1 X139.477Y186.774
G1 X139.122Y186.373
G1 X138.807Y185.942
G1 X138.535Y185.483
G1 X138.307Y184.998
G1 X138.127Y184.493
G1 X137.995Y183.969
G1 X137.915Y183.431
G1 X137.888Y182.881
G1 X137.916Y182.323
G1 X138.003Y181.759
G1 X138.102Y181.355
G1 X138.229Y180.964
G1 X138.384Y180.586
G1 X138.565Y180.223
G1 X138.77Y179.875
G1 X139Y179.545
G1 X139.252Y179.232
G1 X139.526Y178.939
G1 X139.82Y178.667
G1 X140.133Y178.416
G1 X140.464Y178.187
G1 X140.813Y177.983
G1 X141.176Y177.803
G1 X141.555Y177.65
G1 X141.947Y177.524
G1 X142.351Y177.426
G1 Y182.881
G1 X144.557
G1 Y177.426
G1 X144.575Y177.43
; Layer C00 Pass 10 of 10
G1 X144.845Y177.492
G1 X145.37Y177.655
G1 X145.868Y177.865
G1 X146.337Y178.119
G1 X146.774Y178.413
G1 X147.179Y178.745
G1 X147.549Y179.112
G1 X147.881Y179.51
G1 X148.175Y179.936
G1 X148.429Y180.387
G1 X148.64Y180.861
G1 X148.806Y181.354
G1 X148.926Y181.864
G1 X148.998Y182.386
G1 X149.02Y182.919
G1 X148.989Y183.458
G1 X148.905Y184.002
G1 X148.762Y184.554
G1 X148.568Y185.078
G1 X148.326Y185.572
G1 X148.04Y186.035
G1 X147.712Y186.465
G1 X147.347Y186.858
G1 X146.947Y187.213
G1 X146.515Y187.528
G1 X146.056Y187.8
G1 X145.572Y188.027
G1 X145.066Y188.208
G1 X144.542Y188.34
G1 X144.004Y188.42
G1 X143.454Y188.447
G1 X142.896Y188.418
G1 X142.333Y188.332
G1 X141.781Y188.189
G1 X141.257Y187.995
G1 X140.762Y187.753
G1 X140.299Y187.467
G1 X139.87Y187.139
G1 X139.477Y186.774
G1 X139.122Y186.373
G1 X138.807Y185.942
G1 X138.535Y185.483
G1 X138.307Y184.998
G1 X138.127Y184.493
G1 X137.995Y183.969
G1 X137.915Y183.431
G1 X137.888Y182.881
G1 X137.916Y182.323
G1 X138.003Y181.759
G1 X138.102Y181.355
G1 X138.229Y180.964
G1 X138.384Y180.586
G1 X138.565Y180.223
G1 X138.77Y179.875
G1 X139Y179.545
G1 X139.252Y179.232
G1 X139.526Y178.939
G1 X139.82Y178.667
G1 X140.133Y178.416
G1 X140.464Y178.187
G1 X140.813Y177.983
G1 X141.176Y177.803
G1 X141.555Y177.65
G1 X141.947Y177.524
G1 X142.351Y177.426
G1 Y182.881
G1 X144.557
G1 Y177.426
G1 X144.575Y177.43
G0 X154.017Y180.52
; Layer C00 Pass 1 of 10
G1 X154.44Y179.962
G1 X154.907Y179.442
G1 X155.414Y178.961
G1 X155.961Y178.523
G1 X156.543Y178.13
G1 X157.158Y177.786
G1 X157.804Y177.492
G1 X158.478Y177.251
G1 X159.178Y177.067
G1 X159.901Y176.941
G1 Y188.545
G1 X162.106
G1 Y176.941
G1 X162.298Y176.966
G1 X162.717Y177.041
G1 X163.531Y177.25
G1 X164.307Y177.533
G1 X165.042Y177.884
G1 X165.732Y178.3
G1 X166.375Y178.776
G1 X166.967Y179.307
G1 X167.505Y179.889
G1 X167.986Y180.517
G1 X168.407Y181.186
G1 X168.765Y181.893
G1 X169.057Y182.633
G1 X169.279Y183.401
G1 X169.428Y184.193
G1 X169.502Y185.004
G1 X169.496Y185.83
G1 X169.409Y186.667
G1 X169.233Y187.519
G1 X168.977Y188.334
G1 X168.646Y189.108
G1 X168.244Y189.837
G1 X167.777Y190.517
G1 X167.249Y191.145
G1 X166.666Y191.717
G1 X166.031Y192.231
G1 X165.351Y192.681
G1 X164.629Y193.066
G1 X163.871Y193.38
G1 X163.082Y193.621
G1 X162.266Y193.784
G1 X161.429Y193.867
G1 X160.574
G1 X159.708Y193.777
G1 X158.885Y193.609
G1 X158.096Y193.366
G1 X157.345Y193.051
G1 X156.635Y192.671
G1 X155.969Y192.228
G1 X155.351Y191.728
G1 X154.785Y191.174
G1 X154.273Y190.571
G1 X153.819Y189.923
G1 X153.426Y189.235
G1 X153.098Y188.511
G1 X152.838Y187.756
G1 X152.649Y186.973
G1 X152.535Y186.166
G1 X152.498Y185.341
G1 X152.543Y184.502
G1 X152.649Y183.777
G1 X152.815Y183.072
G1 X153.037Y182.392
G1 X153.313Y181.738
G1 X153.64Y181.113
G1 X154.017Y180.52
; Layer C00 Pass 2 of 10
G1 X154.44Y179.962
G1 X154.907Y179.442
G1 X155.414Y178.961
G1 X155.961Y178.523
G1 X156.543Y178.13
G1 X157.158Y177.786
G1 X157.804Y177.492
G1 X158.478Y177.251
G1 X159.178Y177.067
G1 X159.901Y176.941
G1 Y188.545
G1 X162.106
G1 Y176.941
G1 X162.298Y176.966
G1 X162.717Y177.041
G1 X163.531Y177.25
G1 X164.307Y177.533
G1 X165.042Y177.884
G1 X165.732Y178.3
G1 X166.375Y178.776
G1 X166.967Y179.307
G1 X167.505Y179.889
G1 X167.986Y180.517
G1 X168.407Y181.186
G1 X168.765Y181.893
G1 X169.057Y182.633
G1 X169.279Y183.401
G1 X169.428Y184.193
G1 X169.502Y185.004
G1 X169.496Y185.83
G1 X169.409Y186.667
G1 X169.233Y187.519
G1 X168.977Y188.334
G1 X168.646Y189.108
G1 X168.244Y189.837
G1 X167.777Y190.517
G1 X167.249Y191.145
G1 X166.666Y191.717
G1 X166.031Y192.231
G1 X165.351Y192.681
G1 X164.629Y193.066
G1 X163.871Y193.38
G1 X163.082Y193.621
G1 X162.266Y193.784
G1 X161.429Y193.867
G1 X160.574
G1 X159.708Y193.777
G1 X158.885Y193.609
G1 X158.096Y193.366
G1 X157.345Y193.051
G1 X156.635Y192.671
G1 X155.969Y192.228
G1 X155.351Y191.728
G1 X154.785Y191.174
G1 X154.273Y190.571
G1 X153.819Y189.923
G1 X153.426Y189.235
G1 X153.098Y188.511
G1 X152.838Y187.756
G1 X152.649Y186.973
G1 X152.535Y186.166
G1 X152.498Y185.341
G1 X152.543Y184.502
G1 X152.649Y183.777
G1 X152.815Y183.072
G1 X153.037Y182.392
G1 X153.313Y181.738
G1 X153.64Y181.113
G1 X154.017Y180.52
; Layer C00 Pass 3 of 10
G1 X154.44Y179.962
G1 X154.907Y179.442
G1 X155.414Y178.961
G1 X155.961Y178.523
G1 X156.543Y178.13
G1 X157.158Y177.786
G1 X157.804Y177.492
G1 X158.478Y177.251
G1 X159.178Y177.067
G1 X159.901Y176.941
G1 Y188.545
G1 X162.106
G1 Y176.941
G1 X162.298Y176.966
G1 X162.717Y177.041
G1 X163.531Y177.25
G1 X164.307Y177.533
G1 X165.042Y177.884
G1 X165.732Y178.3
G1 X166.375Y178.776
G1 X166.967Y179.307
G1 X167.505Y179.889
G1 X167.986Y180.517
G1 X168.407Y181.186
G1 X168.765Y181.893
G1 X169.057Y182.633
G1 X169.279Y183.401
G1 X169.428Y184.193
G1 X169.502Y185.004
G1 X169.496Y185.83
G1 X169.409Y186.667
G1 X169.233Y187.519
G1 X168.977Y188.334
G1 X168.646Y189.108
G1 X168.244Y189.837
G1 X167.777Y190.517
G1 X167.249Y191.145
G1 X166.666Y191.717
G1 X166.031Y192.231
G1 X165.351Y192.681
G1 X164.629Y193.066
G1 X163.871Y193.38
G1 X163.082Y193.621
G1 X162.266Y193.784
G1 X161.429Y193.867
G1 X160.574
G1 X159.708Y193.777
G1 X158.885Y193.609
G1 X158.096Y193.366
G1 X157.345Y193.051
G1 X156.635Y192.671
G1 X155.969Y192.228
G1 X155.351Y191.728
G1 X154.785Y191.174
G1 X154.273Y190.571
G1 X153.819Y189.923
G1 X153.426Y189.235
G1 X153.098Y188.511
G1 X152.838Y187.756
G1 X152.649Y186.973
G1 X152.535Y186.166
G1 X152.498Y185.341
G1 X152.543Y184.502
G1 X152.649Y183.777
G1 X152.815Y183.072
G1 X153.037Y182.392
G1 X153.313Y181.738
G1 X153.64Y181.113
G1 X154.017Y180.52
; Layer C00 Pass 4 of 10
G1 X154.44Y179.962
G1 X154.907Y179.442
G1 X155.414Y178.961
G1 X155.961Y178.523
G1 X156.543Y178.13
G1 X157.158Y177.786
G1 X157.804Y177.492
G1 X158.478Y177.251
G1 X159.178Y177.067
G1 X159.901Y176.941
G1 Y188.545
G1 X162.106
G1 Y176.941
G1 X162.298Y176.966
G1 X162.717Y177.041
G1 X163.531Y177.25
G1 X164.307Y177.533
G1 X165.042Y177.884
G1 X165.732Y178.3
G1 X166.375Y178.776
G1 X166.967Y179.307
G1 X167.505Y179.889
G1 X167.986Y180.517
G1 X168.407Y181.186
G1 X168.765Y181.893
G1 X169.057Y182.633
G1 X169.279Y183.401
G1 X169.428Y184.193
G1 X169.502Y185.004
G1 X169.496Y185.83
G1 X169.409Y186.667
G1 X169.233Y187.519
G1 X168.977Y188.334
G1 X168.646Y189.108
G1 X168.244Y189.837
G1 X167.777Y190.517
G1 X167.249Y191.145
G1 X166.666Y191.717
G1 X166.031Y192.231
G1 X165.351Y192.681
G1 X164.629Y193.066
G1 X163.871Y193.38
G1 X163.082Y193.621
G1 X162.266Y193.784
G1 X161.429Y193.867
G1 X160.574
G1 X159.708Y193.777
G1 X158.885Y193.609
G1 X158.096Y193.366
G1 X157.345Y193.051
G1 X156.635Y192.671
G1 X155.969Y192.228
G1 X155.351Y191.728
G1 X154.785Y191.174
G1 X154.273Y190.571
G1 X153.819Y189.923
G1 X153.426Y189.235
G1 X153.098Y188.511
G1 X152.838Y187.756
G1 X152.649Y186.973
G1 X152.535Y186.166
G1 X152.498Y185.341
G1 X152.543Y184.502
G1 X152.649Y183.777
G1 X152.815Y183.072
G1 X153.037Y182.392
G1 X153.313Y181.738
G1 X153.64Y181.113
G1 X154.017Y180.52
; Layer C00 Pass 5 of 10
G1 X154.44Y179.962
G1 X154.907Y179.442
G1 X155.414Y178.961
G1 X155.961Y178.523
G1 X156.543Y178.13
G1 X157.158Y177.786
G1 X157.804Y177.492
G1 X158.478Y177.251
G1 X159.178Y177.067
G1 X159.901Y176.941
G1 Y188.545
G1 X162.106
G1 Y176.941
G1 X162.298Y176.966
G1 X162.717Y177.041
G1 X163.531Y177.25
G1 X164.307Y177.533
G1 X165.042Y177.884
G1 X165.732Y178.3
G1 X166.375Y178.776
G1 X166.967Y179.307
G1 X167.505Y179.889
G1 X167.986Y180.517
G1 X168.407Y181.186
G1 X168.765Y181.893
G1 X169.057Y182.633
G1 X169.279Y183.401
G1 X169.428Y184.193
G1 X169.502Y185.004
G1 X169.496Y185.83
G1 X169.409Y186.667
G1 X169.233Y187.519
G1 X168.977Y188.334
G1 X168.646Y189.108
G1 X168.244Y189.837
G1 X167.777Y190.517
G1 X167.249Y191.145
G1 X166.666Y191.717
G1 X166.031Y192.231
G1 X165.351Y192.681
G1 X164.629Y193.066
G1 X163.871Y193.38
G1 X163.082Y193.621
G1 X162.266Y193.784
G1 X161.429Y193.867
G1 X160.574
G1 X159.708Y193.777
G1 X158.885Y193.609
G1 X158.096Y193.366
G1 X157.345Y193.051
G1 X156.635Y192.671
G1 X155.969Y192.228
G1 X155.351Y191.728
G1 X154.785Y191.174
G1 X154.273Y190.571
G1 X153.819Y189.923
G1 X153.426Y189.235
G1 X153.098Y188.511
G1 X152.838Y187.756
G1 X152.649Y186.973
G1 X152.535Y186.166
G1 X152.498Y185.341
G1 X152.543Y184.502
G1 X152.649Y183.777
G1 X152.815Y183.072
G1 X153.037Y182.392
G1 X153.313Y181.738
G1 X153.64Y181.113
G1 X154.017Y180.52
; Layer C00 Pass 6 of 10
G1 X154.44Y179.962
G1 X154.907Y179.442
G1 X155.414Y178.961
G1 X155.961Y178.523
G1 X156.543Y178.13
G1 X157.158Y177.786
G1 X157.804Y177.492
G1 X158.478Y177.251
G1 X159.178Y177.067
G1 X159.901Y176.941
G1 Y188.545
G1 X162.106
G1 Y176.941
G1 X162.298Y176.966
G1 X162.717Y177.041
G1 X163.531Y177.25
G1 X164.307Y177.533
G1 X165.042Y177.884
G1 X165.732Y178.3
G1 X166.375Y178.776
G1 X166.967Y179.307
G1 X167.505Y179.889
G1 X167.986Y180.517
G1 X168.407Y181.186
G1 X168.765Y181.893
G1 X169.057Y182.633
G1 X169.279Y183.401
G1 X169.428Y184.193
G1 X169.502Y185.004
G1 X169.496Y185.83
G1 X169.409Y186.667
G1 X169.233Y187.519
G1 X168.977Y188.334
G1 X168.646Y189.108
G1 X168.244Y189.837
G1 X167.777Y190.517
G1 X167.249Y191.145
G1 X166.666Y191.717
G1 X166.031Y192.231
G1 X165.351Y192.681
G1 X164.629Y193.066
G1 X163.871Y193.38
G1 X163.082Y193.621
G1 X162.266Y193.784
G1 X161.429Y193.867
G1 X160.574
G1 X159.708Y193.777
G1 X158.885Y193.609
G1 X158.096Y193.366
G1 X157.345Y193.051
G1 X156.635Y192.671
G1 X155.969Y192.228
G1 X155.351Y191.728
G1 X154.785Y191.174
G1 X154.273Y190.571
G1 X153.819Y189.923
G1 X153.426Y189.235
G1 X153.098Y188.511
G1 X152.838Y187.756
G1 X152.649Y186.973
G1 X152.535Y186.166
G1 X152.498Y185.341
G1 X152.543Y184.502
G1 X152.649Y183.777
G1 X152.815Y183.072
G1 X153.037Y182.392
G1 X153.313Y181.738
G1 X153.64Y181.113
G1 X154.017Y180.52
; Layer C00 Pass 7 of 10
G1 X154.44Y179.962
G1 X154.907Y179.442
G1 X155.414Y178.961
G1 X155.961Y178.523
G1 X156.543Y178.13
G1 X157.158Y177.786
G1 X157.804Y177.492
G1 X158.478Y177.251
G1 X159.178Y177.067
G1 X159.901Y176.941
G1 Y188.545
G1 X162.106
G1 Y176.941
G1 X162.298Y176.966
G1 X162.717Y177.041
G1 X163.531Y177.25
G1 X164.307Y177.533
G1 X165.042Y177.884
G1 X165.732Y178.3
G1 X166.375Y178.776
G1 X166.967Y179.307
G1 X167.505Y179.889
G1 X167.986Y180.517
G1 X168.407Y181.186
G1 X168.765Y181.893
G1 X169.057Y182.633
G1 X169.279Y183.401
G1 X169.428Y184.193
G1 X169.502Y185.004
G1 X169.496Y185.83
G1 X169.409Y186.667
G1 X169.233Y187.519
G1 X168.977Y188.334
G1 X168.646Y189.108
G1 X168.244Y189.837
G1 X167.777Y190.517
G1 X167.249Y191.145
G1 X166.666Y191.717
G1 X166.031Y192.231
G1 X165.351Y192.681
G1 X164.629Y193.066
G1 X163.871Y193.38
G1 X163.082Y193.621
G1 X162.266Y193.784
G1 X161.429Y193.867
G1 X160.574
G1 X159.708Y193.777
G1 X158.885Y193.609
G1 X158.096Y193.366
G1 X157.345Y193.051
G1 X156.635Y192.671
G1 X155.969Y192.228
G1 X155.351Y191.728
G1 X154.785Y191.174
G1 X154.273Y190.571
G1 X153.819Y189.923
G1 X153.426Y189.235
G1 X153.098Y188.511
G1 X152.838Y187.756
G1 X152.649Y186.973
G1 X152.535Y186.166
G1 X152.498Y185.341
G1 X152.543Y184.502
G1 X152.649Y183.777
G1 X152.815Y183.072
G1 X153.037Y182.392
G1 X153.313Y181.738
G1 X153.64Y181.113
G1 X154.017Y180.52
; Layer C00 Pass 8 of 10
G1 X154.44Y179.962
G1 X154.907Y179.442
G1 X155.414Y178.961
G1 X155.961Y178.523
G1 X156.543Y178.13
G1 X157.158Y177.786
G1 X157.804Y177.492
G1 X158.478Y177.251
G1 X159.178Y177.067
G1 X159.901Y176.941
G1 Y188.545
G1 X162.106
G1 Y176.941
G1 X162.298Y176.966
G1 X162.717Y177.041
G1 X163.531Y177.25
G1 X164.307Y177.533
G1 X165.042Y177.884
G1 X165.732Y178.3
G1 X166.375Y178.776
G1 X166.967Y179.307
G1 X167.505Y179.889
G1 X167.986Y180.517
G1 X168.407Y181.186
G1 X168.765Y181.893
G1 X169.057Y182.633
G1 X169.279Y183.401
G1 X169.428Y184.193
G1 X169.502Y185.004
G1 X169.496Y185.83
G1 X169.409Y186.667
G1 X169.233Y187.519
G1 X168.977Y188.334
G1 X168.646Y189.108
G1 X168.244Y189.837
G1 X167.777Y190.517
G1 X167.249Y191.145
G1 X166.666Y191.717
G1 X166.031Y192.231
G1 X165.351Y192.681
G1 X164.629Y193.066
G1 X163.871Y193.38
G1 X163.082Y193.621
G1 X162.266Y193.784
G1 X161.429Y193.867
G1 X160.574
G1 X159.708Y193.777
G1 X158.885Y193.609
G1 X158.096Y193.366
G1 X157.345Y193.051
G1 X156.635Y192.671
G1 X155.969Y192.228
G1 X155.351Y191.728
G1 X154.785Y191.174
G1 X154.273Y190.571
G1 X153.819Y189.923
G1 X153.426Y189.235
G1 X153.098Y188.511
G1 X152.838Y187.756
G1 X152.649Y186.973
G1 X152.535Y186.166
G1 X152.498Y185.341
G1 X152.543Y184.502
G1 X152.649Y183.777
G1 X152.815Y183.072
G1 X153.037Y182.392
G1 X153.313Y181.738
G1 X153.64Y181.113
G1 X154.017Y180.52
; Layer C00 Pass 9 of 10
G1 X154.44Y179.962
G1 X154.907Y179.442
G1 X155.414Y178.961
G1 X155.961Y178.523
G1 X156.543Y178.13
G1 X157.158Y177.786
G1 X157.804Y177.492
G1 X158.478Y177.251
G1 X159.178Y177.067
G1 X159.901Y176.941
G1 Y188.545
G1 X162.106
G1 Y176.941
G1 X162.298Y176.966
G1 X162.717Y177.041
G1 X163.531Y177.25
G1 X164.307Y177.533
G1 X165.042Y177.884
G1 X165.732Y178.3
G1 X166.375Y178.776
G1 X166.967Y179.307
G1 X167.505Y179.889
G1 X167.986Y180.517
G1 X168.407Y181.186
G1 X168.765Y181.893
G1 X169.057Y182.633
G1 X169.279Y183.401
G1 X169.428Y184.193
G1 X169.502Y185.004
G1 X169.496Y185.83
G1 X169.409Y186.667
G1 X169.233Y187.519
G1 X168.977Y188.334
G1 X168.646Y189.108
G1 X168.244Y189.837
G1 X167.777Y190.517
G1 X167.249Y191.145
G1 X166.666Y191.717
G1 X166.031Y192.231
G1 X165.351Y192.681
G1 X164.629Y193.066
G1 X163.871Y193.38
G1 X163.082Y193.621
G1 X162.266Y193.784
G1 X161.429Y193.867
G1 X160.574
G1 X159.708Y193.777
G1 X158.885Y193.609
G1 X158.096Y193.366
G1 X157.345Y193.051
G1 X156.635Y192.671
G1 X155.969Y192.228
G1 X155.351Y191.728
G1 X154.785Y191.174
G1 X154.273Y190.571
G1 X153.819Y189.923
G1 X153.426Y189.235
G1 X153.098Y188.511
G1 X152.838Y187.756
G1 X152.649Y186.973
G1 X152.535Y186.166
G1 X152.498Y185.341
G1 X152.543Y184.502
G1 X152.649Y183.777
G1 X152.815Y183.072
G1 X153.037Y182.392
G1 X153.313Y181.738
G1 X153.64Y181.113
G1 X154.017Y180.52
; Layer C00 Pass 10 of 10
G1 X154.44Y179.962
G1 X154.907Y179.442
G1 X155.414Y178.961
G1 X155.961Y178.523
G1 X156.543Y178.13
G1 X157.158Y177.786
G1 X157.804Y177.492
G1 X158.478Y177.251
G1 X159.178Y177.067
G1 X159.901Y176.941
G1 Y188.545
G1 X162.106
G1 Y176.941
G1 X162.298Y176.966
G1 X162.717Y177.041
G1 X163.531Y177.25
G1 X164.307Y177.533
G1 X165.042Y177.884
G1 X165.732Y178.3
G1 X166.375Y178.776
G1 X166.967Y179.307
G1 X167.505Y179.889
G1 X167.986Y180.517
G1 X168.407Y181.186
G1 X168.765Y181.893
G1 X169.057Y182.633
G1 X169.279Y183.401
G1 X169.428Y184.193
G1 X169.502Y185.004
G1 X169.496Y185.83
G1 X169.409Y186.667
G1 X169.233Y187.519
G1 X168.977Y188.334
G1 X168.646Y189.108
G1 X168.244Y189.837
G1 X167.777Y190.517
G1 X167.249Y191.145
G1 X166.666Y191.717
G1 X166.031Y192.231
G1 X165.351Y192.681
G1 X164.629Y193.066
G1 X163.871Y193.38
G1 X163.082Y193.621
G1 X162.266Y193.784
G1 X161.429Y193.867
G1 X160.574
G1 X159.708Y193.777
G1 X158.885Y193.609
G1 X158.096Y193.366
G1 X157.345Y193.051
G1 X156.635Y192.671
G1 X155.969Y192.228
G1 X155.351Y191.728
G1 X154.785Y191.174
G1 X154.273Y190.571
G1 X153.819Y189.923
G1 X153.426Y189.235
G1 X153.098Y188.511
G1 X152.838Y187.756
G1 X152.649Y186.973
G1 X152.535Y186.166
G1 X152.498Y185.341
G1 X152.543Y184.502
G1 X152.649Y183.777
G1 X152.815Y183.072
G1 X153.037Y182.392
G1 X153.313Y181.738
G1 X153.64Y181.113
G1 X154.017Y180.52
G0 X170.815Y183.018
; Layer C00 Pass 1 of 10
G1 X171.037Y182.338
G1 X171.313Y181.684
G1 X171.64Y181.059
G1 X172.017Y180.467
G1 X172.44Y179.909
G1 X172.907Y179.388
G1 X173.414Y178.907
G1 X173.961Y178.469
G1 X174.543Y178.076
G1 X175.158Y177.732
G1 X175.804Y177.438
G1 X176.478Y177.197
G1 X177.178Y177.013
G1 X177.901Y176.887
G1 Y188.492
G1 X180.106
G1 Y176.887
G1 X180.298Y176.912
G1 X180.717Y176.987
G1 X181.531Y177.196
G1 X182.307Y177.479
G1 X183.042Y177.831
G1 X183.732Y178.246
G1 X184.375Y178.722
G1 X184.967Y179.253
G1 X185.505Y179.835
G1 X185.986Y180.463
G1 X186.407Y181.133
G1 X186.765Y181.84
G1 X187.057Y182.579
G1 X187.279Y183.348
G1 X187.428Y184.139
G1 X187.502Y184.951
G1 X187.496Y185.777
G1 X187.409Y186.613
G1 X187.233Y187.465
G1 X186.977Y188.28
G1 X186.646Y189.054
G1 X186.244Y189.783
G1 X185.777Y190.463
G1 X185.249Y191.091
G1 X184.666Y191.664
G1 X184.031Y192.177
G1 X183.351Y192.628
G1 X182.629Y193.012
G1 X181.871Y193.326
G1 X181.082Y193.567
G1 X180.266Y193.731
G1 X179.429Y193.814
G1 X178.574
G1 X177.708Y193.724
G1 X176.885Y193.555
G1 X176.096Y193.312
G1 X175.345Y192.998
G1 X174.635Y192.617
G1 X173.969Y192.174
G1 X173.351Y191.674
G1 X172.785Y191.12
G1 X172.273Y190.517
G1 X171.819Y189.87
G1 X171.426Y189.182
G1 X171.098Y188.458
G1 X170.838Y187.702
G1 X170.649Y186.919
G1 X170.535Y186.113
G1 X170.498Y185.288
G1 X170.543Y184.448
G1 X170.649Y183.723
G1 X170.815Y183.018
; Layer C00 Pass 2 of 10
G1 X171.037Y182.338
G1 X171.313Y181.684
G1 X171.64Y181.059
G1 X172.017Y180.467
G1 X172.44Y179.909
G1 X172.907Y179.388
G1 X173.414Y178.907
G1 X173.961Y178.469
G1 X174.543Y178.076
G1 X175.158Y177.732
G1 X175.804Y177.438
G1 X176.478Y177.197
G1 X177.178Y177.013
G1 X177.901Y176.887
G1 Y188.492
G1 X180.106
G1 Y176.887
G1 X180.298Y176.912
G1 X180.717Y176.987
G1 X181.531Y177.196
G1 X182.307Y177.479
G1 X183.042Y177.831
G1 X183.732Y178.246
G1 X184.375Y178.722
G1 X184.967Y179.253
G1 X185.505Y179.835
G1 X185.986Y180.463
G1 X186.407Y181.133
G1 X186.765Y181.84
G1 X187.057Y182.579
G1 X187.279Y183.348
G1 X187.428Y184.139
G1 X187.502Y184.951
G1 X187.496Y185.777
G1 X187.409Y186.613
G1 X187.233Y187.465
G1 X186.977Y188.28
G1 X186.646Y189.054
G1 X186.244Y189.783
G1 X185.777Y190.463
G1 X185.249Y191.091
G1 X184.666Y191.664
G1 X184.031Y192.177
G1 X183.351Y192.628
G1 X182.629Y193.012
G1 X181.871Y193.326
G1 X181.082Y193.567
G1 X180.266Y193.731
G1 X179.429Y193.814
G1 X178.574
G1 X177.708Y193.724
G1 X176.885Y193.555
G1 X176.096Y193.312
G1 X175.345Y192.998
G1 X174.635Y192.617
G1 X173.969Y192.174
G1 X173.351Y191.674
G1 X172.785Y191.12
G1 X172.273Y190.517
G1 X171.819Y189.87
G1 X171.426Y189.182
G1 X171.098Y188.458
G1 X170.838Y187.702
G1 X170.649Y186.919
G1 X170.535Y186.113
G1 X170.498Y185.288
G1 X170.543Y184.448
G1 X170.649Y183.723
G1 X170.815Y183.018
; Layer C00 Pass 3 of 10
G1 X171.037Y182.338
G1 X171.313Y181.684
G1 X171.64Y181.059
G1 X172.017Y180.467
G1 X172.44Y179.909
G1 X172.907Y179.388
G1 X173.414Y178.907
G1 X173.961Y178.469
G1 X174.543Y178.076
G1 X175.158Y177.732
G1 X175.804Y177.438
G1 X176.478Y177.197
G1 X177.178Y177.013
G1 X177.901Y176.887
G1 Y188.492
G1 X180.106
G1 Y176.887
G1 X180.298Y176.912
G1 X180.717Y176.987
G1 X181.531Y177.196
G1 X182.307Y177.479
G1 X183.042Y177.831
G1 X183.732Y178.246
G1 X184.375Y178.722
G1 X184.967Y179.253
G1 X185.505Y179.835
G1 X185.986Y180.463
G1 X186.407Y181.133
G1 X186.765Y181.84
G1 X187.057Y182.579
G1 X187.279Y183.348
G1 X187.428Y184.139
G1 X187.502Y184.951
G1 X187.496Y185.777
G1 X187.409Y186.613
G1 X187.233Y187.465
G1 X186.977Y188.28
G1 X186.646Y189.054
G1 X186.244Y189.783
G1 X185.777Y190.463
G1 X185.249Y191.091
G1 X184.666Y191.664
G1 X184.031Y192.177
G1 X183.351Y192.628
G1 X182.629Y193.012
G1 X181.871Y193.326
G1 X181.082Y193.567
G1 X180.266Y193.731
G1 X179.429Y193.814
G1 X178.574
G1 X177.708Y193.724
G1 X176.885Y193.555
G1 X176.096Y193.312
G1 X175.345Y192.998
G1 X174.635Y192.617
G1 X173.969Y192.174
G1 X173.351Y191.674
G1 X172.785Y191.12
G1 X172.273Y190.517
G1 X171.819Y189.87
G1 X171.426Y189.182
G1 X171.098Y188.458
G1 X170.838Y187.702
G1 X170.649Y186.919
G1 X170.535Y186.113
G1 X170.498Y185.288
G1 X170.543Y184.448
G1 X170.649Y183.723
G1 X170.815Y183.018
; Layer C00 Pass 4 of 10
G1 X171.037Y182.338
G1 X171.313Y181.684
G1 X171.64Y181.059
G1 X172.017Y180.467
G1 X172.44Y179.909
G1 X172.907Y179.388
G1 X173.414Y178.907
G1 X173.961Y178.469
G1 X174.543Y178.076
G1 X175.158Y177.732
G1 X175.804Y177.438
G1 X176.478Y177.197
G1 X177.178Y177.013
G1 X177.901Y176.887
G1 Y188.492
G1 X180.106
G1 Y176.887
G1 X180.298Y176.912
G1 X180.717Y176.987
G1 X181.531Y177.196
G1 X182.307Y177.479
G1 X183.042Y177.831
G1 X183.732Y178.246
G1 X184.375Y178.722
G1 X184.967Y179.253
G1 X185.505Y179.835
G1 X185.986Y180.463
G1 X186.407Y181.133
G1 X186.765Y181.84
G1 X187.057Y182.579
G1 X187.279Y183.348
G1 X187.428Y184.139
G1 X187.502Y184.951
G1 X187.496Y185.777
G1 X187.409Y186.613
G1 X187.233Y187.465
G1 X186.977Y188.28
G1 X186.646Y189.054
G1 X186.244Y189.783
G1 X185.777Y190.463
G1 X185.249Y191.091
G1 X184.666Y191.664
G1 X184.031Y192.177
G1 X183.351Y192.628
G1 X182.629Y193.012
G1 X181.871Y193.326
G1 X181.082Y193.567
G1 X180.266Y193.731
G1 X179.429Y193.814
G1 X178.574
G1 X177.708Y193.724
G1 X176.885Y193.555
G1 X176.096Y193.312
G1 X175.345Y192.998
G1 X174.635Y192.617
G1 X173.969Y192.174
G1 X173.351Y191.674
G1 X172.785Y191.12
G1 X172.273Y190.517
G1 X171.819Y189.87
G1 X171.426Y189.182
G1 X171.098Y188.458
G1 X170.838Y187.702
G1 X170.649Y186.919
G1 X170.535Y186.113
G1 X170.498Y185.288
G1 X170.543Y184.448
G1 X170.649Y183.723
G1 X170.815Y183.018
; Layer C00 Pass 5 of 10
G1 X171.037Y182.338
G1 X171.313Y181.684
G1 X171.64Y181.059
G1 X172.017Y180.467
G1 X172.44Y179.909
G1 X172.907Y179.388
G1 X173.414Y178.907
G1 X173.961Y178.469
G1 X174.543Y178.076
G1 X175.158Y177.732
G1 X175.804Y177.438
G1 X176.478Y177.197
G1 X177.178Y177.013
G1 X177.901Y176.887
G1 Y188.492
G1 X180.106
G1 Y176.887
G1 X180.298Y176.912
G1 X180.717Y176.987
G1 X181.531Y177.196
G1 X182.307Y177.479
G1 X183.042Y177.831
G1 X183.732Y178.246
G1 X184.375Y178.722
G1 X184.967Y179.253
G1 X185.505Y179.835
G1 X185.986Y180.463
G1 X186.407Y181.133
G1 X186.765Y181.84
G1 X187.057Y182.579
G1 X187.279Y183.348
G1 X187.428Y184.139
G1 X187.502Y184.951
G1 X187.496Y185.777
G1 X187.409Y186.613
G1 X187.233Y187.465
G1 X186.977Y188.28
G1 X186.646Y189.054
G1 X186.244Y189.783
G1 X185.777Y190.463
G1 X185.249Y191.091
G1 X184.666Y191.664
G1 X184.031Y192.177
G1 X183.351Y192.628
G1 X182.629Y193.012
G1 X181.871Y193.326
G1 X181.082Y193.567
G1 X180.266Y193.731
G1 X179.429Y193.814
G1 X178.574
G1 X177.708Y193.724
G1 X176.885Y193.555
G1 X176.096Y193.312
G1 X175.345Y192.998
G1 X174.635Y192.617
G1 X173.969Y192.174
G1 X173.351Y191.674
G1 X172.785Y191.12
G1 X172.273Y190.517
G1 X171.819Y189.87
G1 X171.426Y189.182
G1 X171.098Y188.458
G1 X170.838Y187.702
G1 X170.649Y186.919
G1 X170.535Y186.113
G1 X170.498Y185.288
G1 X170.543Y184.448
G1 X170.649Y183.723
G1 X170.815Y183.018
; Layer C00 Pass 6 of 10
G1 X171.037Y182.338
G1 X171.313Y181.684
G1 X171.64Y181.059
G1 X172.017Y180.467
G1 X172.44Y179.909
G1 X172.907Y179.388
G1 X173.414Y178.907
G1 X173.961Y178.469
G1 X174.543Y178.076
G1 X175.158Y177.732
G1 X175.804Y177.438
G1 X176.478Y177.197
G1 X177.178Y177.013
G1 X177.901Y176.887
G1 Y188.492
G1 X180.106
G1 Y176.887
G1 X180.298Y176.912
G1 X180.717Y176.987
G1 X181.531Y177.196
G1 X182.307Y177.479
G1 X183.042Y177.831
G1 X183.732Y178.246
G1 X184.375Y178.722
G1 X184.967Y179.253
G1 X185.505Y179.835
G1 X185.986Y180.463
G1 X186.407Y181.133
G1 X186.765Y181.84
G1 X187.057Y182.579
G1 X187.279Y183.348
G1 X187.428Y184.139
G1 X187.502Y184.951
G1 X187.496Y185.777
G1 X187.409Y186.613
G1 X187.233Y187.465
G1 X186.977Y188.28
G1 X186.646Y189.054
G1 X186.244Y189.783
G1 X185.777Y190.463
G1 X185.249Y191.091
G1 X184.666Y191.664
G1 X184.031Y192.177
G1 X183.351Y192.628
G1 X182.629Y193.012
G1 X181.871Y193.326
G1 X181.082Y193.567
G1 X180.266Y193.731
G1 X179.429Y193.814
G1 X178.574
G1 X177.708Y193.724
G1 X176.885Y193.555
G1 X176.096Y193.312
G1 X175.345Y192.998
G1 X174.635Y192.617
G1 X173.969Y192.174
G1 X173.351Y191.674
G1 X172.785Y191.12
G1 X172.273Y190.517
G1 X171.819Y189.87
G1 X171.426Y189.182
G1 X171.098Y188.458
G1 X170.838Y187.702
G1 X170.649Y186.919
G1 X170.535Y186.113
G1 X170.498Y185.288
G1 X170.543Y184.448
G1 X170.649Y183.723
G1 X170.815Y183.018
; Layer C00 Pass 7 of 10
G1 X171.037Y182.338
G1 X171.313Y181.684
G1 X171.64Y181.059
G1 X172.017Y180.467
G1 X172.44Y179.909
G1 X172.907Y179.388
G1 X173.414Y178.907
G1 X173.961Y178.469
G1 X174.543Y178.076
G1 X175.158Y177.732
G1 X175.804Y177.438
G1 X176.478Y177.197
G1 X177.178Y177.013
G1 X177.901Y176.887
G1 Y188.492
G1 X180.106
G1 Y176.887
G1 X180.298Y176.912
G1 X180.717Y176.987
G1 X181.531Y177.196
G1 X182.307Y177.479
G1 X183.042Y177.831
G1 X183.732Y178.246
G1 X184.375Y178.722
G1 X184.967Y179.253
G1 X185.505Y179.835
G1 X185.986Y180.463
G1 X186.407Y181.133
G1 X186.765Y181.84
G1 X187.057Y182.579
G1 X187.279Y183.348
G1 X187.428Y184.139
G1 X187.502Y184.951
G1 X187.496Y185.777
G1 X187.409Y186.613
G1 X187.233Y187.465
G1 X186.977Y188.28
G1 X186.646Y189.054
G1 X186.244Y189.783
G1 X185.777Y190.463
G1 X185.249Y191.091
G1 X184.666Y191.664
G1 X184.031Y192.177
G1 X183.351Y192.628
G1 X182.629Y193.012
G1 X181.871Y193.326
G1 X181.082Y193.567
G1 X180.266Y193.731
G1 X179.429Y193.814
G1 X178.574
G1 X177.708Y193.724
G1 X176.885Y193.555
G1 X176.096Y193.312
G1 X175.345Y192.998
G1 X174.635Y192.617
G1 X173.969Y192.174
G1 X173.351Y191.674
G1 X172.785Y191.12
G1 X172.273Y190.517
G1 X171.819Y189.87
G1 X171.426Y189.182
G1 X171.098Y188.458
G1 X170.838Y187.702
G1 X170.649Y186.919
G1 X170.535Y186.113
G1 X170.498Y185.288
G1 X170.543Y184.448
G1 X170.649Y183.723
G1 X170.815Y183.018
; Layer C00 Pass 8 of 10
G1 X171.037Y182.338
G1 X171.313Y181.684
G1 X171.64Y181.059
G1 X172.017Y180.467
G1 X172.44Y179.909
G1 X172.907Y179.388
G1 X173.414Y178.907
G1 X173.961Y178.469
G1 X174.543Y178.076
G1 X175.158Y177.732
G1 X175.804Y177.438
G1 X176.478Y177.197
G1 X177.178Y177.013
G1 X177.901Y176.887
G1 Y188.492
G1 X180.106
G1 Y176.887
G1 X180.298Y176.912
G1 X180.717Y176.987
G1 X181.531Y177.196
G1 X182.307Y177.479
G1 X183.042Y177.831
G1 X183.732Y178.246
G1 X184.375Y178.722
G1 X184.967Y179.253
G1 X185.505Y179.835
G1 X185.986Y180.463
G1 X186.407Y181.133
G1 X186.765Y181.84
G1 X187.057Y182.579
G1 X187.279Y183.348
G1 X187.428Y184.139
G1 X187.502Y184.951
G1 X187.496Y185.777
G1 X187.409Y186.613
G1 X187.233Y187.465
G1 X186.977Y188.28
G1 X186.646Y189.054
G1 X186.244Y189.783
G1 X185.777Y190.463
G1 X185.249Y191.091
G1 X184.666Y191.664
G1 X184.031Y192.177
G1 X183.351Y192.628
G1 X182.629Y193.012
G1 X181.871Y193.326
G1 X181.082Y193.567
G1 X180.266Y193.731
G1 X179.429Y193.814
G1 X178.574
G1 X177.708Y193.724
G1 X176.885Y193.555
G1 X176.096Y193.312
G1 X175.345Y192.998
G1 X174.635Y192.617
G1 X173.969Y192.174
G1 X173.351Y191.674
G1 X172.785Y191.12
G1 X172.273Y190.517
G1 X171.819Y189.87
G1 X171.426Y189.182
G1 X171.098Y188.458
G1 X170.838Y187.702
G1 X170.649Y186.919
G1 X170.535Y186.113
G1 X170.498Y185.288
G1 X170.543Y184.448
G1 X170.649Y183.723
G1 X170.815Y183.018
; Layer C00 Pass 9 of 10
G1 X171.037Y182.338
G1 X171.313Y181.684
G1 X171.64Y181.059
G1 X172.017Y180.467
G1 X172.44Y179.909
G1 X172.907Y179.388
G1 X173.414Y178.907
G1 X173.961Y178.469
G1 X174.543Y178.076
G1 X175.158Y177.732
G1 X175.804Y177.438
G1 X176.478Y177.197
G1 X177.178Y177.013
G1 X177.901Y176.887
G1 Y188.492
G1 X180.106
G1 Y176.887
G1 X180.298Y176.912
G1 X180.717Y176.987
G1 X181.531Y177.196
G1 X182.307Y177.479
G1 X183.042Y177.831
G1 X183.732Y178.246
G1 X184.375Y178.722
G1 X184.967Y179.253
G1 X185.505Y179.835
G1 X185.986Y180.463
G1 X186.407Y181.133
G1 X186.765Y181.84
G1 X187.057Y182.579
G1 X187.279Y183.348
G1 X187.428Y184.139
G1 X187.502Y184.951
G1 X187.496Y185.777
G1 X187.409Y186.613
G1 X187.233Y187.465
G1 X186.977Y188.28
G1 X186.646Y189.054
G1 X186.244Y189.783
G1 X185.777Y190.463
G1 X185.249Y191.091
G1 X184.666Y191.664
G1 X184.031Y192.177
G1 X183.351Y192.628
G1 X182.629Y193.012
G1 X181.871Y193.326
G1 X181.082Y193.567
G1 X180.266Y193.731
G1 X179.429Y193.814
G1 X178.574
G1 X177.708Y193.724
G1 X176.885Y193.555
G1 X176.096Y193.312
G1 X175.345Y192.998
G1 X174.635Y192.617
G1 X173.969Y192.174
G1 X173.351Y191.674
G1 X172.785Y191.12
G1 X172.273Y190.517
G1 X171.819Y189.87
G1 X171.426Y189.182
G1 X171.098Y188.458
G1 X170.838Y187.702
G1 X170.649Y186.919
G1 X170.535Y186.113
G1 X170.498Y185.288
G1 X170.543Y184.448
G1 X170.649Y183.723
G1 X170.815Y183.018
; Layer C00 Pass 10 of 10
G1 X171.037Y182.338
G1 X171.313Y181.684
G1 X171.64Y181.059
G1 X172.017Y180.467
G1 X172.44Y179.909
G1 X172.907Y179.388
G1 X173.414Y178.907
G1 X173.961Y178.469
G1 X174.543Y178.076
G1 X175.158Y177.732
G1 X175.804Y177.438
G1 X176.478Y177.197
G1 X177.178Y177.013
G1 X177.901Y176.887
G1 Y188.492
G1 X180.106
G1 Y176.887
G1 X180.298Y176.912
G1 X180.717Y176.987
G1 X181.531Y177.196
G1 X182.307Y177.479
G1 X183.042Y177.831
G1 X183.732Y178.246
G1 X184.375Y178.722
G1 X184.967Y179.253
G1 X185.505Y179.835
G1 X185.986Y180.463
G1 X186.407Y181.133
G1 X186.765Y181.84
G1 X187.057Y182.579
G1 X187.279Y183.348
G1 X187.428Y184.139
G1 X187.502Y184.951
G1 X187.496Y185.777
G1 X187.409Y186.613
G1 X187.233Y187.465
G1 X186.977Y188.28
G1 X186.646Y189.054
G1 X186.244Y189.783
G1 X185.777Y190.463
G1 X185.249Y191.091
G1 X184.666Y191.664
G1 X184.031Y192.177
G1 X183.351Y192.628
G1 X182.629Y193.012
G1 X181.871Y193.326
G1 X181.082Y193.567
G1 X180.266Y193.731
G1 X179.429Y193.814
G1 X178.574
G1 X177.708Y193.724
G1 X176.885Y193.555
G1 X176.096Y193.312
G1 X175.345Y192.998
G1 X174.635Y192.617
G1 X173.969Y192.174
G1 X173.351Y191.674
G1 X172.785Y191.12
G1 X172.273Y190.517
G1 X171.819Y189.87
G1 X171.426Y189.182
G1 X171.098Y188.458
G1 X170.838Y187.702
G1 X170.649Y186.919
G1 X170.535Y186.113
G1 X170.498Y185.288
G1 X170.543Y184.448
G1 X170.649Y183.723
G1 X170.815Y183.018
G0 X164.217Y199.639
; Layer C00 Pass 1 of 10
G1 X165.031Y199.849
G1 X165.807Y200.132
G1 X166.542Y200.483
G1 X167.232Y200.899
G1 X167.875Y201.375
G1 X168.467Y201.906
G1 X169.005Y202.488
G1 X169.486Y203.116
G1 X169.907Y203.785
G1 X170.265Y204.492
G1 X170.557Y205.232
G1 X170.779Y206
G1 X170.928Y206.792
G1 X171.002Y207.603
G1 X170.996Y208.429
G1 X170.909Y209.265
G1 X170.733Y210.118
G1 X170.477Y210.933
G1 X170.146Y211.707
G1 X169.744Y212.435
G1 X169.277Y213.116
G1 X168.749Y213.744
G1 X168.166Y214.316
G1 X167.531Y214.83
G1 X166.851Y215.28
G1 X166.129Y215.665
G1 X165.371Y215.979
G1 X164.582Y216.22
G1 X163.766Y216.383
G1 X162.929Y216.466
G1 X162.074
G1 X161.208Y216.376
G1 X160.385Y216.208
G1 X159.596Y215.964
G1 X158.845Y215.65
G1 X158.135Y215.27
G1 X157.469Y214.827
G1 X156.851Y214.327
G1 X156.285Y213.773
G1 X155.773Y213.17
G1 X155.319Y212.522
G1 X154.926Y211.834
G1 X154.598Y211.11
G1 X154.338Y210.355
G1 X154.149Y209.571
G1 X154.035Y208.765
G1 X153.998Y207.94
G1 X154.043Y207.101
G1 X154.149Y206.375
G1 X154.315Y205.671
G1 X154.537Y204.991
G1 X154.813Y204.337
G1 X155.14Y203.712
G1 X155.517Y203.119
G1 X155.94Y202.561
G1 X156.407Y202.041
G1 X156.914Y201.56
G1 X157.461Y201.122
G1 X158.043Y200.729
G1 X158.658Y200.385
G1 X159.304Y200.091
G1 X159.978Y199.85
G1 X160.678Y199.666
G1 X161.401Y199.54
G1 Y211.144
G1 X163.606
G1 Y199.54
G1 X163.798Y199.565
G1 X164.217Y199.639
; Layer C00 Pass 2 of 10
G1 X165.031Y199.849
G1 X165.807Y200.132
G1 X166.542Y200.483
G1 X167.232Y200.899
G1 X167.875Y201.375
G1 X168.467Y201.906
G1 X169.005Y202.488
G1 X169.486Y203.116
G1 X169.907Y203.785
G1 X170.265Y204.492
G1 X170.557Y205.232
G1 X170.779Y206
G1 X170.928Y206.792
G1 X171.002Y207.603
G1 X170.996Y208.429
G1 X170.909Y209.265
G1 X170.733Y210.118
G1 X170.477Y210.933
G1 X170.146Y211.707
G1 X169.744Y212.435
G1 X169.277Y213.116
G1 X168.749Y213.744
G1 X168.166Y214.316
G1 X167.531Y214.83
G1 X166.851Y215.28
G1 X166.129Y215.665
G1 X165.371Y215.979
G1 X164.582Y216.22
G1 X163.766Y216.383
G1 X162.929Y216.466
G1 X162.074
G1 X161.208Y216.376
G1 X160.385Y216.208
G1 X159.596Y215.964
G1 X158.845Y215.65
G1 X158.135Y215.27
G1 X157.469Y214.827
G1 X156.851Y214.327
G1 X156.285Y213.773
G1 X155.773Y213.17
G1 X155.319Y212.522
G1 X154.926Y211.834
G1 X154.598Y211.11
G1 X154.338Y210.355
G1 X154.149Y209.571
G1 X154.035Y208.765
G1 X153.998Y207.94
G1 X154.043Y207.101
G1 X154.149Y206.375
G1 X154.315Y205.671
G1 X154.537Y204.991
G1 X154.813Y204.337
G1 X155.14Y203.712
G1 X155.517Y203.119
G1 X155.94Y202.561
G1 X156.407Y202.041
G1 X156.914Y201.56
G1 X157.461Y201.122
G1 X158.043Y200.729
G1 X158.658Y200.385
G1 X159.304Y200.091
G1 X159.978Y199.85
G1 X160.678Y199.666
G1 X161.401Y199.54
G1 Y211.144
G1 X163.606
G1 Y199.54
G1 X163.798Y199.565
G1 X164.217Y199.639
; Layer C00 Pass 3 of 10
G1 X165.031Y199.849
G1 X165.807Y200.132
G1 X166.542Y200.483
G1 X167.232Y200.899
G1 X167.875Y201.375
G1 X168.467Y201.906
G1 X169.005Y202.488
G1 X169.486Y203.116
G1 X169.907Y203.785
G1 X170.265Y204.492
G1 X170.557Y205.232
G1 X170.779Y206
G1 X170.928Y206.792
G1 X171.002Y207.603
G1 X170.996Y208.429
G1 X170.909Y209.265
G1 X170.733Y210.118
G1 X170.477Y210.933
G1 X170.146Y211.707
G1 X169.744Y212.435
G1 X169.277Y213.116
G1 X168.749Y213.744
G1 X168.166Y214.316
G1 X167.531Y214.83
G1 X166.851Y215.28
G1 X166.129Y215.665
G1 X165.371Y215.979
G1 X164.582Y216.22
G1 X163.766Y216.383
G1 X162.929Y216.466
G1 X162.074
G1 X161.208Y216.376
G1 X160.385Y216.208
G1 X159.596Y215.964
G1 X158.845Y215.65
G1 X158.135Y215.27
G1 X157.469Y214.827
G1 X156.851Y214.327
G1 X156.285Y213.773
G1 X155.773Y213.17
G1 X155.319Y212.522
G1 X154.926Y211.834
G1 X154.598Y211.11
G1 X154.338Y210.355
G1 X154.149Y209.571
G1 X154.035Y208.765
G1 X153.998Y207.94
G1 X154.043Y207.101
G1 X154.149Y206.375
G1 X154.315Y205.671
G1 X154.537Y204.991
G1 X154.813Y204.337
G1 X155.14Y203.712
G1 X155.517Y203.119
G1 X155.94Y202.561
G1 X156.407Y202.041
G1 X156.914Y201.56
G1 X157.461Y201.122
G1 X158.043Y200.729
G1 X158.658Y200.385
G1 X159.304Y200.091
G1 X159.978Y199.85
G1 X160.678Y199.666
G1 X161.401Y199.54
G1 Y211.144
G1 X163.606
G1 Y199.54
G1 X163.798Y199.565
G1 X164.217Y199.639
; Layer C00 Pass 4 of 10
G1 X165.031Y199.849
G1 X165.807Y200.132
G1 X166.542Y200.483
G1 X167.232Y200.899
G1 X167.875Y201.375
G1 X168.467Y201.906
G1 X169.005Y202.488
G1 X169.486Y203.116
G1 X169.907Y203.785
G1 X170.265Y204.492
G1 X170.557Y205.232
G1 X170.779Y206
G1 X170.928Y206.792
G1 X171.002Y207.603
G1 X170.996Y208.429
G1 X170.909Y209.265
G1 X170.733Y210.118
G1 X170.477Y210.933
G1 X170.146Y211.707
G1 X169.744Y212.435
G1 X169.277Y213.116
G1 X168.749Y213.744
G1 X168.166Y214.316
G1 X167.531Y214.83
G1 X166.851Y215.28
G1 X166.129Y215.665
G1 X165.371Y215.979
G1 X164.582Y216.22
G1 X163.766Y216.383
G1 X162.929Y216.466
G1 X162.074
G1 X161.208Y216.376
G1 X160.385Y216.208
G1 X159.596Y215.964
G1 X158.845Y215.65
G1 X158.135Y215.27
G1 X157.469Y214.827
G1 X156.851Y214.327
G1 X156.285Y213.773
G1 X155.773Y213.17
G1 X155.319Y212.522
G1 X154.926Y211.834
G1 X154.598Y211.11
G1 X154.338Y210.355
G1 X154.149Y209.571
G1 X154.035Y208.765
G1 X153.998Y207.94
G1 X154.043Y207.101
G1 X154.149Y206.375
G1 X154.315Y205.671
G1 X154.537Y204.991
G1 X154.813Y204.337
G1 X155.14Y203.712
G1 X155.517Y203.119
G1 X155.94Y202.561
G1 X156.407Y202.041
G1 X156.914Y201.56
G1 X157.461Y201.122
G1 X158.043Y200.729
G1 X158.658Y200.385
G1 X159.304Y200.091
G1 X159.978Y199.85
G1 X160.678Y199.666
G1 X161.401Y199.54
G1 Y211.144
G1 X163.606
G1 Y199.54
G1 X163.798Y199.565
G1 X164.217Y199.639
; Layer C00 Pass 5 of 10
G1 X165.031Y199.849
G1 X165.807Y200.132
G1 X166.542Y200.483
G1 X167.232Y200.899
G1 X167.875Y201.375
G1 X168.467Y201.906
G1 X169.005Y202.488
G1 X169.486Y203.116
G1 X169.907Y203.785
G1 X170.265Y204.492
G1 X170.557Y205.232
G1 X170.779Y206
G1 X170.928Y206.792
G1 X171.002Y207.603
G1 X170.996Y208.429
G1 X170.909Y209.265
G1 X170.733Y210.118
G1 X170.477Y210.933
G1 X170.146Y211.707
G1 X169.744Y212.435
G1 X169.277Y213.116
G1 X168.749Y213.744
G1 X168.166Y214.316
G1 X167.531Y214.83
G1 X166.851Y215.28
G1 X166.129Y215.665
G1 X165.371Y215.979
G1 X164.582Y216.22
G1 X163.766Y216.383
G1 X162.929Y216.466
G1 X162.074
G1 X161.208Y216.376
G1 X160.385Y216.208
G1 X159.596Y215.964
G1 X158.845Y215.65
G1 X158.135Y215.27
G1 X157.469Y214.827
G1 X156.851Y214.327
G1 X156.285Y213.773
G1 X155.773Y213.17
G1 X155.319Y212.522
G1 X154.926Y211.834
G1 X154.598Y211.11
G1 X154.338Y210.355
G1 X154.149Y209.571
G1 X154.035Y208.765
G1 X153.998Y207.94
G1 X154.043Y207.101
G1 X154.149Y206.375
G1 X154.315Y205.671
G1 X154.537Y204.991
G1 X154.813Y204.337
G1 X155.14Y203.712
G1 X155.517Y203.119
G1 X155.94Y202.561
G1 X156.407Y202.041
G1 X156.914Y201.56
G1 X157.461Y201.122
G1 X158.043Y200.729
G1 X158.658Y200.385
G1 X159.304Y200.091
G1 X159.978Y199.85
G1 X160.678Y199.666
G1 X161.401Y199.54
G1 Y211.144
G1 X163.606
G1 Y199.54
G1 X163.798Y199.565
G1 X164.217Y199.639
; Layer C00 Pass 6 of 10
G1 X165.031Y199.849
G1 X165.807Y200.132
G1 X166.542Y200.483
G1 X167.232Y200.899
G1 X167.875Y201.375
G1 X168.467Y201.906
G1 X169.005Y202.488
G1 X169.486Y203.116
G1 X169.907Y203.785
G1 X170.265Y204.492
G1 X170.557Y205.232
G1 X170.779Y206
G1 X170.928Y206.792
G1 X171.002Y207.603
G1 X170.996Y208.429
G1 X170.909Y209.265
G1 X170.733Y210.118
G1 X170.477Y210.933
G1 X170.146Y211.707
G1 X169.744Y212.435
G1 X169.277Y213.116
G1 X168.749Y213.744
G1 X168.166Y214.316
G1 X167.531Y214.83
G1 X166.851Y215.28
G1 X166.129Y215.665
G1 X165.371Y215.979
G1 X164.582Y216.22
G1 X163.766Y216.383
G1 X162.929Y216.466
G1 X162.074
G1 X161.208Y216.376
G1 X160.385Y216.208
G1 X159.596Y215.964
G1 X158.845Y215.65
G1 X158.135Y215.27
G1 X157.469Y214.827
G1 X156.851Y214.327
G1 X156.285Y213.773
G1 X155.773Y213.17
G1 X155.319Y212.522
G1 X154.926Y211.834
G1 X154.598Y211.11
G1 X154.338Y210.355
G1 X154.149Y209.571
G1 X154.035Y208.765
G1 X153.998Y207.94
G1 X154.043Y207.101
G1 X154.149Y206.375
G1 X154.315Y205.671
G1 X154.537Y204.991
G1 X154.813Y204.337
G1 X155.14Y203.712
G1 X155.517Y203.119
G1 X155.94Y202.561
G1 X156.407Y202.041
G1 X156.914Y201.56
G1 X157.461Y201.122
G1 X158.043Y200.729
G1 X158.658Y200.385
G1 X159.304Y200.091
G1 X159.978Y199.85
G1 X160.678Y199.666
G1 X161.401Y199.54
G1 Y211.144
G1 X163.606
G1 Y199.54
G1 X163.798Y199.565
G1 X164.217Y199.639
; Layer C00 Pass 7 of 10
G1 X165.031Y199.849
G1 X165.807Y200.132
G1 X166.542Y200.483
G1 X167.232Y200.899
G1 X167.875Y201.375
G1 X168.467Y201.906
G1 X169.005Y202.488
G1 X169.486Y203.116
G1 X169.907Y203.785
G1 X170.265Y204.492
G1 X170.557Y205.232
G1 X170.779Y206
G1 X170.928Y206.792
G1 X171.002Y207.603
G1 X170.996Y208.429
G1 X170.909Y209.265
G1 X170.733Y210.118
G1 X170.477Y210.933
G1 X170.146Y211.707
G1 X169.744Y212.435
G1 X169.277Y213.116
G1 X168.749Y213.744
G1 X168.166Y214.316
G1 X167.531Y214.83
G1 X166.851Y215.28
G1 X166.129Y215.665
G1 X165.371Y215.979
G1 X164.582Y216.22
G1 X163.766Y216.383
G1 X162.929Y216.466
G1 X162.074
G1 X161.208Y216.376
G1 X160.385Y216.208
G1 X159.596Y215.964
G1 X158.845Y215.65
G1 X158.135Y215.27
G1 X157.469Y214.827
G1 X156.851Y214.327
G1 X156.285Y213.773
G1 X155.773Y213.17
G1 X155.319Y212.522
G1 X154.926Y211.834
G1 X154.598Y211.11
G1 X154.338Y210.355
G1 X154.149Y209.571
G1 X154.035Y208.765
G1 X153.998Y207.94
G1 X154.043Y207.101
G1 X154.149Y206.375
G1 X154.315Y205.671
G1 X154.537Y204.991
G1 X154.813Y204.337
G1 X155.14Y203.712
G1 X155.517Y203.119
G1 X155.94Y202.561
G1 X156.407Y202.041
G1 X156.914Y201.56
G1 X157.461Y201.122
G1 X158.043Y200.729
G1 X158.658Y200.385
G1 X159.304Y200.091
G1 X159.978Y199.85
G1 X160.678Y199.666
G1 X161.401Y199.54
G1 Y211.144
G1 X163.606
G1 Y199.54
G1 X163.798Y199.565
G1 X164.217Y199.639
; Layer C00 Pass 8 of 10
G1 X165.031Y199.849
G1 X165.807Y200.132
G1 X166.542Y200.483
G1 X167.232Y200.899
G1 X167.875Y201.375
G1 X168.467Y201.906
G1 X169.005Y202.488
G1 X169.486Y203.116
G1 X169.907Y203.785
G1 X170.265Y204.492
G1 X170.557Y205.232
G1 X170.779Y206
G1 X170.928Y206.792
G1 X171.002Y207.603
G1 X170.996Y208.429
G1 X170.909Y209.265
G1 X170.733Y210.118
G1 X170.477Y210.933
G1 X170.146Y211.707
G1 X169.744Y212.435
G1 X169.277Y213.116
G1 X168.749Y213.744
G1 X168.166Y214.316
G1 X167.531Y214.83
G1 X166.851Y215.28
G1 X166.129Y215.665
G1 X165.371Y215.979
G1 X164.582Y216.22
G1 X163.766Y216.383
G1 X162.929Y216.466
G1 X162.074
G1 X161.208Y216.376
G1 X160.385Y216.208
G1 X159.596Y215.964
G1 X158.845Y215.65
G1 X158.135Y215.27
G1 X157.469Y214.827
G1 X156.851Y214.327
G1 X156.285Y213.773
G1 X155.773Y213.17
G1 X155.319Y212.522
G1 X154.926Y211.834
G1 X154.598Y211.11
G1 X154.338Y210.355
G1 X154.149Y209.571
G1 X154.035Y208.765
G1 X153.998Y207.94
G1 X154.043Y207.101
G1 X154.149Y206.375
G1 X154.315Y205.671
G1 X154.537Y204.991
G1 X154.813Y204.337
G1 X155.14Y203.712
G1 X155.517Y203.119
G1 X155.94Y202.561
G1 X156.407Y202.041
G1 X156.914Y201.56
G1 X157.461Y201.122
G1 X158.043Y200.729
G1 X158.658Y200.385
G1 X159.304Y200.091
G1 X159.978Y199.85
G1 X160.678Y199.666
G1 X161.401Y199.54
G1 Y211.144
G1 X163.606
G1 Y199.54
G1 X163.798Y199.565
G1 X164.217Y199.639
; Layer C00 Pass 9 of 10
G1 X165.031Y199.849
G1 X165.807Y200.132
G1 X166.542Y200.483
G1 X167.232Y200.899
G1 X167.875Y201.375
G1 X168.467Y201.906
G1 X169.005Y202.488
G1 X169.486Y203.116
G1 X169.907Y203.785
G1 X170.265Y204.492
G1 X170.557Y205.232
G1 X170.779Y206
G1 X170.928Y206.792
G1 X171.002Y207.603
G1 X170.996Y208.429
G1 X170.909Y209.265
G1 X170.733Y210.118
G1 X170.477Y210.933
G1 X170.146Y211.707
G1 X169.744Y212.435
G1 X169.277Y213.116
G1 X168.749Y213.744
G1 X168.166Y214.316
G1 X167.531Y214.83
G1 X166.851Y215.28
G1 X166.129Y215.665
G1 X165.371Y215.979
G1 X164.582Y216.22
G1 X163.766Y216.383
G1 X162.929Y216.466
G1 X162.074
G1 X161.208Y216.376
G1 X160.385Y216.208
G1 X159.596Y215.964
G1 X158.845Y215.65
G1 X158.135Y215.27
G1 X157.469Y214.827
G1 X156.851Y214.327
G1 X156.285Y213.773
G1 X155.773Y213.17
G1 X155.319Y212.522
G1 X154.926Y211.834
G1 X154.598Y211.11
G1 X154.338Y210.355
G1 X154.149Y209.571
G1 X154.035Y208.765
G1 X153.998Y207.94
G1 X154.043Y207.101
G1 X154.149Y206.375
G1 X154.315Y205.671
G1 X154.537Y204.991
G1 X154.813Y204.337
G1 X155.14Y203.712
G1 X155.517Y203.119
G1 X155.94Y202.561
G1 X156.407Y202.041
G1 X156.914Y201.56
G1 X157.461Y201.122
G1 X158.043Y200.729
G1 X158.658Y200.385
G1 X159.304Y200.091
G1 X159.978Y199.85
G1 X160.678Y199.666
G1 X161.401Y199.54
G1 Y211.144
G1 X163.606
G1 Y199.54
G1 X163.798Y199.565
G1 X164.217Y199.639
; Layer C00 Pass 10 of 10
G1 X165.031Y199.849
G1 X165.807Y200.132
G1 X166.542Y200.483
G1 X167.232Y200.899
G1 X167.875Y201.375
G1 X168.467Y201.906
G1 X169.005Y202.488
G1 X169.486Y203.116
G1 X169.907Y203.785
G1 X170.265Y204.492
G1 X170.557Y205.232
G1 X170.779Y206
G1 X170.928Y206.792
G1 X171.002Y207.603
G1 X170.996Y208.429
G1 X170.909Y209.265
G1 X170.733Y210.118
G1 X170.477Y210.933
G1 X170.146Y211.707
G1 X169.744Y212.435
G1 X169.277Y213.116
G1 X168.749Y213.744
G1 X168.166Y214.316
G1 X167.531Y214.83
G1 X166.851Y215.28
G1 X166.129Y215.665
G1 X165.371Y215.979
G1 X164.582Y216.22
G1 X163.766Y216.383
G1 X162.929Y216.466
G1 X162.074
G1 X161.208Y216.376
G1 X160.385Y216.208
G1 X159.596Y215.964
G1 X158.845Y215.65
G1 X158.135Y215.27
G1 X157.469Y214.827
G1 X156.851Y214.327
G1 X156.285Y213.773
G1 X155.773Y213.17
G1 X155.319Y212.522
G1 X154.926Y211.834
G1 X154.598Y211.11
G1 X154.338Y210.355
G1 X154.149Y209.571
G1 X154.035Y208.765
G1 X153.998Y207.94
G1 X154.043Y207.101
G1 X154.149Y206.375
G1 X154.315Y205.671
G1 X154.537Y204.991
G1 X154.813Y204.337
G1 X155.14Y203.712
G1 X155.517Y203.119
G1 X155.94Y202.561
G1 X156.407Y202.041
G1 X156.914Y201.56
G1 X157.461Y201.122
G1 X158.043Y200.729
G1 X158.658Y200.385
G1 X159.304Y200.091
G1 X159.978Y199.85
G1 X160.678Y199.666
G1 X161.401Y199.54
G1 Y211.144
G1 X163.606
G1 Y199.54
G1 X163.798Y199.565
G1 X164.217Y199.639
G0 X174.517Y203.119
; Layer C00 Pass 1 of 10
G1 X174.94Y202.561
G1 X175.407Y202.041
G1 X175.914Y201.56
G1 X176.461Y201.122
G1 X177.043Y200.729
G1 X177.658Y200.385
G1 X178.304Y200.091
G1 X178.978Y199.85
G1 X179.678Y199.666
G1 X180.401Y199.54
G1 Y211.144
G1 X182.606
G1 Y199.54
G1 X182.798Y199.565
G1 X183.217Y199.639
G1 X184.031Y199.849
G1 X184.807Y200.132
G1 X185.542Y200.483
G1 X186.232Y200.899
G1 X186.875Y201.375
G1 X187.467Y201.906
G1 X188.005Y202.488
G1 X188.486Y203.116
G1 X188.907Y203.785
G1 X189.265Y204.492
G1 X189.557Y205.232
G1 X189.779Y206
G1 X189.928Y206.792
G1 X190.002Y207.603
G1 X189.996Y208.429
G1 X189.909Y209.265
G1 X189.733Y210.118
G1 X189.477Y210.933
G1 X189.146Y211.707
G1 X188.744Y212.435
G1 X188.277Y213.116
G1 X187.749Y213.744
G1 X187.166Y214.316
G1 X186.531Y214.83
G1 X185.851Y215.28
G1 X185.129Y215.664
G1 X184.371Y215.979
G1 X183.582Y216.22
G1 X182.766Y216.383
G1 X181.929Y216.466
G1 X181.074
G1 X180.208Y216.376
G1 X179.385Y216.208
G1 X178.596Y215.964
G1 X177.845Y215.65
G1 X177.135Y215.27
G1 X176.469Y214.827
G1 X175.851Y214.327
G1 X175.285Y213.773
G1 X174.773Y213.17
G1 X174.319Y212.522
G1 X173.926Y211.834
G1 X173.598Y211.11
G1 X173.338Y210.355
G1 X173.149Y209.571
G1 X173.035Y208.765
G1 X172.998Y207.94
G1 X173.043Y207.101
G1 X173.149Y206.375
G1 X173.315Y205.671
G1 X173.537Y204.991
G1 X173.813Y204.337
G1 X174.14Y203.712
G1 X174.517Y203.119
; Layer C00 Pass 2 of 10
G1 X174.94Y202.561
G1 X175.407Y202.041
G1 X175.914Y201.56
G1 X176.461Y201.122
G1 X177.043Y200.729
G1 X177.658Y200.385
G1 X178.304Y200.091
G1 X178.978Y199.85
G1 X179.678Y199.666
G1 X180.401Y199.54
G1 Y211.144
G1 X182.606
G1 Y199.54
G1 X182.798Y199.565
G1 X183.217Y199.639
G1 X184.031Y199.849
G1 X184.807Y200.132
G1 X185.542Y200.483
G1 X186.232Y200.899
G1 X186.875Y201.375
G1 X187.467Y201.906
