;FLAVOR:Marlin
;TIME:9778
;Filament used: 6.67354m
;Layer height: 0.28
;MINX:61.214
;MINY:47.899
;MINZ:0.28
;MAXX:158.782
;MAXY:172.109
;MAXZ:3.08
;TARGET_MACHINE.NAME:Creality Ender-3 S1 Pro
;Generated with Cura_SteamEngine 5.7.0
M82 ;absolute extrusion mode
; Ender 3 S1 Pro Start G-code
; M413 S0 ; Disable power loss recovery
G92 E0 ; Reset Extruder

; Prep surfaces before auto home for better accuracy
M140 S75
M104 S250.0

G28 ; Home all axes
G1 Z10.0 F3000 ; Move Z Axis up little to prevent scratching of Heat Bed
G1 X0 Y0

M190 S75
M109 S250.0

G1 X0.1 Y20 Z0.3 F5000.0 ; Move to start position
G1 X0.1 Y200.0 Z0.3 F1500.0 E15 ; Draw the first line
G1 X0.4 Y200.0 Z0.3 F5000.0 ; Move to side a little
G1 X0.4 Y20 Z0.3 F1500.0 E30 ; Draw the second line
G92 E0 ; Reset Extruder
G1 Z2.0 F3000 ; Move Z Axis up little to prevent scratching of Heat Bed
G1 X5 Y20 Z0.3 F5000.0 ; Move over to prevent blob squish

G92 E0
G92 E0
G1 F2400 E-0.8
;LAYER_COUNT:11
;LAYER:0
M107
M204 S2000
G0 F6000 X69.21 Y53.33 Z0.28
M204 S500
;TYPE:SKIRT
G1 F2400 E0
G1 F900 X69.818 Y52.571 E0.04528
G1 X70.468 Y51.891 E0.08909
G1 X71.292 Y51.174 E0.13995
G1 X71.927 Y50.682 E0.17735
G1 X72.739 Y50.081 E0.22439
G1 X73.548 Y49.541 E0.26968
G1 X74.402 Y49.072 E0.31505
G1 X75.295 Y48.681 E0.36044
G1 X76.217 Y48.371 E0.40574
G1 X77.164 Y48.143 E0.45109
G1 X78.057 Y48.008 E0.49315
G1 X79.093 Y47.944 E0.54148
G1 X79.855 Y47.933 E0.57697
G1 X99.868 Y47.932 E1.50886
G1 X102.681 Y47.899 E1.63985
G1 X105.701 Y47.932 E1.78048
G1 X127.944 Y47.937 E2.81621
G1 X141.324 Y47.92 E3.43924
G1 X142.295 Y47.965 E3.4845
G1 X143.191 Y48.083 E3.52658
G1 X144.271 Y48.329 E3.57816
G1 X144.569 Y48.413 E3.59258
G1 X145.493 Y48.719 E3.6379
G1 X146.323 Y49.075 E3.67995
G1 X147.568 Y49.776 E3.74648
G1 X148.049 Y50.089 E3.77321
G1 X148.811 Y50.637 E3.81691
G1 X149.575 Y51.296 E3.86389
G1 X150.252 Y51.996 E3.90924
G1 X150.864 Y52.753 E3.95456
G1 X151.387 Y53.528 E3.9981
G1 X151.795 Y54.249 E4.03668
G1 X153.112 Y56.807 E4.17065
G1 X154.575 Y59.442 E4.31099
G1 X156.667 Y63.067 E4.50587
G1 X157.077 Y63.802 E4.54506
G1 X157.509 Y64.674 E4.59038
G1 X157.864 Y65.581 E4.63573
G1 X158.119 Y66.448 E4.67781
G1 X158.331 Y67.51 E4.72824
G1 X158.492 Y68.606 E4.77982
G1 X158.589 Y69.575 E4.82517
G1 X158.601 Y70.478 E4.86722
G1 X158.562 Y71.154 E4.89875
G1 X158.417 Y72.796 E4.9755
G1 X158.24 Y75.352 E5.09481
G1 X158.136 Y77.921 E5.21453
G1 X158.105 Y80.396 E5.32978
G1 X158.146 Y82.918 E5.44723
G1 X158.258 Y85.46 E5.56571
G1 X158.436 Y87.927 E5.68089
G1 X158.728 Y90.807 E5.81568
G1 X158.782 Y91.789 E5.86147
G1 X158.73 Y92.964 E5.91624
G1 X158.43 Y95.952 E6.05607
G1 X158.258 Y98.399 E6.1703
G1 X158.15 Y100.953 E6.28933
G1 X158.114 Y103.474 E6.40673
G1 X158.15 Y105.954 E6.52222
G1 X158.26 Y108.531 E6.64233
G1 X158.433 Y110.98 E6.75665
G1 X158.729 Y113.954 E6.89581
G1 X158.781 Y114.926 E6.94114
G1 X158.751 Y115.829 E6.98321
G1 X158.696 Y116.387 E7.00932
G1 X158.403 Y118.713 E7.11848
G1 X158.151 Y121.238 E7.23664
G1 X157.976 Y123.699 E7.35152
G1 X157.865 Y126.272 E7.47144
G1 X157.827 Y128.774 E7.58796
G1 X157.861 Y131.276 E7.70448
G1 X157.967 Y133.806 E7.82239
G1 X158.14 Y136.282 E7.93796
G1 X158.29 Y137.78 E8.00806
G1 X158.364 Y138.651 E8.04877
G1 X158.401 Y139.622 E8.09401
G1 X158.363 Y140.471 E8.13358
G1 X158.274 Y141.53 E8.18307
G1 X158.094 Y144.102 E8.30313
G1 X157.988 Y146.644 E8.4216
G1 X157.955 Y149.146 E8.53811
G1 X157.994 Y151.642 E8.65435
G1 X158.102 Y154.175 E8.7724
G1 X158.284 Y156.705 E8.89051
G1 X158.612 Y159.909 E9.04048
G1 X158.674 Y160.88 E9.08579
G1 X158.651 Y161.854 E9.13116
G1 X158.552 Y162.752 E9.17322
G1 X158.345 Y163.776 E9.22187
G1 X158.066 Y164.71 E9.26726
G1 X157.706 Y165.615 E9.31261
G1 X157.268 Y166.484 E9.35793
G1 X156.754 Y167.311 E9.40327
G1 X156.168 Y168.091 E9.4487
G1 X155.516 Y168.813 E9.49399
G1 X154.803 Y169.476 E9.53933
G1 X154.035 Y170.074 E9.58465
G1 X153.215 Y170.602 E9.63007
G1 X152.353 Y171.054 E9.67539
G1 X151.454 Y171.428 E9.72073
G1 X150.526 Y171.721 E9.76604
G1 X149.576 Y171.933 E9.81137
G1 X148.681 Y172.052 E9.85341
G1 X147.84 Y172.097 E9.89262
G1 X146.937 Y172.109 E9.93468
G1 X135.312 Y172.102 E10.47598
G1 X134.461 Y172.109 E10.51561
G1 X121.8 Y172.103 E11.10516
G1 X98.977 Y172.109 E12.1679
G1 X96.907 Y172.102 E12.26428
G1 X96.024 Y172.109 E12.3054
G1 X85.733 Y172.102 E12.78459
G1 X73.414 Y172.109 E13.35822
G1 X72.529 Y172.096 E13.39943
G1 X71.558 Y172.037 E13.44473
G1 X70.595 Y171.891 E13.49008
G1 X69.647 Y171.66 E13.53552
G1 X68.725 Y171.346 E13.58087
G1 X67.836 Y170.953 E13.62613
G1 X67.013 Y170.5 E13.66988
G1 X66.176 Y169.937 E13.71685
G1 X65.419 Y169.323 E13.76223
G1 X64.721 Y168.645 E13.80754
G1 X64.085 Y167.908 E13.85287
G1 X63.515 Y167.117 E13.89827
G1 X63.053 Y166.342 E13.94028
G1 X62.599 Y165.399 E13.98902
G1 X62.27 Y164.521 E14.03268
G1 X62.001 Y163.549 E14.07964
G1 X61.826 Y162.591 E14.12499
G1 X61.736 Y161.609 E14.1709
G1 X61.751 Y160.31 E14.23139
G1 X61.98 Y157.117 E14.38046
G1 X62.081 Y154.648 E14.49552
G1 X62.114 Y152.106 E14.61389
G1 X62.075 Y149.613 E14.72999
G1 X61.965 Y147.106 E14.84684
G1 X61.783 Y144.57 E14.96523
G1 X61.529 Y142.043 E15.08349
G1 X61.285 Y140.046 E15.17717
G1 X61.214 Y139.076 E15.22246
G1 X61.225 Y138.143 E15.26591
G1 X61.285 Y137.449 E15.29835
G1 X61.436 Y136.18 E15.35785
G1 X61.696 Y133.617 E15.47781
G1 X61.877 Y131.128 E15.59401
G1 X61.989 Y128.604 E15.71166
G1 X62.031 Y126.058 E15.83023
G1 X62.001 Y123.583 E15.94548
G1 X61.897 Y121.04 E16.06399
G1 X61.724 Y118.506 E16.18226
G1 X61.558 Y116.71 E16.26625
G1 X61.515 Y115.735 E16.31169
G1 X61.56 Y114.743 E16.35793
G1 X61.728 Y112.952 E16.44169
G1 X61.933 Y110.394 E16.56118
G1 X62.059 Y107.877 E16.67853
G1 X62.115 Y105.372 E16.79521
G1 X62.1 Y102.83 E16.91357
G1 X62.013 Y100.323 E17.03038
G1 X61.857 Y97.831 E17.14665
G1 X61.458 Y93.747 E17.33772
G1 X61.407 Y92.762 E17.38365
G1 X61.469 Y91.538 E17.44071
G1 X61.542 Y90.875 E17.47177
G1 X61.777 Y88.351 E17.58981
G1 X61.938 Y85.87 E17.70558
G1 X62.031 Y83.338 E17.82356
G1 X62.053 Y80.787 E17.94235
G1 X62.004 Y78.303 E18.05804
G1 X61.882 Y75.763 E18.17645
G1 X61.69 Y73.255 E18.29357
G1 X61.461 Y70.971 E18.40046
G1 X61.408 Y70.004 E18.44555
G1 X61.428 Y69.234 E18.48142
G1 X61.446 Y68.934 E18.49541
G1 X61.55 Y67.966 E18.54075
G1 X61.724 Y67.08 E18.58279
G1 X62.011 Y66.086 E18.63096
G1 X62.242 Y65.471 E18.66156
G1 X62.382 Y65.129 E18.67876
G1 X62.774 Y64.283 E18.72218
G1 X63.116 Y63.668 E18.75495
G1 X63.877 Y62.4 E18.82381
G1 X64.51 Y61.322 E18.88202
G1 X68.303 Y54.756 E19.23511
G1 X68.671 Y54.142 E19.26844
G1 X69.21 Y53.33 E19.31382
M204 S2000
G0 F6000 X69.523 Y53.58
M204 S500
G1 F900 X70.108 Y52.847 E19.35749
G1 X70.731 Y52.193 E19.39955
G1 X71.555 Y51.476 E19.45041
G1 X72.165 Y51.003 E19.48635
G1 X72.962 Y50.413 E19.53253
G1 X73.741 Y49.891 E19.57619
G1 X74.563 Y49.438 E19.61989
G1 X75.423 Y49.06 E19.66364
G1 X76.311 Y48.76 E19.70728
G1 X77.224 Y48.539 E19.75102
G1 X78.117 Y48.404 E19.79308
G1 X79.099 Y48.344 E19.83889
G1 X79.855 Y48.333 E19.87409
G1 X99.873 Y48.332 E20.80621
G1 X102.677 Y48.299 E20.93679
G1 X105.697 Y48.332 E21.07742
G1 X127.944 Y48.337 E22.11334
G1 X141.306 Y48.32 E22.73553
G1 X142.243 Y48.362 E22.7792
G1 X143.139 Y48.48 E22.82128
G1 X144.163 Y48.714 E22.87019
G1 X144.444 Y48.793 E22.88379
G1 X145.335 Y49.087 E22.92747
G1 X146.165 Y49.443 E22.96953
G1 X147.35 Y50.111 E23.03287
G1 X147.815 Y50.414 E23.05871
G1 X148.577 Y50.962 E23.10242
G1 X149.288 Y51.575 E23.14613
G1 X149.941 Y52.248 E23.1898
G1 X150.532 Y52.977 E23.23349
G1 X151.055 Y53.752 E23.27703
G1 X151.439 Y54.432 E23.31339
G1 X152.762 Y57.001 E23.44795
G1 X154.225 Y59.636 E23.58829
G1 X156.318 Y63.262 E23.78324
G1 X156.719 Y63.98 E23.82153
G1 X157.137 Y64.82 E23.86522
G1 X157.48 Y65.694 E23.90894
G1 X157.735 Y66.561 E23.95102
G1 X157.935 Y67.568 E23.99883
G1 X158.094 Y68.646 E24.04957
G1 X158.189 Y69.58 E24.09328
G1 X158.201 Y70.483 E24.13533
G1 X158.164 Y71.119 E24.165
G1 X158.018 Y72.768 E24.24208
G1 X157.84 Y75.336 E24.36195
G1 X157.736 Y77.905 E24.48167
G1 X157.705 Y80.391 E24.59744
G1 X157.746 Y82.936 E24.71596
G1 X157.858 Y85.478 E24.83444
G1 X158.038 Y87.967 E24.95064
G1 X158.329 Y90.829 E25.08459
G1 X158.382 Y91.771 E25.12853
G1 X158.33 Y92.946 E25.18329
G1 X158.032 Y95.912 E25.3221
G1 X157.858 Y98.382 E25.4374
G1 X157.75 Y100.936 E25.55643
G1 X157.714 Y103.468 E25.67434
G1 X157.75 Y105.971 E25.7909
G1 X157.86 Y108.548 E25.91101
G1 X158.035 Y111.02 E26.0264
G1 X158.33 Y113.976 E26.16473
G1 X158.381 Y114.913 E26.20842
G1 X158.351 Y115.816 E26.25049
G1 X158.299 Y116.337 E26.27488
G1 X158.006 Y118.663 E26.38404
G1 X157.753 Y121.198 E26.50267
G1 X157.576 Y123.682 E26.61862
G1 X157.465 Y126.255 E26.73855
G1 X157.427 Y128.768 E26.85558
G1 X157.461 Y131.293 E26.97316
G1 X157.567 Y133.823 E27.09107
G1 X157.742 Y136.322 E27.20772
G1 X157.891 Y137.814 E27.27754
G1 X157.964 Y138.667 E27.3174
G1 X158.001 Y139.604 E27.36107
G1 X157.964 Y140.438 E27.39994
G1 X157.875 Y141.497 E27.44943
G1 X157.694 Y144.085 E27.57023
G1 X157.588 Y146.627 E27.6887
G1 X157.555 Y149.141 E27.80577
G1 X157.594 Y151.659 E27.92303
G1 X157.703 Y154.204 E28.04165
G1 X157.886 Y156.746 E28.16032
G1 X158.213 Y159.935 E28.30959
G1 X158.274 Y160.871 E28.35327
G1 X158.253 Y161.81 E28.397
G1 X158.154 Y162.708 E28.43907
G1 X157.962 Y163.662 E28.48438
G1 X157.694 Y164.563 E28.52816
G1 X157.349 Y165.435 E28.57182
G1 X156.928 Y166.273 E28.61549
G1 X156.434 Y167.071 E28.65919
G1 X155.871 Y167.823 E28.70293
G1 X155.243 Y168.521 E28.74665
G1 X154.557 Y169.161 E28.79034
G1 X153.818 Y169.738 E28.834
G1 X153.029 Y170.248 E28.87774
G1 X152.199 Y170.685 E28.92142
G1 X151.333 Y171.047 E28.96513
G1 X150.439 Y171.331 E29.00881
G1 X149.523 Y171.536 E29.05251
G1 X148.628 Y171.655 E29.09456
G1 X147.835 Y171.697 E29.13153
G1 X146.937 Y171.709 E29.17335
G1 X135.309 Y171.702 E29.7148
G1 X134.461 Y171.709 E29.75429
G1 X121.8 Y171.703 E30.34384
G1 X98.978 Y171.709 E31.40652
G1 X96.905 Y171.702 E31.50305
G1 X96.024 Y171.709 E31.54408
G1 X85.733 Y171.702 E32.02327
G1 X73.42 Y171.709 E32.59661
G1 X72.553 Y171.697 E32.63699
G1 X71.617 Y171.641 E32.68065
G1 X70.689 Y171.502 E32.72435
G1 X69.775 Y171.281 E32.76813
G1 X68.886 Y170.98 E32.81184
G1 X68.028 Y170.602 E32.85549
G1 X67.236 Y170.168 E32.89755
G1 X66.427 Y169.626 E32.94289
G1 X65.697 Y169.036 E32.98659
G1 X65.023 Y168.383 E33.03029
G1 X64.409 Y167.674 E33.07397
G1 X63.859 Y166.912 E33.11772
G1 X63.397 Y166.137 E33.15974
G1 X62.974 Y165.259 E33.20512
G1 X62.645 Y164.381 E33.24878
G1 X62.394 Y163.476 E33.29251
G1 X62.224 Y162.554 E33.33616
G1 X62.136 Y161.613 E33.38017
G1 X62.15 Y160.339 E33.4395
G1 X62.379 Y157.146 E33.58856
G1 X62.481 Y154.664 E33.70423
G1 X62.514 Y152.111 E33.82312
G1 X62.475 Y149.595 E33.94029
G1 X62.365 Y147.088 E34.05714
G1 X62.182 Y144.541 E34.17604
G1 X61.927 Y142.003 E34.29482
G1 X61.684 Y140.016 E34.38803
G1 X61.614 Y139.081 E34.43169
G1 X61.625 Y138.148 E34.47514
G1 X61.682 Y137.496 E34.50561
G1 X61.833 Y136.227 E34.56512
G1 X62.094 Y133.657 E34.6854
G1 X62.277 Y131.146 E34.80264
G1 X62.389 Y128.622 E34.92028
G1 X62.431 Y126.065 E35.03936
G1 X62.401 Y123.578 E35.15517
G1 X62.297 Y121.024 E35.2742
G1 X62.123 Y118.479 E35.39298
G1 X61.958 Y116.692 E35.47654
G1 X61.915 Y115.753 E35.52031
G1 X61.96 Y114.761 E35.56655
G1 X62.127 Y112.984 E35.64966
G1 X62.331 Y110.426 E35.76915
G1 X62.459 Y107.886 E35.88758
G1 X62.515 Y105.381 E36.00425
G1 X62.5 Y102.828 E36.12313
G1 X62.413 Y100.309 E36.24049
G1 X62.256 Y97.806 E36.35727
G1 X61.857 Y93.726 E36.54816
G1 X61.807 Y92.782 E36.59218
G1 X61.867 Y91.581 E36.64817
G1 X61.939 Y90.918 E36.67923
G1 X62.175 Y88.388 E36.79754
G1 X62.338 Y85.885 E36.91434
G1 X62.431 Y83.353 E37.03232
G1 X62.453 Y80.79 E37.15167
G1 X62.404 Y78.284 E37.26838
G1 X62.282 Y75.744 E37.38679
G1 X62.089 Y73.224 E37.50448
G1 X61.86 Y70.949 E37.61095
G1 X61.808 Y70.014 E37.65455
G1 X61.827 Y69.258 E37.68976
G1 X61.844 Y68.976 E37.70292
G1 X61.943 Y68.043 E37.74661
G1 X62.117 Y67.157 E37.78865
G1 X62.386 Y66.226 E37.83378
G1 X62.612 Y65.622 E37.86381
G1 X62.745 Y65.297 E37.88016
G1 X63.124 Y64.477 E37.92222
G1 X63.459 Y63.874 E37.95434
G1 X64.22 Y62.606 E38.0232
G1 X64.855 Y61.524 E38.08162
G1 X68.646 Y54.961 E38.43454
G1 X69.004 Y54.363 E38.46699
G1 X69.523 Y53.58 E38.51074
M204 S2000
G0 F6000 X69.836 Y53.829
M204 S500
G1 F900 X70.398 Y53.123 E38.55275
G1 X71.021 Y52.469 E38.59481
G1 X71.8 Y51.792 E38.64287
G1 X72.403 Y51.324 E38.67841
G1 X73.185 Y50.745 E38.72372
G1 X73.934 Y50.241 E38.76576
G1 X74.725 Y49.804 E38.80784
G1 X75.551 Y49.439 E38.84989
G1 X76.406 Y49.149 E38.89193
G1 X77.284 Y48.935 E38.93401
G1 X78.177 Y48.8 E38.97606
G1 X79.105 Y48.744 E39.01935
G1 X79.855 Y48.733 E39.05428
G1 X99.878 Y48.732 E39.98663
G1 X102.673 Y48.699 E40.11679
G1 X105.693 Y48.732 E40.25742
G1 X127.944 Y48.737 E41.29352
G1 X141.289 Y48.72 E41.91492
G1 X142.191 Y48.759 E41.95696
G1 X143.087 Y48.877 E41.99904
G1 X144.055 Y49.099 E42.04529
G1 X144.319 Y49.173 E42.05805
G1 X145.177 Y49.455 E42.10011
G1 X146.007 Y49.811 E42.14216
G1 X147.132 Y50.446 E42.20232
G1 X147.582 Y50.739 E42.22732
G1 X148.316 Y51.265 E42.26937
G1 X149.001 Y51.854 E42.31143
G1 X149.631 Y52.501 E42.35348
G1 X150.201 Y53.201 E42.39552
G1 X150.707 Y53.949 E42.43757
G1 X151.083 Y54.615 E42.47318
G1 X152.412 Y57.195 E42.60832
G1 X153.875 Y59.83 E42.74866
G1 X155.969 Y63.457 E42.94367
G1 X156.361 Y64.159 E42.98111
G1 X156.765 Y64.967 E43.02318
G1 X157.096 Y65.807 E43.06522
G1 X157.351 Y66.674 E43.1073
G1 X157.539 Y67.627 E43.15253
G1 X157.696 Y68.687 E43.20243
G1 X157.789 Y69.585 E43.24447
G1 X157.801 Y70.488 E43.28652
G1 X157.766 Y71.084 E43.31432
G1 X157.619 Y72.74 E43.39173
G1 X157.44 Y75.32 E43.51215
G1 X157.336 Y77.889 E43.63188
G1 X157.305 Y80.386 E43.74816
G1 X157.346 Y82.954 E43.86775
G1 X157.458 Y85.496 E43.98623
G1 X157.64 Y88.008 E44.1035
G1 X157.93 Y90.852 E44.23662
G1 X157.982 Y91.754 E44.27869
G1 X157.932 Y92.906 E44.33238
G1 X157.634 Y95.872 E44.47119
G1 X157.458 Y98.365 E44.58756
G1 X157.35 Y100.919 E44.70659
G1 X157.314 Y103.462 E44.82502
G1 X157.35 Y105.988 E44.94265
G1 X157.46 Y108.565 E45.06276
G1 X157.637 Y111.06 E45.17923
G1 X157.931 Y113.998 E45.31671
G1 X157.981 Y114.9 E45.35878
G1 X157.951 Y115.803 E45.40085
G1 X157.902 Y116.287 E45.4235
G1 X157.609 Y118.613 E45.53267
G1 X157.355 Y121.158 E45.65176
G1 X157.176 Y123.665 E45.76879
G1 X157.065 Y126.238 E45.88872
G1 X157.027 Y128.762 E46.00626
G1 X157.061 Y131.31 E46.12491
G1 X157.167 Y133.84 E46.24282
G1 X157.344 Y136.362 E46.36055
G1 X157.492 Y137.848 E46.43008
G1 X157.564 Y138.683 E46.46911
G1 X157.601 Y139.586 E46.51119
G1 X157.565 Y140.405 E46.54937
G1 X157.476 Y141.464 E46.59885
G1 X157.294 Y144.068 E46.7204
G1 X157.188 Y146.61 E46.83887
G1 X157.155 Y149.136 E46.9565
G1 X157.194 Y151.676 E47.07479
G1 X157.304 Y154.233 E47.19396
G1 X157.488 Y156.786 E47.31315
G1 X157.733 Y159.239 E47.42794
G1 X157.814 Y159.962 E47.46182
G1 X157.874 Y160.863 E47.50386
G1 X157.855 Y161.766 E47.54592
G1 X157.756 Y162.664 E47.58799
G1 X157.578 Y163.549 E47.63002
G1 X157.322 Y164.416 E47.67212
G1 X156.991 Y165.256 E47.71416
G1 X156.587 Y166.063 E47.75618
G1 X156.113 Y166.832 E47.79824
G1 X155.573 Y167.556 E47.8403
G1 X154.97 Y168.229 E47.88238
G1 X154.311 Y168.846 E47.92441
G1 X153.6 Y169.402 E47.96644
G1 X152.842 Y169.894 E48.00852
G1 X152.044 Y170.316 E48.05055
G1 X151.211 Y170.666 E48.09263
G1 X150.351 Y170.941 E48.13467
G1 X149.47 Y171.139 E48.17672
G1 X148.575 Y171.258 E48.21876
G1 X147.83 Y171.297 E48.2535
G1 X146.937 Y171.309 E48.29508
G1 X135.306 Y171.302 E48.83667
G1 X134.461 Y171.309 E48.87602
G1 X121.8 Y171.303 E49.46557
G1 X98.979 Y171.309 E50.52821
G1 X96.903 Y171.302 E50.62488
G1 X96.024 Y171.309 E50.66581
G1 X85.733 Y171.302 E51.145
G1 X73.425 Y171.309 E51.71811
G1 X72.576 Y171.298 E51.75765
G1 X71.675 Y171.245 E51.79967
G1 X70.782 Y171.113 E51.84171
G1 X69.903 Y170.902 E51.8838
G1 X69.047 Y170.614 E51.92586
G1 X68.22 Y170.251 E51.96791
G1 X67.428 Y169.817 E52.00996
G1 X66.678 Y169.315 E52.05199
G1 X65.975 Y168.748 E52.09404
G1 X65.325 Y168.121 E52.1361
