; LightBurn 1.5.06
; GRBL device profile, absolute coords
; Bounds: X116.34 Y94.38 to X286.66 Y307.62
G00 G17 G40 G21 G54
G90
M4
; Cut @ 70 mm/sec, 70% power
M8
G0 X120.298Y94.937
; Layer C00 Pass 1 of 10
G1 X120.662Y94.757S700F4200
G1 X121.041Y94.604
G1 X121.433Y94.478
G1 X121.837Y94.38
G1 Y99.834
G1 X124.043
G1 Y94.38
G1 X124.061Y94.384
G1 X124.331Y94.446
G1 X124.856Y94.609
G1 X125.354Y94.819
G1 X125.823Y95.073
G1 X126.26Y95.367
G1 X126.665Y95.699
G1 X127.035Y96.065
G1 X127.367Y96.463
G1 X127.661Y96.889
G1 X127.915Y97.341
G1 X128.126Y97.815
G1 X128.292Y98.308
G1 X128.412Y98.817
G1 X128.484Y99.34
G1 X128.506Y99.872
G1 X128.475Y100.412
G1 X128.391Y100.956
G1 X128.248Y101.507
G1 X128.054Y102.031
G1 X127.812Y102.526
G1 X127.526Y102.989
G1 X127.198Y103.418
G1 X126.833Y103.812
G1 X126.433Y104.167
G1 X126.001Y104.481
G1 X125.542Y104.754
G1 X125.058Y104.981
G1 X124.552Y105.162
G1 X124.028Y105.293
G1 X123.49Y105.374
G1 X122.94Y105.401
G1 X122.382Y105.372
G1 X121.819Y105.286
G1 X121.267Y105.143
G1 X120.743Y104.949
G1 X120.248Y104.707
G1 X119.785Y104.42
G1 X119.356Y104.093
G1 X118.963Y103.727
G1 X118.608Y103.327
G1 X118.293Y102.896
G1 X118.021Y102.436
G1 X117.793Y101.952
G1 X117.613Y101.447
G1 X117.481Y100.923
G1 X117.401Y100.384
G1 X117.374Y99.834
G1 X117.402Y99.276
G1 X117.489Y98.713
G1 X117.588Y98.309
G1 X117.715Y97.918
G1 X117.87Y97.54
G1 X118.051Y97.176
G1 X118.256Y96.829
G1 X118.486Y96.499
G1 X118.738Y96.186
G1 X119.012Y95.893
G1 X119.306Y95.621
G1 X119.619Y95.369
G1 X119.95Y95.141
G1 X120.298Y94.937
; Layer C00 Pass 2 of 10
G1 X120.662Y94.757
G1 X121.041Y94.604
G1 X121.433Y94.478
G1 X121.837Y94.38
G1 Y99.834
G1 X124.043
G1 Y94.38
G1 X124.061Y94.384
G1 X124.331Y94.446
G1 X124.856Y94.609
G1 X125.354Y94.819
G1 X125.823Y95.073
G1 X126.26Y95.367
G1 X126.665Y95.699
G1 X127.035Y96.065
G1 X127.367Y96.463
G1 X127.661Y96.889
G1 X127.915Y97.341
G1 X128.126Y97.815
G1 X128.292Y98.308
G1 X128.412Y98.817
G1 X128.484Y99.34
G1 X128.506Y99.872
G1 X128.475Y100.412
G1 X128.391Y100.956
G1 X128.248Y101.507
G1 X128.054Y102.031
G1 X127.812Y102.526
G1 X127.526Y102.989
G1 X127.198Y103.418
G1 X126.833Y103.812
G1 X126.433Y104.167
G1 X126.001Y104.481
G1 X125.542Y104.754
G1 X125.058Y104.981
G1 X124.552Y105.162
G1 X124.028Y105.293
G1 X123.49Y105.374
G1 X122.94Y105.401
G1 X122.382Y105.372
G1 X121.819Y105.286
G1 X121.267Y105.143
G1 X120.743Y104.949
G1 X120.248Y104.707
G1 X119.785Y104.42
G1 X119.356Y104.093
G1 X118.963Y103.727
G1 X118.608Y103.327
G1 X118.293Y102.896
G1 X118.021Y102.436
G1 X117.793Y101.952
G1 X117.613Y101.447
G1 X117.481Y100.923
G1 X117.401Y100.384
G1 X117.374Y99.834
G1 X117.402Y99.276
G1 X117.489Y98.713
G1 X117.588Y98.309
G1 X117.715Y97.918
G1 X117.87Y97.54
G1 X118.051Y97.176
G1 X118.256Y96.829
G1 X118.486Y96.499
G1 X118.738Y96.186
G1 X119.012Y95.893
G1 X119.306Y95.621
G1 X119.619Y95.369
G1 X119.95Y95.141
G1 X120.298Y94.937
; Layer C00 Pass 3 of 10
G1 X120.662Y94.757
G1 X121.041Y94.604
G1 X121.433Y94.478
G1 X121.837Y94.38
G1 Y99.834
G1 X124.043
G1 Y94.38
G1 X124.061Y94.384
G1 X124.331Y94.446
G1 X124.856Y94.609
G1 X125.354Y94.819
G1 X125.823Y95.073
G1 X126.26Y95.367
G1 X126.665Y95.699
G1 X127.035Y96.065
G1 X127.367Y96.463
G1 X127.661Y96.889
G1 X127.915Y97.341
G1 X128.126Y97.815
G1 X128.292Y98.308
G1 X128.412Y98.817
G1 X128.484Y99.34
G1 X128.506Y99.872
G1 X128.475Y100.412
G1 X128.391Y100.956
G1 X128.248Y101.507
G1 X128.054Y102.031
G1 X127.812Y102.526
G1 X127.526Y102.989
G1 X127.198Y103.418
G1 X126.833Y103.812
G1 X126.433Y104.167
G1 X126.001Y104.481
G1 X125.542Y104.754
G1 X125.058Y104.981
G1 X124.552Y105.162
G1 X124.028Y105.293
G1 X123.49Y105.374
G1 X122.94Y105.401
G1 X122.382Y105.372
G1 X121.819Y105.286
G1 X121.267Y105.143
G1 X120.743Y104.949
G1 X120.248Y104.707
G1 X119.785Y104.42
G1 X119.356Y104.093
G1 X118.963Y103.727
G1 X118.608Y103.327
G1 X118.293Y102.896
G1 X118.021Y102.436
G1 X117.793Y101.952
G1 X117.613Y101.447
G1 X117.481Y100.923
G1 X117.401Y100.384
G1 X117.374Y99.834
G1 X117.402Y99.276
G1 X117.489Y98.713
G1 X117.588Y98.309
G1 X117.715Y97.918
G1 X117.87Y97.54
G1 X118.051Y97.176
G1 X118.256Y96.829
G1 X118.486Y96.499
G1 X118.738Y96.186
G1 X119.012Y95.893
G1 X119.306Y95.621
G1 X119.619Y95.369
G1 X119.95Y95.141
G1 X120.298Y94.937
; Layer C00 Pass 4 of 10
G1 X120.662Y94.757
G1 X121.041Y94.604
G1 X121.433Y94.478
G1 X121.837Y94.38
G1 Y99.834
G1 X124.043
G1 Y94.38
G1 X124.061Y94.384
G1 X124.331Y94.446
G1 X124.856Y94.609
G1 X125.354Y94.819
G1 X125.823Y95.073
G1 X126.26Y95.367
G1 X126.665Y95.699
G1 X127.035Y96.065
G1 X127.367Y96.463
G1 X127.661Y96.889
G1 X127.915Y97.341
G1 X128.126Y97.815
G1 X128.292Y98.308
G1 X128.412Y98.817
G1 X128.484Y99.34
G1 X128.506Y99.872
G1 X128.475Y100.412
G1 X128.391Y100.956
G1 X128.248Y101.507
G1 X128.054Y102.031
G1 X127.812Y102.526
G1 X127.526Y102.989
G1 X127.198Y103.418
G1 X126.833Y103.812
G1 X126.433Y104.167
G1 X126.001Y104.481
G1 X125.542Y104.754
G1 X125.058Y104.981
G1 X124.552Y105.162
G1 X124.028Y105.293
G1 X123.49Y105.374
G1 X122.94Y105.401
G1 X122.382Y105.372
G1 X121.819Y105.286
G1 X121.267Y105.143
G1 X120.743Y104.949
G1 X120.248Y104.707
G1 X119.785Y104.42
G1 X119.356Y104.093
G1 X118.963Y103.727
G1 X118.608Y103.327
G1 X118.293Y102.896
G1 X118.021Y102.436
G1 X117.793Y101.952
G1 X117.613Y101.447
G1 X117.481Y100.923
G1 X117.401Y100.384
G1 X117.374Y99.834
G1 X117.402Y99.276
G1 X117.489Y98.713
G1 X117.588Y98.309
G1 X117.715Y97.918
G1 X117.87Y97.54
G1 X118.051Y97.176
G1 X118.256Y96.829
G1 X118.486Y96.499
G1 X118.738Y96.186
G1 X119.012Y95.893
G1 X119.306Y95.621
G1 X119.619Y95.369
G1 X119.95Y95.141
G1 X120.298Y94.937
; Layer C00 Pass 5 of 10
G1 X120.662Y94.757
G1 X121.041Y94.604
G1 X121.433Y94.478
G1 X121.837Y94.38
G1 Y99.834
G1 X124.043
G1 Y94.38
G1 X124.061Y94.384
G1 X124.331Y94.446
G1 X124.856Y94.609
G1 X125.354Y94.819
G1 X125.823Y95.073
G1 X126.26Y95.367
G1 X126.665Y95.699
G1 X127.035Y96.065
G1 X127.367Y96.463
G1 X127.661Y96.889
G1 X127.915Y97.341
G1 X128.126Y97.815
G1 X128.292Y98.308
G1 X128.412Y98.817
G1 X128.484Y99.34
G1 X128.506Y99.872
G1 X128.475Y100.412
G1 X128.391Y100.956
G1 X128.248Y101.507
G1 X128.054Y102.031
G1 X127.812Y102.526
G1 X127.526Y102.989
G1 X127.198Y103.418
G1 X126.833Y103.812
G1 X126.433Y104.167
G1 X126.001Y104.481
G1 X125.542Y104.754
G1 X125.058Y104.981
G1 X124.552Y105.162
G1 X124.028Y105.293
G1 X123.49Y105.374
G1 X122.94Y105.401
G1 X122.382Y105.372
G1 X121.819Y105.286
G1 X121.267Y105.143
G1 X120.743Y104.949
G1 X120.248Y104.707
G1 X119.785Y104.42
G1 X119.356Y104.093
G1 X118.963Y103.727
G1 X118.608Y103.327
G1 X118.293Y102.896
G1 X118.021Y102.436
G1 X117.793Y101.952
G1 X117.613Y101.447
G1 X117.481Y100.923
G1 X117.401Y100.384
G1 X117.374Y99.834
G1 X117.402Y99.276
G1 X117.489Y98.713
G1 X117.588Y98.309
G1 X117.715Y97.918
G1 X117.87Y97.54
G1 X118.051Y97.176
G1 X118.256Y96.829
G1 X118.486Y96.499
G1 X118.738Y96.186
G1 X119.012Y95.893
G1 X119.306Y95.621
G1 X119.619Y95.369
G1 X119.95Y95.141
G1 X120.298Y94.937
; Layer C00 Pass 6 of 10
G1 X120.662Y94.757
G1 X121.041Y94.604
G1 X121.433Y94.478
G1 X121.837Y94.38
G1 Y99.834
G1 X124.043
G1 Y94.38
G1 X124.061Y94.384
G1 X124.331Y94.446
G1 X124.856Y94.609
G1 X125.354Y94.819
G1 X125.823Y95.073
G1 X126.26Y95.367
G1 X126.665Y95.699
G1 X127.035Y96.065
G1 X127.367Y96.463
G1 X127.661Y96.889
G1 X127.915Y97.341
G1 X128.126Y97.815
G1 X128.292Y98.308
G1 X128.412Y98.817
G1 X128.484Y99.34
G1 X128.506Y99.872
G1 X128.475Y100.412
G1 X128.391Y100.956
G1 X128.248Y101.507
G1 X128.054Y102.031
G1 X127.812Y102.526
G1 X127.526Y102.989
G1 X127.198Y103.418
G1 X126.833Y103.812
G1 X126.433Y104.167
G1 X126.001Y104.481
G1 X125.542Y104.754
G1 X125.058Y104.981
G1 X124.552Y105.162
G1 X124.028Y105.293
G1 X123.49Y105.374
G1 X122.94Y105.401
G1 X122.382Y105.372
G1 X121.819Y105.286
G1 X121.267Y105.143
G1 X120.743Y104.949
G1 X120.248Y104.707
G1 X119.785Y104.42
G1 X119.356Y104.093
G1 X118.963Y103.727
G1 X118.608Y103.327
G1 X118.293Y102.896
G1 X118.021Y102.436
G1 X117.793Y101.952
G1 X117.613Y101.447
G1 X117.481Y100.923
G1 X117.401Y100.384
G1 X117.374Y99.834
G1 X117.402Y99.276
G1 X117.489Y98.713
G1 X117.588Y98.309
G1 X117.715Y97.918
G1 X117.87Y97.54
G1 X118.051Y97.176
G1 X118.256Y96.829
G1 X118.486Y96.499
G1 X118.738Y96.186
G1 X119.012Y95.893
G1 X119.306Y95.621
G1 X119.619Y95.369
G1 X119.95Y95.141
G1 X120.298Y94.937
; Layer C00 Pass 7 of 10
G1 X120.662Y94.757
G1 X121.041Y94.604
G1 X121.433Y94.478
G1 X121.837Y94.38
G1 Y99.834
G1 X124.043
G1 Y94.38
G1 X124.061Y94.384
G1 X124.331Y94.446
G1 X124.856Y94.609
G1 X125.354Y94.819
G1 X125.823Y95.073
G1 X126.26Y95.367
G1 X126.665Y95.699
G1 X127.035Y96.065
G1 X127.367Y96.463
G1 X127.661Y96.889
G1 X127.915Y97.341
G1 X128.126Y97.815
G1 X128.292Y98.308
G1 X128.412Y98.817
G1 X128.484Y99.34
G1 X128.506Y99.872
G1 X128.475Y100.412
G1 X128.391Y100.956
G1 X128.248Y101.507
G1 X128.054Y102.031
G1 X127.812Y102.526
G1 X127.526Y102.989
G1 X127.198Y103.418
G1 X126.833Y103.812
G1 X126.433Y104.167
G1 X126.001Y104.481
G1 X125.542Y104.754
G1 X125.058Y104.981
G1 X124.552Y105.162
G1 X124.028Y105.293
G1 X123.49Y105.374
G1 X122.94Y105.401
G1 X122.382Y105.372
G1 X121.819Y105.286
G1 X121.267Y105.143
G1 X120.743Y104.949
G1 X120.248Y104.707
G1 X119.785Y104.42
G1 X119.356Y104.093
G1 X118.963Y103.727
G1 X118.608Y103.327
G1 X118.293Y102.896
G1 X118.021Y102.436
G1 X117.793Y101.952
G1 X117.613Y101.447
G1 X117.481Y100.923
G1 X117.401Y100.384
G1 X117.374Y99.834
G1 X117.402Y99.276
G1 X117.489Y98.713
G1 X117.588Y98.309
G1 X117.715Y97.918
G1 X117.87Y97.54
G1 X118.051Y97.176
G1 X118.256Y96.829
G1 X118.486Y96.499
G1 X118.738Y96.186
G1 X119.012Y95.893
G1 X119.306Y95.621
G1 X119.619Y95.369
G1 X119.95Y95.141
G1 X120.298Y94.937
; Layer C00 Pass 8 of 10
G1 X120.662Y94.757
G1 X121.041Y94.604
G1 X121.433Y94.478
G1 X121.837Y94.38
G1 Y99.834
G1 X124.043
G1 Y94.38
G1 X124.061Y94.384
G1 X124.331Y94.446
G1 X124.856Y94.609
G1 X125.354Y94.819
G1 X125.823Y95.073
G1 X126.26Y95.367
G1 X126.665Y95.699
G1 X127.035Y96.065
G1 X127.367Y96.463
G1 X127.661Y96.889
G1 X127.915Y97.341
G1 X128.126Y97.815
G1 X128.292Y98.308
G1 X128.412Y98.817
G1 X128.484Y99.34
G1 X128.506Y99.872
G1 X128.475Y100.412
G1 X128.391Y100.956
G1 X128.248Y101.507
G1 X128.054Y102.031
G1 X127.812Y102.526
G1 X127.526Y102.989
G1 X127.198Y103.418
G1 X126.833Y103.812
G1 X126.433Y104.167
G1 X126.001Y104.481
G1 X125.542Y104.754
G1 X125.058Y104.981
G1 X124.552Y105.162
G1 X124.028Y105.293
G1 X123.49Y105.374
G1 X122.94Y105.401
G1 X122.382Y105.372
G1 X121.819Y105.286
G1 X121.267Y105.143
G1 X120.743Y104.949
G1 X120.248Y104.707
G1 X119.785Y104.42
G1 X119.356Y104.093
G1 X118.963Y103.727
G1 X118.608Y103.327
G1 X118.293Y102.896
G1 X118.021Y102.436
G1 X117.793Y101.952
G1 X117.613Y101.447
G1 X117.481Y100.923
G1 X117.401Y100.384
G1 X117.374Y99.834
G1 X117.402Y99.276
G1 X117.489Y98.713
G1 X117.588Y98.309
G1 X117.715Y97.918
G1 X117.87Y97.54
G1 X118.051Y97.176
G1 X118.256Y96.829
G1 X118.486Y96.499
G1 X118.738Y96.186
G1 X119.012Y95.893
G1 X119.306Y95.621
G1 X119.619Y95.369
G1 X119.95Y95.141
G1 X120.298Y94.937
; Layer C00 Pass 9 of 10
G1 X120.662Y94.757
G1 X121.041Y94.604
G1 X121.433Y94.478
G1 X121.837Y94.38
G1 Y99.834
G1 X124.043
G1 Y94.38
G1 X124.061Y94.384
G1 X124.331Y94.446
G1 X124.856Y94.609
G1 X125.354Y94.819
G1 X125.823Y95.073
G1 X126.26Y95.367
G1 X126.665Y95.699
G1 X127.035Y96.065
G1 X127.367Y96.463
G1 X127.661Y96.889
G1 X127.915Y97.341
G1 X128.126Y97.815
G1 X128.292Y98.308
G1 X128.412Y98.817
G1 X128.484Y99.34
G1 X128.506Y99.872
G1 X128.475Y100.412
G1 X128.391Y100.956
G1 X128.248Y101.507
G1 X128.054Y102.031
G1 X127.812Y102.526
G1 X127.526Y102.989
G1 X127.198Y103.418
G1 X126.833Y103.812
G1 X126.433Y104.167
G1 X126.001Y104.481
G1 X125.542Y104.754
G1 X125.058Y104.981
G1 X124.552Y105.162
G1 X124.028Y105.293
G1 X123.49Y105.374
G1 X122.94Y105.401
G1 X122.382Y105.372
G1 X121.819Y105.286
G1 X121.267Y105.143
G1 X120.743Y104.949
G1 X120.248Y104.707
G1 X119.785Y104.42
G1 X119.356Y104.093
G1 X118.963Y103.727
G1 X118.608Y103.327
G1 X118.293Y102.896
G1 X118.021Y102.436
G1 X117.793Y101.952
G1 X117.613Y101.447
G1 X117.481Y100.923
G1 X117.401Y100.384
G1 X117.374Y99.834
G1 X117.402Y99.276
G1 X117.489Y98.713
G1 X117.588Y98.309
G1 X117.715Y97.918
G1 X117.87Y97.54
G1 X118.051Y97.176
G1 X118.256Y96.829
G1 X118.486Y96.499
G1 X118.738Y96.186
G1 X119.012Y95.893
G1 X119.306Y95.621
G1 X119.619Y95.369
G1 X119.95Y95.141
G1 X120.298Y94.937
; Layer C00 Pass 10 of 10
G1 X120.662Y94.757
G1 X121.041Y94.604
G1 X121.433Y94.478
G1 X121.837Y94.38
G1 Y99.834
G1 X124.043
G1 Y94.38
G1 X124.061Y94.384
G1 X124.331Y94.446
G1 X124.856Y94.609
G1 X125.354Y94.819
G1 X125.823Y95.073
G1 X126.26Y95.367
G1 X126.665Y95.699
G1 X127.035Y96.065
G1 X127.367Y96.463
G1 X127.661Y96.889
G1 X127.915Y97.341
G1 X128.126Y97.815
G1 X128.292Y98.308
G1 X128.412Y98.817
G1 X128.484Y99.34
G1 X128.506Y99.872
G1 X128.475Y100.412
G1 X128.391Y100.956
G1 X128.248Y101.507
G1 X128.054Y102.031
G1 X127.812Y102.526
G1 X127.526Y102.989
G1 X127.198Y103.418
G1 X126.833Y103.812
G1 X126.433Y104.167
G1 X126.001Y104.481
G1 X125.542Y104.754
G1 X125.058Y104.981
G1 X124.552Y105.162
G1 X124.028Y105.293
G1 X123.49Y105.374
G1 X122.94Y105.401
G1 X122.382Y105.372
G1 X121.819Y105.286
G1 X121.267Y105.143
G1 X120.743Y104.949
G1 X120.248Y104.707
G1 X119.785Y104.42
G1 X119.356Y104.093
G1 X118.963Y103.727
G1 X118.608Y103.327
G1 X118.293Y102.896
G1 X118.021Y102.436
G1 X117.793Y101.952
G1 X117.613Y101.447
G1 X117.481Y100.923
G1 X117.401Y100.384
G1 X117.374Y99.834
G1 X117.402Y99.276
G1 X117.489Y98.713
G1 X117.588Y98.309
G1 X117.715Y97.918
G1 X117.87Y97.54
G1 X118.051Y97.176
G1 X118.256Y96.829
G1 X118.486Y96.499
G1 X118.738Y96.186
G1 X119.012Y95.893
G1 X119.306Y95.621
G1 X119.619Y95.369
G1 X119.95Y95.141
G1 X120.298Y94.937
G0 X130.051Y97.443
; Layer C00 Pass 1 of 10
G1 X130.257Y97.095
G1 X130.486Y96.765
G1 X130.738Y96.453
G1 X131.012Y96.16
G1 X131.306Y95.887
G1 X131.619Y95.636
G1 X131.95Y95.407
G1 X132.299Y95.203
G1 X132.663Y95.023
G1 X133.041Y94.87
G1 X133.433Y94.744
G1 X133.837Y94.646
G1 Y100.101
G1 X136.043
G1 Y94.646
G1 X136.061Y94.65
G1 X136.331Y94.712
G1 X136.856Y94.875
G1 X137.354Y95.086
G1 X137.823Y95.339
G1 X138.261Y95.634
G1 X138.665Y95.965
G1 X139.035Y96.332
G1 X139.368Y96.73
G1 X139.662Y97.156
G1 X139.915Y97.607
G1 X140.126Y98.081
G1 X140.292Y98.574
G1 X140.412Y99.084
G1 X140.484Y99.606
G1 X140.506Y100.139
G1 X140.476Y100.678
G1 X140.391Y101.222
G1 X140.248Y101.774
G1 X140.054Y102.298
G1 X139.812Y102.793
G1 X139.526Y103.256
G1 X139.198Y103.685
G1 X138.833Y104.078
G1 X138.433Y104.433
G1 X138.001Y104.748
G1 X137.542Y105.02
G1 X137.058Y105.248
G1 X136.552Y105.428
G1 X136.029Y105.56
G1 X135.49Y105.64
G1 X134.94Y105.667
G1 X134.382Y105.638
G1 X133.819Y105.552
G1 X133.267Y105.409
G1 X132.743Y105.215
G1 X132.248Y104.973
G1 X131.785Y104.687
G1 X131.356Y104.359
G1 X130.963Y103.994
G1 X130.608Y103.594
G1 X130.293Y103.162
G1 X130.021Y102.703
G1 X129.793Y102.219
G1 X129.613Y101.713
G1 X129.481Y101.189
G1 X129.401Y100.651
G1 X129.374Y100.101
G1 X129.403Y99.543
G1 X129.489Y98.979
G1 X129.588Y98.576
G1 X129.715Y98.184
G1 X129.87Y97.806
G1 X130.051Y97.443
; Layer C00 Pass 2 of 10
G1 X130.257Y97.095
G1 X130.486Y96.765
G1 X130.738Y96.453
G1 X131.012Y96.16
G1 X131.306Y95.887
G1 X131.619Y95.636
G1 X131.95Y95.407
G1 X132.299Y95.203
G1 X132.663Y95.023
G1 X133.041Y94.87
G1 X133.433Y94.744
G1 X133.837Y94.646
G1 Y100.101
G1 X136.043
G1 Y94.646
G1 X136.061Y94.65
G1 X136.331Y94.712
G1 X136.856Y94.875
G1 X137.354Y95.086
G1 X137.823Y95.339
G1 X138.261Y95.634
G1 X138.665Y95.965
G1 X139.035Y96.332
G1 X139.368Y96.73
G1 X139.662Y97.156
G1 X139.915Y97.607
G1 X140.126Y98.081
G1 X140.292Y98.574
G1 X140.412Y99.084
G1 X140.484Y99.606
G1 X140.506Y100.139
G1 X140.476Y100.678
G1 X140.391Y101.222
G1 X140.248Y101.774
G1 X140.054Y102.298
G1 X139.812Y102.793
G1 X139.526Y103.256
G1 X139.198Y103.685
G1 X138.833Y104.078
G1 X138.433Y104.433
G1 X138.001Y104.748
G1 X137.542Y105.02
G1 X137.058Y105.248
G1 X136.552Y105.428
G1 X136.029Y105.56
G1 X135.49Y105.64
G1 X134.94Y105.667
G1 X134.382Y105.638
G1 X133.819Y105.552
G1 X133.267Y105.409
G1 X132.743Y105.215
G1 X132.248Y104.973
G1 X131.785Y104.687
G1 X131.356Y104.359
G1 X130.963Y103.994
G1 X130.608Y103.594
G1 X130.293Y103.162
G1 X130.021Y102.703
G1 X129.793Y102.219
G1 X129.613Y101.713
G1 X129.481Y101.189
G1 X129.401Y100.651
G1 X129.374Y100.101
G1 X129.403Y99.543
G1 X129.489Y98.979
G1 X129.588Y98.576
G1 X129.715Y98.184
G1 X129.87Y97.806
G1 X130.051Y97.443
; Layer C00 Pass 3 of 10
G1 X130.257Y97.095
G1 X130.486Y96.765
G1 X130.738Y96.453
G1 X131.012Y96.16
G1 X131.306Y95.887
G1 X131.619Y95.636
G1 X131.95Y95.407
G1 X132.299Y95.203
G1 X132.663Y95.023
G1 X133.041Y94.87
G1 X133.433Y94.744
G1 X133.837Y94.646
G1 Y100.101
G1 X136.043
G1 Y94.646
G1 X136.061Y94.65
G1 X136.331Y94.712
G1 X136.856Y94.875
G1 X137.354Y95.086
G1 X137.823Y95.339
G1 X138.261Y95.634
G1 X138.665Y95.965
G1 X139.035Y96.332
G1 X139.368Y96.73
G1 X139.662Y97.156
G1 X139.915Y97.607
G1 X140.126Y98.081
G1 X140.292Y98.574
G1 X140.412Y99.084
G1 X140.484Y99.606
G1 X140.506Y100.139
G1 X140.476Y100.678
G1 X140.391Y101.222
G1 X140.248Y101.774
G1 X140.054Y102.298
G1 X139.812Y102.793
G1 X139.526Y103.256
G1 X139.198Y103.685
G1 X138.833Y104.078
G1 X138.433Y104.433
G1 X138.001Y104.748
G1 X137.542Y105.02
G1 X137.058Y105.248
G1 X136.552Y105.428
G1 X136.029Y105.56
G1 X135.49Y105.64
G1 X134.94Y105.667
G1 X134.382Y105.638
G1 X133.819Y105.552
G1 X133.267Y105.409
G1 X132.743Y105.215
G1 X132.248Y104.973
G1 X131.785Y104.687
G1 X131.356Y104.359
G1 X130.963Y103.994
G1 X130.608Y103.594
G1 X130.293Y103.162
G1 X130.021Y102.703
G1 X129.793Y102.219
G1 X129.613Y101.713
G1 X129.481Y101.189
G1 X129.401Y100.651
G1 X129.374Y100.101
G1 X129.403Y99.543
G1 X129.489Y98.979
G1 X129.588Y98.576
G1 X129.715Y98.184
G1 X129.87Y97.806
G1 X130.051Y97.443
; Layer C00 Pass 4 of 10
G1 X130.257Y97.095
G1 X130.486Y96.765
G1 X130.738Y96.453
G1 X131.012Y96.16
G1 X131.306Y95.887
G1 X131.619Y95.636
G1 X131.95Y95.407
G1 X132.299Y95.203
G1 X132.663Y95.023
G1 X133.041Y94.87
G1 X133.433Y94.744
G1 X133.837Y94.646
G1 Y100.101
G1 X136.043
G1 Y94.646
G1 X136.061Y94.65
G1 X136.331Y94.712
G1 X136.856Y94.875
G1 X137.354Y95.086
G1 X137.823Y95.339
G1 X138.261Y95.634
G1 X138.665Y95.965
G1 X139.035Y96.332
G1 X139.368Y96.73
G1 X139.662Y97.156
G1 X139.915Y97.607
G1 X140.126Y98.081
G1 X140.292Y98.574
G1 X140.412Y99.084
G1 X140.484Y99.606
G1 X140.506Y100.139
G1 X140.476Y100.678
G1 X140.391Y101.222
G1 X140.248Y101.774
G1 X140.054Y102.298
G1 X139.812Y102.793
G1 X139.526Y103.256
G1 X139.198Y103.685
G1 X138.833Y104.078
G1 X138.433Y104.433
G1 X138.001Y104.748
G1 X137.542Y105.02
G1 X137.058Y105.248
G1 X136.552Y105.428
G1 X136.029Y105.56
G1 X135.49Y105.64
G1 X134.94Y105.667
G1 X134.382Y105.638
G1 X133.819Y105.552
G1 X133.267Y105.409
G1 X132.743Y105.215
G1 X132.248Y104.973
G1 X131.785Y104.687
G1 X131.356Y104.359
G1 X130.963Y103.994
G1 X130.608Y103.594
G1 X130.293Y103.162
G1 X130.021Y102.703
G1 X129.793Y102.219
G1 X129.613Y101.713
G1 X129.481Y101.189
G1 X129.401Y100.651
G1 X129.374Y100.101
G1 X129.403Y99.543
G1 X129.489Y98.979
G1 X129.588Y98.576
G1 X129.715Y98.184
G1 X129.87Y97.806
G1 X130.051Y97.443
; Layer C00 Pass 5 of 10
G1 X130.257Y97.095
G1 X130.486Y96.765
G1 X130.738Y96.453
G1 X131.012Y96.16
G1 X131.306Y95.887
G1 X131.619Y95.636
G1 X131.95Y95.407
G1 X132.299Y95.203
G1 X132.663Y95.023
G1 X133.041Y94.87
G1 X133.433Y94.744
G1 X133.837Y94.646
G1 Y100.101
G1 X136.043
G1 Y94.646
G1 X136.061Y94.65
G1 X136.331Y94.712
G1 X136.856Y94.875
G1 X137.354Y95.086
G1 X137.823Y95.339
G1 X138.261Y95.634
G1 X138.665Y95.965
G1 X139.035Y96.332
G1 X139.368Y96.73
G1 X139.662Y97.156
G1 X139.915Y97.607
G1 X140.126Y98.081
G1 X140.292Y98.574
G1 X140.412Y99.084
G1 X140.484Y99.606
G1 X140.506Y100.139
G1 X140.476Y100.678
G1 X140.391Y101.222
G1 X140.248Y101.774
G1 X140.054Y102.298
G1 X139.812Y102.793
G1 X139.526Y103.256
G1 X139.198Y103.685
G1 X138.833Y104.078
G1 X138.433Y104.433
G1 X138.001Y104.748
G1 X137.542Y105.02
G1 X137.058Y105.248
G1 X136.552Y105.428
G1 X136.029Y105.56
G1 X135.49Y105.64
G1 X134.94Y105.667
G1 X134.382Y105.638
G1 X133.819Y105.552
G1 X133.267Y105.409
G1 X132.743Y105.215
G1 X132.248Y104.973
G1 X131.785Y104.687
G1 X131.356Y104.359
G1 X130.963Y103.994
G1 X130.608Y103.594
G1 X130.293Y103.162
G1 X130.021Y102.703
G1 X129.793Y102.219
G1 X129.613Y101.713
G1 X129.481Y101.189
G1 X129.401Y100.651
G1 X129.374Y100.101
G1 X129.403Y99.543
G1 X129.489Y98.979
G1 X129.588Y98.576
G1 X129.715Y98.184
G1 X129.87Y97.806
G1 X130.051Y97.443
; Layer C00 Pass 6 of 10
G1 X130.257Y97.095
G1 X130.486Y96.765
G1 X130.738Y96.453
G1 X131.012Y96.16
G1 X131.306Y95.887
G1 X131.619Y95.636
G1 X131.95Y95.407
G1 X132.299Y95.203
G1 X132.663Y95.023
G1 X133.041Y94.87
G1 X133.433Y94.744
G1 X133.837Y94.646
G1 Y100.101
G1 X136.043
G1 Y94.646
G1 X136.061Y94.65
G1 X136.331Y94.712
G1 X136.856Y94.875
G1 X137.354Y95.086
G1 X137.823Y95.339
G1 X138.261Y95.634
G1 X138.665Y95.965
G1 X139.035Y96.332
G1 X139.368Y96.73
G1 X139.662Y97.156
G1 X139.915Y97.607
G1 X140.126Y98.081
G1 X140.292Y98.574
G1 X140.412Y99.084
G1 X140.484Y99.606
G1 X140.506Y100.139
G1 X140.476Y100.678
G1 X140.391Y101.222
G1 X140.248Y101.774
G1 X140.054Y102.298
G1 X139.812Y102.793
G1 X139.526Y103.256
G1 X139.198Y103.685
G1 X138.833Y104.078
G1 X138.433Y104.433
G1 X138.001Y104.748
G1 X137.542Y105.02
G1 X137.058Y105.248
G1 X136.552Y105.428
G1 X136.029Y105.56
G1 X135.49Y105.64
G1 X134.94Y105.667
G1 X134.382Y105.638
G1 X133.819Y105.552
G1 X133.267Y105.409
G1 X132.743Y105.215
G1 X132.248Y104.973
G1 X131.785Y104.687
G1 X131.356Y104.359
G1 X130.963Y103.994
G1 X130.608Y103.594
G1 X130.293Y103.162
G1 X130.021Y102.703
G1 X129.793Y102.219
G1 X129.613Y101.713
G1 X129.481Y101.189
G1 X129.401Y100.651
G1 X129.374Y100.101
G1 X129.403Y99.543
G1 X129.489Y98.979
G1 X129.588Y98.576
G1 X129.715Y98.184
G1 X129.87Y97.806
G1 X130.051Y97.443
; Layer C00 Pass 7 of 10
G1 X130.257Y97.095
G1 X130.486Y96.765
G1 X130.738Y96.453
G1 X131.012Y96.16
G1 X131.306Y95.887
G1 X131.619Y95.636
G1 X131.95Y95.407
G1 X132.299Y95.203
G1 X132.663Y95.023
G1 X133.041Y94.87
G1 X133.433Y94.744
G1 X133.837Y94.646
G1 Y100.101
G1 X136.043
G1 Y94.646
G1 X136.061Y94.65
G1 X136.331Y94.712
G1 X136.856Y94.875
G1 X137.354Y95.086
G1 X137.823Y95.339
G1 X138.261Y95.634
G1 X138.665Y95.965
G1 X139.035Y96.332
G1 X139.368Y96.73
G1 X139.662Y97.156
G1 X139.915Y97.607
G1 X140.126Y98.081
G1 X140.292Y98.574
G1 X140.412Y99.084
G1 X140.484Y99.606
G1 X140.506Y100.139
G1 X140.476Y100.678
G1 X140.391Y101.222
G1 X140.248Y101.774
G1 X140.054Y102.298
G1 X139.812Y102.793
G1 X139.526Y103.256
G1 X139.198Y103.685
G1 X138.833Y104.078
G1 X138.433Y104.433
G1 X138.001Y104.748
G1 X137.542Y105.02
G1 X137.058Y105.248
G1 X136.552Y105.428
G1 X136.029Y105.56
G1 X135.49Y105.64
G1 X134.94Y105.667
G1 X134.382Y105.638
G1 X133.819Y105.552
G1 X133.267Y105.409
G1 X132.743Y105.215
G1 X132.248Y104.973
G1 X131.785Y104.687
G1 X131.356Y104.359
G1 X130.963Y103.994
G1 X130.608Y103.594
G1 X130.293Y103.162
G1 X130.021Y102.703
G1 X129.793Y102.219
G1 X129.613Y101.713
G1 X129.481Y101.189
G1 X129.401Y100.651
G1 X129.374Y100.101
G1 X129.403Y99.543
G1 X129.489Y98.979
G1 X129.588Y98.576
G1 X129.715Y98.184
G1 X129.87Y97.806
G1 X130.051Y97.443
; Layer C00 Pass 8 of 10
G1 X130.257Y97.095
G1 X130.486Y96.765
G1 X130.738Y96.453
G1 X131.012Y96.16
G1 X131.306Y95.887
G1 X131.619Y95.636
G1 X131.95Y95.407
G1 X132.299Y95.203
G1 X132.663Y95.023
G1 X133.041Y94.87
G1 X133.433Y94.744
G1 X133.837Y94.646
G1 Y100.101
G1 X136.043
G1 Y94.646
G1 X136.061Y94.65
G1 X136.331Y94.712
G1 X136.856Y94.875
G1 X137.354Y95.086
G1 X137.823Y95.339
G1 X138.261Y95.634
G1 X138.665Y95.965
G1 X139.035Y96.332
G1 X139.368Y96.73
G1 X139.662Y97.156
G1 X139.915Y97.607
G1 X140.126Y98.081
G1 X140.292Y98.574
G1 X140.412Y99.084
G1 X140.484Y99.606
G1 X140.506Y100.139
G1 X140.476Y100.678
G1 X140.391Y101.222
G1 X140.248Y101.774
G1 X140.054Y102.298
G1 X139.812Y102.793
G1 X139.526Y103.256
G1 X139.198Y103.685
G1 X138.833Y104.078
G1 X138.433Y104.433
G1 X138.001Y104.748
G1 X137.542Y105.02
G1 X137.058Y105.248
G1 X136.552Y105.428
G1 X136.029Y105.56
G1 X135.49Y105.64
G1 X134.94Y105.667
G1 X134.382Y105.638
G1 X133.819Y105.552
G1 X133.267Y105.409
G1 X132.743Y105.215
G1 X132.248Y104.973
G1 X131.785Y104.687
G1 X131.356Y104.359
G1 X130.963Y103.994
G1 X130.608Y103.594
G1 X130.293Y103.162
G1 X130.021Y102.703
G1 X129.793Y102.219
G1 X129.613Y101.713
G1 X129.481Y101.189
G1 X129.401Y100.651
G1 X129.374Y100.101
G1 X129.403Y99.543
G1 X129.489Y98.979
G1 X129.588Y98.576
G1 X129.715Y98.184
G1 X129.87Y97.806
G1 X130.051Y97.443
; Layer C00 Pass 9 of 10
G1 X130.257Y97.095
G1 X130.486Y96.765
G1 X130.738Y96.453
G1 X131.012Y96.16
G1 X131.306Y95.887
G1 X131.619Y95.636
G1 X131.95Y95.407
G1 X132.299Y95.203
G1 X132.663Y95.023
G1 X133.041Y94.87
G1 X133.433Y94.744
G1 X133.837Y94.646
G1 Y100.101
G1 X136.043
G1 Y94.646
G1 X136.061Y94.65
G1 X136.331Y94.712
G1 X136.856Y94.875
G1 X137.354Y95.086
G1 X137.823Y95.339
G1 X138.261Y95.634
G1 X138.665Y95.965
G1 X139.035Y96.332
G1 X139.368Y96.73
G1 X139.662Y97.156
G1 X139.915Y97.607
G1 X140.126Y98.081
G1 X140.292Y98.574
G1 X140.412Y99.084
G1 X140.484Y99.606
G1 X140.506Y100.139
G1 X140.476Y100.678
G1 X140.391Y101.222
G1 X140.248Y101.774
G1 X140.054Y102.298
G1 X139.812Y102.793
G1 X139.526Y103.256
G1 X139.198Y103.685
G1 X138.833Y104.078
G1 X138.433Y104.433
G1 X138.001Y104.748
G1 X137.542Y105.02
G1 X137.058Y105.248
G1 X136.552Y105.428
G1 X136.029Y105.56
G1 X135.49Y105.64
G1 X134.94Y105.667
G1 X134.382Y105.638
G1 X133.819Y105.552
G1 X133.267Y105.409
G1 X132.743Y105.215
G1 X132.248Y104.973
G1 X131.785Y104.687
G1 X131.356Y104.359
G1 X130.963Y103.994
G1 X130.608Y103.594
G1 X130.293Y103.162
G1 X130.021Y102.703
G1 X129.793Y102.219
G1 X129.613Y101.713
G1 X129.481Y101.189
G1 X129.401Y100.651
G1 X129.374Y100.101
G1 X129.403Y99.543
G1 X129.489Y98.979
G1 X129.588Y98.576
G1 X129.715Y98.184
G1 X129.87Y97.806
G1 X130.051Y97.443
; Layer C00 Pass 10 of 10
G1 X130.257Y97.095
G1 X130.486Y96.765
G1 X130.738Y96.453
G1 X131.012Y96.16
G1 X131.306Y95.887
G1 X131.619Y95.636
G1 X131.95Y95.407
G1 X132.299Y95.203
G1 X132.663Y95.023
G1 X133.041Y94.87
G1 X133.433Y94.744
G1 X133.837Y94.646
G1 Y100.101
G1 X136.043
G1 Y94.646
G1 X136.061Y94.65
G1 X136.331Y94.712
G1 X136.856Y94.875
G1 X137.354Y95.086
G1 X137.823Y95.339
G1 X138.261Y95.634
G1 X138.665Y95.965
G1 X139.035Y96.332
G1 X139.368Y96.73
G1 X139.662Y97.156
G1 X139.915Y97.607
G1 X140.126Y98.081
G1 X140.292Y98.574
G1 X140.412Y99.084
G1 X140.484Y99.606
G1 X140.506Y100.139
G1 X140.476Y100.678
G1 X140.391Y101.222
G1 X140.248Y101.774
G1 X140.054Y102.298
G1 X139.812Y102.793
G1 X139.526Y103.256
G1 X139.198Y103.685
G1 X138.833Y104.078
G1 X138.433Y104.433
G1 X138.001Y104.748
G1 X137.542Y105.02
G1 X137.058Y105.248
G1 X136.552Y105.428
G1 X136.029Y105.56
G1 X135.49Y105.64
G1 X134.94Y105.667
G1 X134.382Y105.638
G1 X133.819Y105.552
G1 X133.267Y105.409
G1 X132.743Y105.215
G1 X132.248Y104.973
G1 X131.785Y104.687
G1 X131.356Y104.359
G1 X130.963Y103.994
G1 X130.608Y103.594
G1 X130.293Y103.162
G1 X130.021Y102.703
G1 X129.793Y102.219
G1 X129.613Y101.713
G1 X129.481Y101.189
G1 X129.401Y100.651
G1 X129.374Y100.101
G1 X129.403Y99.543
G1 X129.489Y98.979
G1 X129.588Y98.576
G1 X129.715Y98.184
G1 X129.87Y97.806
G1 X130.051Y97.443
G0 X141.588Y98.576
; Layer C00 Pass 1 of 10
G1 X141.715Y98.184
G1 X141.87Y97.806
G1 X142.051Y97.443
G1 X142.257Y97.095
G1 X142.486Y96.765
G1 X142.738Y96.453
G1 X143.012Y96.16
G1 X143.306Y95.887
G1 X143.619Y95.636
G1 X143.95Y95.407
G1 X144.299Y95.203
G1 X144.663Y95.023
G1 X145.041Y94.87
G1 X145.433Y94.744
G1 X145.837Y94.646
G1 Y100.101
G1 X148.043
G1 Y94.646
G1 X148.061Y94.65
G1 X148.331Y94.712
G1 X148.856Y94.875
G1 X149.354Y95.086
G1 X149.823Y95.339
G1 X150.261Y95.634
G1 X150.665Y95.965
G1 X151.035Y96.332
G1 X151.368Y96.73
G1 X151.662Y97.156
G1 X151.915Y97.607
G1 X152.126Y98.081
G1 X152.292Y98.574
G1 X152.412Y99.084
G1 X152.484Y99.606
G1 X152.506Y100.139
G1 X152.476Y100.678
G1 X152.391Y101.222
G1 X152.248Y101.774
G1 X152.054Y102.298
G1 X151.812Y102.793
G1 X151.526Y103.256
G1 X151.198Y103.685
G1 X150.833Y104.078
G1 X150.433Y104.433
G1 X150.001Y104.748
G1 X149.542Y105.02
G1 X149.058Y105.248
G1 X148.552Y105.428
G1 X148.029Y105.56
G1 X147.49Y105.64
G1 X146.94Y105.667
G1 X146.382Y105.638
G1 X145.819Y105.552
G1 X145.267Y105.409
G1 X144.743Y105.215
G1 X144.248Y104.973
G1 X143.785Y104.687
G1 X143.356Y104.359
G1 X142.963Y103.994
G1 X142.608Y103.594
G1 X142.293Y103.162
G1 X142.021Y102.703
G1 X141.793Y102.219
G1 X141.613Y101.713
G1 X141.481Y101.189
G1 X141.401Y100.651
G1 X141.374Y100.101
G1 X141.403Y99.543
G1 X141.489Y98.979
G1 X141.588Y98.576
; Layer C00 Pass 2 of 10
G1 X141.715Y98.184
G1 X141.87Y97.806
G1 X142.051Y97.443
G1 X142.257Y97.095
G1 X142.486Y96.765
G1 X142.738Y96.453
G1 X143.012Y96.16
G1 X143.306Y95.887
G1 X143.619Y95.636
G1 X143.95Y95.407
G1 X144.299Y95.203
G1 X144.663Y95.023
G1 X145.041Y94.87
G1 X145.433Y94.744
G1 X145.837Y94.646
G1 Y100.101
G1 X148.043
G1 Y94.646
G1 X148.061Y94.65
G1 X148.331Y94.712
G1 X148.856Y94.875
G1 X149.354Y95.086
G1 X149.823Y95.339
G1 X150.261Y95.634
G1 X150.665Y95.965
G1 X151.035Y96.332
G1 X151.368Y96.73
G1 X151.662Y97.156
G1 X151.915Y97.607
G1 X152.126Y98.081
G1 X152.292Y98.574
G1 X152.412Y99.084
G1 X152.484Y99.606
G1 X152.506Y100.139
G1 X152.476Y100.678
G1 X152.391Y101.222
G1 X152.248Y101.774
G1 X152.054Y102.298
G1 X151.812Y102.793
G1 X151.526Y103.256
G1 X151.198Y103.685
G1 X150.833Y104.078
G1 X150.433Y104.433
G1 X150.001Y104.748
G1 X149.542Y105.02
G1 X149.058Y105.248
G1 X148.552Y105.428
G1 X148.029Y105.56
G1 X147.49Y105.64
G1 X146.94Y105.667
G1 X146.382Y105.638
G1 X145.819Y105.552
G1 X145.267Y105.409
G1 X144.743Y105.215
G1 X144.248Y104.973
G1 X143.785Y104.687
G1 X143.356Y104.359
G1 X142.963Y103.994
G1 X142.608Y103.594
G1 X142.293Y103.162
G1 X142.021Y102.703
G1 X141.793Y102.219
G1 X141.613Y101.713
G1 X141.481Y101.189
G1 X141.401Y100.651
G1 X141.374Y100.101
G1 X141.403Y99.543
G1 X141.489Y98.979
G1 X141.588Y98.576
; Layer C00 Pass 3 of 10
G1 X141.715Y98.184
G1 X141.87Y97.806
G1 X142.051Y97.443
G1 X142.257Y97.095
G1 X142.486Y96.765
G1 X142.738Y96.453
G1 X143.012Y96.16
G1 X143.306Y95.887
G1 X143.619Y95.636
G1 X143.95Y95.407
G1 X144.299Y95.203
G1 X144.663Y95.023
G1 X145.041Y94.87
G1 X145.433Y94.744
G1 X145.837Y94.646
G1 Y100.101
G1 X148.043
G1 Y94.646
G1 X148.061Y94.65
G1 X148.331Y94.712
G1 X148.856Y94.875
G1 X149.354Y95.086
G1 X149.823Y95.339
G1 X150.261Y95.634
G1 X150.665Y95.965
G1 X151.035Y96.332
G1 X151.368Y96.73
G1 X151.662Y97.156
G1 X151.915Y97.607
G1 X152.126Y98.081
G1 X152.292Y98.574
G1 X152.412Y99.084
G1 X152.484Y99.606
G1 X152.506Y100.139
G1 X152.476Y100.678
G1 X152.391Y101.222
G1 X152.248Y101.774
G1 X152.054Y102.298
G1 X151.812Y102.793
G1 X151.526Y103.256
G1 X151.198Y103.685
G1 X150.833Y104.078
G1 X150.433Y104.433
G1 X150.001Y104.748
G1 X149.542Y105.02
G1 X149.058Y105.248
G1 X148.552Y105.428
G1 X148.029Y105.56
G1 X147.49Y105.64
G1 X146.94Y105.667
G1 X146.382Y105.638
G1 X145.819Y105.552
G1 X145.267Y105.409
G1 X144.743Y105.215
G1 X144.248Y104.973
G1 X143.785Y104.687
G1 X143.356Y104.359
G1 X142.963Y103.994
G1 X142.608Y103.594
G1 X142.293Y103.162
G1 X142.021Y102.703
G1 X141.793Y102.219
G1 X141.613Y101.713
G1 X141.481Y101.189
G1 X141.401Y100.651
G1 X141.374Y100.101
G1 X141.403Y99.543
G1 X141.489Y98.979
G1 X141.588Y98.576
; Layer C00 Pass 4 of 10
G1 X141.715Y98.184
G1 X141.87Y97.806
G1 X142.051Y97.443
G1 X142.257Y97.095
G1 X142.486Y96.765
G1 X142.738Y96.453
G1 X143.012Y96.16
G1 X143.306Y95.887
G1 X143.619Y95.636
G1 X143.95Y95.407
G1 X144.299Y95.203
G1 X144.663Y95.023
G1 X145.041Y94.87
G1 X145.433Y94.744
G1 X145.837Y94.646
G1 Y100.101
G1 X148.043
G1 Y94.646
G1 X148.061Y94.65
G1 X148.331Y94.712
G1 X148.856Y94.875
G1 X149.354Y95.086
G1 X149.823Y95.339
G1 X150.261Y95.634
G1 X150.665Y95.965
G1 X151.035Y96.332
G1 X151.368Y96.73
G1 X151.662Y97.156
G1 X151.915Y97.607
G1 X152.126Y98.081
G1 X152.292Y98.574
G1 X152.412Y99.084
G1 X152.484Y99.606
G1 X152.506Y100.139
G1 X152.476Y100.678
G1 X152.391Y101.222
G1 X152.248Y101.774
G1 X152.054Y102.298
G1 X151.812Y102.793
G1 X151.526Y103.256
G1 X151.198Y103.685
G1 X150.833Y104.078
G1 X150.433Y104.433
G1 X150.001Y104.748
G1 X149.542Y105.02
G1 X149.058Y105.248
G1 X148.552Y105.428
G1 X148.029Y105.56
G1 X147.49Y105.64
G1 X146.94Y105.667
G1 X146.382Y105.638
G1 X145.819Y105.552
G1 X145.267Y105.409
G1 X144.743Y105.215
G1 X144.248Y104.973
G1 X143.785Y104.687
G1 X143.356Y104.359
G1 X142.963Y103.994
G1 X142.608Y103.594
G1 X142.293Y103.162
G1 X142.021Y102.703
G1 X141.793Y102.219
G1 X141.613Y101.713
G1 X141.481Y101.189
G1 X141.401Y100.651
G1 X141.374Y100.101
G1 X141.403Y99.543
G1 X141.489Y98.979
G1 X141.588Y98.576
; Layer C00 Pass 5 of 10
G1 X141.715Y98.184
G1 X141.87Y97.806
G1 X142.051Y97.443
G1 X142.257Y97.095
G1 X142.486Y96.765
G1 X142.738Y96.453
G1 X143.012Y96.16
G1 X143.306Y95.887
G1 X143.619Y95.636
G1 X143.95Y95.407
G1 X144.299Y95.203
G1 X144.663Y95.023
G1 X145.041Y94.87
G1 X145.433Y94.744
G1 X145.837Y94.646
G1 Y100.101
G1 X148.043
G1 Y94.646
G1 X148.061Y94.65
G1 X148.331Y94.712
G1 X148.856Y94.875
G1 X149.354Y95.086
G1 X149.823Y95.339
G1 X150.261Y95.634
G1 X150.665Y95.965
G1 X151.035Y96.332
G1 X151.368Y96.73
G1 X151.662Y97.156
G1 X151.915Y97.607
G1 X152.126Y98.081
G1 X152.292Y98.574
G1 X152.412Y99.084
G1 X152.484Y99.606
G1 X152.506Y100.139
G1 X152.476Y100.678
G1 X152.391Y101.222
G1 X152.248Y101.774
G1 X152.054Y102.298
G1 X151.812Y102.793
G1 X151.526Y103.256
G1 X151.198Y103.685
G1 X150.833Y104.078
G1 X150.433Y104.433
G1 X150.001Y104.748
G1 X149.542Y105.02
G1 X149.058Y105.248
G1 X148.552Y105.428
G1 X148.029Y105.56
G1 X147.49Y105.64
G1 X146.94Y105.667
G1 X146.382Y105.638
G1 X145.819Y105.552
G1 X145.267Y105.409
G1 X144.743Y105.215
G1 X144.248Y104.973
G1 X143.785Y104.687
G1 X143.356Y104.359
G1 X142.963Y103.994
G1 X142.608Y103.594
G1 X142.293Y103.162
G1 X142.021Y102.703
G1 X141.793Y102.219
G1 X141.613Y101.713
G1 X141.481Y101.189
G1 X141.401Y100.651
G1 X141.374Y100.101
G1 X141.403Y99.543
G1 X141.489Y98.979
G1 X141.588Y98.576
; Layer C00 Pass 6 of 10
G1 X141.715Y98.184
G1 X141.87Y97.806
G1 X142.051Y97.443
G1 X142.257Y97.095
G1 X142.486Y96.765
G1 X142.738Y96.453
G1 X143.012Y96.16
G1 X143.306Y95.887
G1 X143.619Y95.636
G1 X143.95Y95.407
G1 X144.299Y95.203
G1 X144.663Y95.023
G1 X145.041Y94.87
G1 X145.433Y94.744
G1 X145.837Y94.646
G1 Y100.101
G1 X148.043
G1 Y94.646
G1 X148.061Y94.65
G1 X148.331Y94.712
G1 X148.856Y94.875
G1 X149.354Y95.086
G1 X149.823Y95.339
G1 X150.261Y95.634
G1 X150.665Y95.965
G1 X151.035Y96.332
G1 X151.368Y96.73
G1 X151.662Y97.156
G1 X151.915Y97.607
G1 X152.126Y98.081
G1 X152.292Y98.574
G1 X152.412Y99.084
G1 X152.484Y99.606
G1 X152.506Y100.139
G1 X152.476Y100.678
G1 X152.391Y101.222
G1 X152.248Y101.774
G1 X152.054Y102.298
G1 X151.812Y102.793
G1 X151.526Y103.256
G1 X151.198Y103.685
G1 X150.833Y104.078
G1 X150.433Y104.433
G1 X150.001Y104.748
G1 X149.542Y105.02
G1 X149.058Y105.248
G1 X148.552Y105.428
G1 X148.029Y105.56
G1 X147.49Y105.64
G1 X146.94Y105.667
G1 X146.382Y105.638
G1 X145.819Y105.552
G1 X145.267Y105.409
G1 X144.743Y105.215
G1 X144.248Y104.973
G1 X143.785Y104.687
G1 X143.356Y104.359
G1 X142.963Y103.994
G1 X142.608Y103.594
G1 X142.293Y103.162
G1 X142.021Y102.703
G1 X141.793Y102.219
G1 X141.613Y101.713
G1 X141.481Y101.189
G1 X141.401Y100.651
G1 X141.374Y100.101
G1 X141.403Y99.543
G1 X141.489Y98.979
G1 X141.588Y98.576
; Layer C00 Pass 7 of 10
G1 X141.715Y98.184
G1 X141.87Y97.806
G1 X142.051Y97.443
G1 X142.257Y97.095
G1 X142.486Y96.765
G1 X142.738Y96.453
G1 X143.012Y96.16
G1 X143.306Y95.887
G1 X143.619Y95.636
G1 X143.95Y95.407
G1 X144.299Y95.203
G1 X144.663Y95.023
G1 X145.041Y94.87
G1 X145.433Y94.744
G1 X145.837Y94.646
G1 Y100.101
G1 X148.043
G1 Y94.646
G1 X148.061Y94.65
G1 X148.331Y94.712
G1 X148.856Y94.875
G1 X149.354Y95.086
G1 X149.823Y95.339
G1 X150.261Y95.634
G1 X150.665Y95.965
G1 X151.035Y96.332
G1 X151.368Y96.73
G1 X151.662Y97.156
G1 X151.915Y97.607
G1 X152.126Y98.081
G1 X152.292Y98.574
G1 X152.412Y99.084
G1 X152.484Y99.606
G1 X152.506Y100.139
G1 X152.476Y100.678
G1 X152.391Y101.222
G1 X152.248Y101.774
G1 X152.054Y102.298
G1 X151.812Y102.793
G1 X151.526Y103.256
G1 X151.198Y103.685
G1 X150.833Y104.078
G1 X150.433Y104.433
G1 X150.001Y104.748
G1 X149.542Y105.02
G1 X149.058Y105.248
G1 X148.552Y105.428
G1 X148.029Y105.56
G1 X147.49Y105.64
G1 X146.94Y105.667
G1 X146.382Y105.638
G1 X145.819Y105.552
G1 X145.267Y105.409
G1 X144.743Y105.215
G1 X144.248Y104.973
G1 X143.785Y104.687
G1 X143.356Y104.359
G1 X142.963Y103.994
G1 X142.608Y103.594
G1 X142.293Y103.162
G1 X142.021Y102.703
G1 X141.793Y102.219
G1 X141.613Y101.713
G1 X141.481Y101.189
G1 X141.401Y100.651
G1 X141.374Y100.101
G1 X141.403Y99.543
G1 X141.489Y98.979
G1 X141.588Y98.576
; Layer C00 Pass 8 of 10
G1 X141.715Y98.184
G1 X141.87Y97.806
G1 X142.051Y97.443
G1 X142.257Y97.095
G1 X142.486Y96.765
G1 X142.738Y96.453
G1 X143.012Y96.16
G1 X143.306Y95.887
G1 X143.619Y95.636
G1 X143.95Y95.407
G1 X144.299Y95.203
G1 X144.663Y95.023
G1 X145.041Y94.87
G1 X145.433Y94.744
G1 X145.837Y94.646
G1 Y100.101
G1 X148.043
G1 Y94.646
G1 X148.061Y94.65
G1 X148.331Y94.712
G1 X148.856Y94.875
G1 X149.354Y95.086
G1 X149.823Y95.339
G1 X150.261Y95.634
G1 X150.665Y95.965
G1 X151.035Y96.332
G1 X151.368Y96.73
G1 X151.662Y97.156
G1 X151.915Y97.607
G1 X152.126Y98.081
G1 X152.292Y98.574
G1 X152.412Y99.084
G1 X152.484Y99.606
G1 X152.506Y100.139
G1 X152.476Y100.678
G1 X152.391Y101.222
G1 X152.248Y101.774
G1 X152.054Y102.298
G1 X151.812Y102.793
G1 X151.526Y103.256
G1 X151.198Y103.685
G1 X150.833Y104.078
G1 X150.433Y104.433
G1 X150.001Y104.748
G1 X149.542Y105.02
G1 X149.058Y105.248
G1 X148.552Y105.428
G1 X148.029Y105.56
G1 X147.49Y105.64
G1 X146.94Y105.667
G1 X146.382Y105.638
G1 X145.819Y105.552
G1 X145.267Y105.409
G1 X144.743Y105.215
G1 X144.248Y104.973
G1 X143.785Y104.687
G1 X143.356Y104.359
G1 X142.963Y103.994
G1 X142.608Y103.594
G1 X142.293Y103.162
G1 X142.021Y102.703
G1 X141.793Y102.219
G1 X141.613Y101.713
G1 X141.481Y101.189
G1 X141.401Y100.651
G1 X141.374Y100.101
G1 X141.403Y99.543
G1 X141.489Y98.979
G1 X141.588Y98.576
; Layer C00 Pass 9 of 10
G1 X141.715Y98.184
G1 X141.87Y97.806
G1 X142.051Y97.443
G1 X142.257Y97.095
G1 X142.486Y96.765
G1 X142.738Y96.453
G1 X143.012Y96.16
G1 X143.306Y95.887
G1 X143.619Y95.636
G1 X143.95Y95.407
G1 X144.299Y95.203
G1 X144.663Y95.023
G1 X145.041Y94.87
G1 X145.433Y94.744
G1 X145.837Y94.646
G1 Y100.101
G1 X148.043
G1 Y94.646
G1 X148.061Y94.65
G1 X148.331Y94.712
G1 X148.856Y94.875
G1 X149.354Y95.086
G1 X149.823Y95.339
G1 X150.261Y95.634
G1 X150.665Y95.965
G1 X151.035Y96.332
G1 X151.368Y96.73
G1 X151.662Y97.156
G1 X151.915Y97.607
G1 X152.126Y98.081
G1 X152.292Y98.574
G1 X152.412Y99.084
G1 X152.484Y99.606
G1 X152.506Y100.139
G1 X152.476Y100.678
G1 X152.391Y101.222
G1 X152.248Y101.774
G1 X152.054Y102.298
G1 X151.812Y102.793
G1 X151.526Y103.256
G1 X151.198Y103.685
G1 X150.833Y104.078
G1 X150.433Y104.433
G1 X150.001Y104.748
G1 X149.542Y105.02
G1 X149.058Y105.248
G1 X148.552Y105.428
G1 X148.029Y105.56
G1 X147.49Y105.64
G1 X146.94Y105.667
G1 X146.382Y105.638
G1 X145.819Y105.552
G1 X145.267Y105.409
G1 X144.743Y105.215
G1 X144.248Y104.973
G1 X143.785Y104.687
G1 X143.356Y104.359
G1 X142.963Y103.994
G1 X142.608Y103.594
G1 X142.293Y103.162
G1 X142.021Y102.703
G1 X141.793Y102.219
G1 X141.613Y101.713
G1 X141.481Y101.189
G1 X141.401Y100.651
G1 X141.374Y100.101
G1 X141.403Y99.543
G1 X141.489Y98.979
G1 X141.588Y98.576
; Layer C00 Pass 10 of 10
G1 X141.715Y98.184
G1 X141.87Y97.806
G1 X142.051Y97.443
G1 X142.257Y97.095
G1 X142.486Y96.765
G1 X142.738Y96.453
G1 X143.012Y96.16
G1 X143.306Y95.887
G1 X143.619Y95.636
G1 X143.95Y95.407
G1 X144.299Y95.203
G1 X144.663Y95.023
G1 X145.041Y94.87
G1 X145.433Y94.744
G1 X145.837Y94.646
G1 Y100.101
G1 X148.043
G1 Y94.646
G1 X148.061Y94.65
G1 X148.331Y94.712
G1 X148.856Y94.875
G1 X149.354Y95.086
G1 X149.823Y95.339
G1 X150.261Y95.634
G1 X150.665Y95.965
G1 X151.035Y96.332
G1 X151.368Y96.73
G1 X151.662Y97.156
G1 X151.915Y97.607
G1 X152.126Y98.081
G1 X152.292Y98.574
G1 X152.412Y99.084
G1 X152.484Y99.606
G1 X152.506Y100.139
G1 X152.476Y100.678
G1 X152.391Y101.222
G1 X152.248Y101.774
G1 X152.054Y102.298
G1 X151.812Y102.793
G1 X151.526Y103.256
G1 X151.198Y103.685
G1 X150.833Y104.078
G1 X150.433Y104.433
G1 X150.001Y104.748
G1 X149.542Y105.02
G1 X149.058Y105.248
G1 X148.552Y105.428
G1 X148.029Y105.56
G1 X147.49Y105.64
G1 X146.94Y105.667
G1 X146.382Y105.638
G1 X145.819Y105.552
G1 X145.267Y105.409
G1 X144.743Y105.215
G1 X144.248Y104.973
G1 X143.785Y104.687
G1 X143.356Y104.359
G1 X142.963Y103.994
G1 X142.608Y103.594
G1 X142.293Y103.162
G1 X142.021Y102.703
G1 X141.793Y102.219
G1 X141.613Y101.713
G1 X141.481Y101.189
G1 X141.401Y100.651
G1 X141.374Y100.101
G1 X141.403Y99.543
G1 X141.489Y98.979
G1 X141.588Y98.576
G0 X153.403Y99.543
; Layer C00 Pass 1 of 10
G1 X153.489Y98.979
G1 X153.588Y98.576
G1 X153.715Y98.184
G1 X153.87Y97.806
G1 X154.051Y97.443
G1 X154.257Y97.095
G1 X154.486Y96.765
G1 X154.738Y96.453
G1 X155.012Y96.16
G1 X155.306Y95.887
G1 X155.619Y95.636
G1 X155.95Y95.407
G1 X156.299Y95.203
G1 X156.663Y95.023
G1 X157.041Y94.87
G1 X157.433Y94.744
G1 X157.837Y94.646
G1 Y100.101
G1 X160.043
G1 Y94.646
G1 X160.061Y94.65
G1 X160.331Y94.712
G1 X160.856Y94.875
G1 X161.354Y95.086
G1 X161.823Y95.339
G1 X162.261Y95.634
G1 X162.665Y95.965
G1 X163.035Y96.332
G1 X163.368Y96.73
G1 X163.662Y97.156
G1 X163.915Y97.607
G1 X164.126Y98.081
G1 X164.292Y98.574
G1 X164.412Y99.084
G1 X164.484Y99.606
G1 X164.506Y100.139
G1 X164.476Y100.678
G1 X164.391Y101.222
G1 X164.248Y101.774
G1 X164.054Y102.298
G1 X163.812Y102.793
G1 X163.526Y103.256
G1 X163.198Y103.685
G1 X162.833Y104.078
G1 X162.433Y104.433
G1 X162.001Y104.748
G1 X161.542Y105.02
G1 X161.058Y105.248
G1 X160.552Y105.428
G1 X160.029Y105.56
G1 X159.49Y105.64
G1 X158.94Y105.667
G1 X158.382Y105.638
G1 X157.819Y105.552
G1 X157.267Y105.409
G1 X156.743Y105.215
G1 X156.248Y104.973
G1 X155.785Y104.687
G1 X155.356Y104.359
G1 X154.963Y103.994
G1 X154.608Y103.594
G1 X154.293Y103.162
G1 X154.021Y102.703
G1 X153.793Y102.219
G1 X153.613Y101.713
G1 X153.481Y101.189
G1 X153.401Y100.651
G1 X153.374Y100.101
G1 X153.403Y99.543
; Layer C00 Pass 2 of 10
G1 X153.489Y98.979
G1 X153.588Y98.576
G1 X153.715Y98.184
G1 X153.87Y97.806
G1 X154.051Y97.443
G1 X154.257Y97.095
G1 X154.486Y96.765
G1 X154.738Y96.453
G1 X155.012Y96.16
G1 X155.306Y95.887
G1 X155.619Y95.636
G1 X155.95Y95.407
G1 X156.299Y95.203
G1 X156.663Y95.023
G1 X157.041Y94.87
G1 X157.433Y94.744
G1 X157.837Y94.646
G1 Y100.101
G1 X160.043
G1 Y94.646
G1 X160.061Y94.65
G1 X160.331Y94.712
G1 X160.856Y94.875
G1 X161.354Y95.086
G1 X161.823Y95.339
G1 X162.261Y95.634
G1 X162.665Y95.965
G1 X163.035Y96.332
G1 X163.368Y96.73
G1 X163.662Y97.156
G1 X163.915Y97.607
G1 X164.126Y98.081
G1 X164.292Y98.574
G1 X164.412Y99.084
G1 X164.484Y99.606
G1 X164.506Y100.139
G1 X164.476Y100.678
G1 X164.391Y101.222
G1 X164.248Y101.774
G1 X164.054Y102.298
G1 X163.812Y102.793
G1 X163.526Y103.256
G1 X163.198Y103.685
G1 X162.833Y104.078
G1 X162.433Y104.433
G1 X162.001Y104.748
G1 X161.542Y105.02
G1 X161.058Y105.248
G1 X160.552Y105.428
G1 X160.029Y105.56
G1 X159.49Y105.64
G1 X158.94Y105.667
G1 X158.382Y105.638
G1 X157.819Y105.552
G1 X157.267Y105.409
G1 X156.743Y105.215
G1 X156.248Y104.973
G1 X155.785Y104.687
G1 X155.356Y104.359
G1 X154.963Y103.994
G1 X154.608Y103.594
G1 X154.293Y103.162
G1 X154.021Y102.703
G1 X153.793Y102.219
G1 X153.613Y101.713
G1 X153.481Y101.189
G1 X153.401Y100.651
G1 X153.374Y100.101
G1 X153.403Y99.543
; Layer C00 Pass 3 of 10
G1 X153.489Y98.979
G1 X153.588Y98.576
G1 X153.715Y98.184
G1 X153.87Y97.806
G1 X154.051Y97.443
G1 X154.257Y97.095
G1 X154.486Y96.765
G1 X154.738Y96.453
G1 X155.012Y96.16
G1 X155.306Y95.887
G1 X155.619Y95.636
G1 X155.95Y95.407
G1 X156.299Y95.203
G1 X156.663Y95.023
G1 X157.041Y94.87
G1 X157.433Y94.744
G1 X157.837Y94.646
G1 Y100.101
G1 X160.043
G1 Y94.646
G1 X160.061Y94.65
G1 X160.331Y94.712
G1 X160.856Y94.875
G1 X161.354Y95.086
G1 X161.823Y95.339
G1 X162.261Y95.634
G1 X162.665Y95.965
G1 X163.035Y96.332
G1 X163.368Y96.73
G1 X163.662Y97.156
G1 X163.915Y97.607
G1 X164.126Y98.081
G1 X164.292Y98.574
G1 X164.412Y99.084
G1 X164.484Y99.606
G1 X164.506Y100.139
G1 X164.476Y100.678
G1 X164.391Y101.222
G1 X164.248Y101.774
G1 X164.054Y102.298
G1 X163.812Y102.793
G1 X163.526Y103.256
G1 X163.198Y103.685
G1 X162.833Y104.078
G1 X162.433Y104.433
G1 X162.001Y104.748
G1 X161.542Y105.02
G1 X161.058Y105.248
G1 X160.552Y105.428
G1 X160.029Y105.56
G1 X159.49Y105.64
G1 X158.94Y105.667
G1 X158.382Y105.638
G1 X157.819Y105.552
G1 X157.267Y105.409
G1 X156.743Y105.215
G1 X156.248Y104.973
G1 X155.785Y104.687
G1 X155.356Y104.359
G1 X154.963Y103.994
G1 X154.608Y103.594
G1 X154.293Y103.162
G1 X154.021Y102.703
G1 X153.793Y102.219
G1 X153.613Y101.713
G1 X153.481Y101.189
G1 X153.401Y100.651
G1 X153.374Y100.101
G1 X153.403Y99.543
; Layer C00 Pass 4 of 10
G1 X153.489Y98.979
G1 X153.588Y98.576
G1 X153.715Y98.184
G1 X153.87Y97.806
G1 X154.051Y97.443
G1 X154.257Y97.095
G1 X154.486Y96.765
G1 X154.738Y96.453
G1 X155.012Y96.16
G1 X155.306Y95.887
G1 X155.619Y95.636
G1 X155.95Y95.407
G1 X156.299Y95.203
G1 X156.663Y95.023
G1 X157.041Y94.87
G1 X157.433Y94.744
G1 X157.837Y94.646
G1 Y100.101
G1 X160.043
G1 Y94.646
G1 X160.061Y94.65
G1 X160.331Y94.712
G1 X160.856Y94.875
G1 X161.354Y95.086
G1 X161.823Y95.339
G1 X162.261Y95.634
G1 X162.665Y95.965
G1 X163.035Y96.332
G1 X163.368Y96.73
G1 X163.662Y97.156
G1 X163.915Y97.607
G1 X164.126Y98.081
G1 X164.292Y98.574
G1 X164.412Y99.084
G1 X164.484Y99.606
G1 X164.506Y100.139
G1 X164.476Y100.678
G1 X164.391Y101.222
G1 X164.248Y101.774
G1 X164.054Y102.298
G1 X163.812Y102.793
G1 X163.526Y103.256
G1 X163.198Y103.685
G1 X162.833Y104.078
G1 X162.433Y104.433
G1 X162.001Y104.748
G1 X161.542Y105.02
G1 X161.058Y105.248
G1 X160.552Y105.428
G1 X160.029Y105.56
G1 X159.49Y105.64
G1 X158.94Y105.667
G1 X158.382Y105.638
G1 X157.819Y105.552
G1 X157.267Y105.409
G1 X156.743Y105.215
G1 X156.248Y104.973
G1 X155.785Y104.687
G1 X155.356Y104.359
G1 X154.963Y103.994
G1 X154.608Y103.594
G1 X154.293Y103.162
G1 X154.021Y102.703
G1 X153.793Y102.219
G1 X153.613Y101.713
G1 X153.481Y101.189
G1 X153.401Y100.651
G1 X153.374Y100.101
G1 X153.403Y99.543
; Layer C00 Pass 5 of 10
G1 X153.489Y98.979
G1 X153.588Y98.576
G1 X153.715Y98.184
G1 X153.87Y97.806
G1 X154.051Y97.443
G1 X154.257Y97.095
G1 X154.486Y96.765
G1 X154.738Y96.453
G1 X155.012Y96.16
G1 X155.306Y95.887
G1 X155.619Y95.636
G1 X155.95Y95.407
G1 X156.299Y95.203
G1 X156.663Y95.023
G1 X157.041Y94.87
G1 X157.433Y94.744
G1 X157.837Y94.646
G1 Y100.101
G1 X160.043
G1 Y94.646
G1 X160.061Y94.65
G1 X160.331Y94.712
G1 X160.856Y94.875
G1 X161.354Y95.086
G1 X161.823Y95.339
G1 X162.261Y95.634
G1 X162.665Y95.965
G1 X163.035Y96.332
G1 X163.368Y96.73
G1 X163.662Y97.156
G1 X163.915Y97.607
G1 X164.126Y98.081
G1 X164.292Y98.574
G1 X164.412Y99.084
G1 X164.484Y99.606
G1 X164.506Y100.139
G1 X164.476Y100.678
G1 X164.391Y101.222
G1 X164.248Y101.774
G1 X164.054Y102.298
G1 X163.812Y102.793
G1 X163.526Y103.256
G1 X163.198Y103.685
G1 X162.833Y104.078
G1 X162.433Y104.433
G1 X162.001Y104.748
G1 X161.542Y105.02
G1 X161.058Y105.248
G1 X160.552Y105.428
G1 X160.029Y105.56
G1 X159.49Y105.64
G1 X158.94Y105.667
G1 X158.382Y105.638
G1 X157.819Y105.552
G1 X157.267Y105.409
G1 X156.743Y105.215
G1 X156.248Y104.973
G1 X155.785Y104.687
G1 X155.356Y104.359
G1 X154.963Y103.994
G1 X154.608Y103.594
G1 X154.293Y103.162
G1 X154.021Y102.703
G1 X153.793Y102.219
G1 X153.613Y101.713
G1 X153.481Y101.189
G1 X153.401Y100.651
G1 X153.374Y100.101
G1 X153.403Y99.543
; Layer C00 Pass 6 of 10
G1 X153.489Y98.979
G1 X153.588Y98.576
G1 X153.715Y98.184
G1 X153.87Y97.806
G1 X154.051Y97.443
G1 X154.257Y97.095
G1 X154.486Y96.765
G1 X154.738Y96.453
G1 X155.012Y96.16
G1 X155.306Y95.887
G1 X155.619Y95.636
G1 X155.95Y95.407
G1 X156.299Y95.203
G1 X156.663Y95.023
G1 X157.041Y94.87
G1 X157.433Y94.744
G1 X157.837Y94.646
G1 Y100.101
G1 X160.043
G1 Y94.646
G1 X160.061Y94.65
G1 X160.331Y94.712
G1 X160.856Y94.875
G1 X161.354Y95.086
G1 X161.823Y95.339
G1 X162.261Y95.634
G1 X162.665Y95.965
G1 X163.035Y96.332
G1 X163.368Y96.73
G1 X163.662Y97.156
G1 X163.915Y97.607
G1 X164.126Y98.081
G1 X164.292Y98.574
G1 X164.412Y99.084
G1 X164.484Y99.606
G1 X164.506Y100.139
G1 X164.476Y100.678
G1 X164.391Y101.222
G1 X164.248Y101.774
G1 X164.054Y102.298
G1 X163.812Y102.793
G1 X163.526Y103.256
G1 X163.198Y103.685
G1 X162.833Y104.078
G1 X162.433Y104.433
G1 X162.001Y104.748
G1 X161.542Y105.02
G1 X161.058Y105.248
G1 X160.552Y105.428
G1 X160.029Y105.56
G1 X159.49Y105.64
G1 X158.94Y105.667
G1 X158.382Y105.638
G1 X157.819Y105.552
G1 X157.267Y105.409
G1 X156.743Y105.215
G1 X156.248Y104.973
G1 X155.785Y104.687
G1 X155.356Y104.359
G1 X154.963Y103.994
G1 X154.608Y103.594
G1 X154.293Y103.162
G1 X154.021Y102.703
G1 X153.793Y102.219
G1 X153.613Y101.713
G1 X153.481Y101.189
G1 X153.401Y100.651
G1 X153.374Y100.101
G1 X153.403Y99.543
; Layer C00 Pass 7 of 10
G1 X153.489Y98.979
G1 X153.588Y98.576
G1 X153.715Y98.184
G1 X153.87Y97.806
G1 X154.051Y97.443
G1 X154.257Y97.095
G1 X154.486Y96.765
G1 X154.738Y96.453
G1 X155.012Y96.16
G1 X155.306Y95.887
G1 X155.619Y95.636
G1 X155.95Y95.407
G1 X156.299Y95.203
G1 X156.663Y95.023
G1 X157.041Y94.87
G1 X157.433Y94.744
G1 X157.837Y94.646
G1 Y100.101
G1 X160.043
G1 Y94.646
G1 X160.061Y94.65
G1 X160.331Y94.712
G1 X160.856Y94.875
G1 X161.354Y95.086
G1 X161.823Y95.339
G1 X162.261Y95.634
G1 X162.665Y95.965
G1 X163.035Y96.332
G1 X163.368Y96.73
G1 X163.662Y97.156
G1 X163.915Y97.607
G1 X164.126Y98.081
G1 X164.292Y98.574
G1 X164.412Y99.084
G1 X164.484Y99.606
G1 X164.506Y100.139
G1 X164.476Y100.678
G1 X164.391Y101.222
G1 X164.248Y101.774
G1 X164.054Y102.298
G1 X163.812Y102.793
G1 X163.526Y103.256
G1 X163.198Y103.685
G1 X162.833Y104.078
G1 X162.433Y104.433
G1 X162.001Y104.748
G1 X161.542Y105.02
G1 X161.058Y105.248
G1 X160.552Y105.428
G1 X160.029Y105.56
G1 X159.49Y105.64
G1 X158.94Y105.667
G1 X158.382Y105.638
G1 X157.819Y105.552
G1 X157.267Y105.409
G1 X156.743Y105.215
G1 X156.248Y104.973
G1 X155.785Y104.687
G1 X155.356Y104.359
G1 X154.963Y103.994
G1 X154.608Y103.594
G1 X154.293Y103.162
G1 X154.021Y102.703
G1 X153.793Y102.219
G1 X153.613Y101.713
G1 X153.481Y101.189
G1 X153.401Y100.651
G1 X153.374Y100.101
G1 X153.403Y99.543
; Layer C00 Pass 8 of 10
G1 X153.489Y98.979
G1 X153.588Y98.576
G1 X153.715Y98.184
G1 X153.87Y97.806
G1 X154.051Y97.443
G1 X154.257Y97.095
G1 X154.486Y96.765
G1 X154.738Y96.453
G1 X155.012Y96.16
G1 X155.306Y95.887
G1 X155.619Y95.636
G1 X155.95Y95.407
G1 X156.299Y95.203
G1 X156.663Y95.023
G1 X157.041Y94.87
G1 X157.433Y94.744
G1 X157.837Y94.646
G1 Y100.101
G1 X160.043
G1 Y94.646
G1 X160.061Y94.65
G1 X160.331Y94.712
G1 X160.856Y94.875
G1 X161.354Y95.086
G1 X161.823Y95.339
G1 X162.261Y95.634
G1 X162.665Y95.965
G1 X163.035Y96.332
G1 X163.368Y96.73
G1 X163.662Y97.156
G1 X163.915Y97.607
G1 X164.126Y98.081
G1 X164.292Y98.574
G1 X164.412Y99.084
G1 X164.484Y99.606
G1 X164.506Y100.139
G1 X164.476Y100.678
G1 X164.391Y101.222
G1 X164.248Y101.774
G1 X164.054Y102.298
G1 X163.812Y102.793
G1 X163.526Y103.256
G1 X163.198Y103.685
G1 X162.833Y104.078
G1 X162.433Y104.433
G1 X162.001Y104.748
G1 X161.542Y105.02
G1 X161.058Y105.248
G1 X160.552Y105.428
G1 X160.029Y105.56
G1 X159.49Y105.64
G1 X158.94Y105.667
G1 X158.382Y105.638
G1 X157.819Y105.552
G1 X157.267Y105.409
G1 X156.743Y105.215
G1 X156.248Y104.973
G1 X155.785Y104.687
G1 X155.356Y104.359
G1 X154.963Y103.994
G1 X154.608Y103.594
G1 X154.293Y103.162
G1 X154.021Y102.703
G1 X153.793Y102.219
G1 X153.613Y101.713
G1 X153.481Y101.189
G1 X153.401Y100.651
G1 X153.374Y100.101
G1 X153.403Y99.543
; Layer C00 Pass 9 of 10
G1 X153.489Y98.979
G1 X153.588Y98.576
G1 X153.715Y98.184
G1 X153.87Y97.806
G1 X154.051Y97.443
G1 X154.257Y97.095
G1 X154.486Y96.765
G1 X154.738Y96.453
G1 X155.012Y96.16
G1 X155.306Y95.887
G1 X155.619Y95.636
G1 X155.95Y95.407
G1 X156.299Y95.203
G1 X156.663Y95.023
G1 X157.041Y94.87
G1 X157.433Y94.744
G1 X157.837Y94.646
G1 Y100.101
G1 X160.043
G1 Y94.646
G1 X160.061Y94.65
G1 X160.331Y94.712
G1 X160.856Y94.875
G1 X161.354Y95.086
G1 X161.823Y95.339
G1 X162.261Y95.634
G1 X162.665Y95.965
G1 X163.035Y96.332
G1 X163.368Y96.73
G1 X163.662Y97.156
G1 X163.915Y97.607
G1 X164.126Y98.081
G1 X164.292Y98.574
G1 X164.412Y99.084
G1 X164.484Y99.606
G1 X164.506Y100.139
G1 X164.476Y100.678
G1 X164.391Y101.222
G1 X164.248Y101.774
G1 X164.054Y102.298
G1 X163.812Y102.793
G1 X163.526Y103.256
G1 X163.198Y103.685
G1 X162.833Y104.078
G1 X162.433Y104.433
G1 X162.001Y104.748
G1 X161.542Y105.02
G1 X161.058Y105.248
G1 X160.552Y105.428
G1 X160.029Y105.56
G1 X159.49Y105.64
G1 X158.94Y105.667
G1 X158.382Y105.638
G1 X157.819Y105.552
G1 X157.267Y105.409
G1 X156.743Y105.215
G1 X156.248Y104.973
G1 X155.785Y104.687
G1 X155.356Y104.359
G1 X154.963Y103.994
G1 X154.608Y103.594
G1 X154.293Y103.162
G1 X154.021Y102.703
G1 X153.793Y102.219
G1 X153.613Y101.713
G1 X153.481Y101.189
G1 X153.401Y100.651
G1 X153.374Y100.101
G1 X153.403Y99.543
; Layer C00 Pass 10 of 10
G1 X153.489Y98.979
G1 X153.588Y98.576
G1 X153.715Y98.184
G1 X153.87Y97.806
G1 X154.051Y97.443
G1 X154.257Y97.095
G1 X154.486Y96.765
G1 X154.738Y96.453
G1 X155.012Y96.16
G1 X155.306Y95.887
G1 X155.619Y95.636
G1 X155.95Y95.407
G1 X156.299Y95.203
G1 X156.663Y95.023
G1 X157.041Y94.87
G1 X157.433Y94.744
G1 X157.837Y94.646
G1 Y100.101
G1 X160.043
G1 Y94.646
G1 X160.061Y94.65
G1 X160.331Y94.712
G1 X160.856Y94.875
G1 X161.354Y95.086
G1 X161.823Y95.339
G1 X162.261Y95.634
G1 X162.665Y95.965
G1 X163.035Y96.332
G1 X163.368Y96.73
G1 X163.662Y97.156
G1 X163.915Y97.607
G1 X164.126Y98.081
G1 X164.292Y98.574
G1 X164.412Y99.084
G1 X164.484Y99.606
G1 X164.506Y100.139
G1 X164.476Y100.678
G1 X164.391Y101.222
G1 X164.248Y101.774
G1 X164.054Y102.298
G1 X163.812Y102.793
G1 X163.526Y103.256
G1 X163.198Y103.685
G1 X162.833Y104.078
G1 X162.433Y104.433
G1 X162.001Y104.748
G1 X161.542Y105.02
G1 X161.058Y105.248
G1 X160.552Y105.428
G1 X160.029Y105.56
G1 X159.49Y105.64
G1 X158.94Y105.667
G1 X158.382Y105.638
G1 X157.819Y105.552
G1 X157.267Y105.409
G1 X156.743Y105.215
G1 X156.248Y104.973
G1 X155.785Y104.687
G1 X155.356Y104.359
G1 X154.963Y103.994
G1 X154.608Y103.594
G1 X154.293Y103.162
G1 X154.021Y102.703
G1 X153.793Y102.219
G1 X153.613Y101.713
G1 X153.481Y101.189
G1 X153.401Y100.651
G1 X153.374Y100.101
G1 X153.403Y99.543
G0 X165.403Y99.543
; Layer C00 Pass 1 of 10
G1 X165.489Y98.98
G1 X165.588Y98.576
G1 X165.715Y98.184
G1 X165.87Y97.806
G1 X166.051Y97.443
G1 X166.257Y97.095
G1 X166.486Y96.765
G1 X166.738Y96.453
G1 X167.012Y96.16
G1 X167.306Y95.887
G1 X167.619Y95.636
G1 X167.95Y95.407
G1 X168.299Y95.203
G1 X168.663Y95.023
G1 X169.041Y94.87
G1 X169.433Y94.744
G1 X169.837Y94.646
G1 Y100.101
G1 X172.043
G1 Y94.646
G1 X172.061Y94.65
G1 X172.331Y94.712
G1 X172.856Y94.875
G1 X173.354Y95.086
G1 X173.823Y95.339
G1 X174.261Y95.634
G1 X174.665Y95.965
G1 X175.035Y96.332
G1 X175.368Y96.73
G1 X175.662Y97.156
G1 X175.915Y97.607
G1 X176.126Y98.081
G1 X176.292Y98.574
G1 X176.412Y99.084
G1 X176.484Y99.606
G1 X176.506Y100.139
G1 X176.476Y100.678
G1 X176.391Y101.222
G1 X176.248Y101.774
G1 X176.054Y102.298
G1 X175.812Y102.793
G1 X175.526Y103.256
G1 X175.198Y103.685
G1 X174.833Y104.078
G1 X174.433Y104.433
G1 X174.001Y104.748
G1 X173.542Y105.02
G1 X173.058Y105.248
G1 X172.552Y105.428
G1 X172.029Y105.56
G1 X171.49Y105.64
G1 X170.94Y105.667
G1 X170.382Y105.638
G1 X169.819Y105.552
G1 X169.267Y105.409
G1 X168.743Y105.215
G1 X168.248Y104.973
G1 X167.785Y104.687
G1 X167.356Y104.359
G1 X166.963Y103.994
G1 X166.608Y103.594
G1 X166.293Y103.162
G1 X166.021Y102.703
G1 X165.793Y102.219
G1 X165.613Y101.713
G1 X165.481Y101.189
G1 X165.401Y100.651
G1 X165.374Y100.101
G1 X165.403Y99.543
; Layer C00 Pass 2 of 10
G1 X165.489Y98.98
G1 X165.588Y98.576
G1 X165.715Y98.184
G1 X165.87Y97.806
G1 X166.051Y97.443
G1 X166.257Y97.095
G1 X166.486Y96.765
G1 X166.738Y96.453
G1 X167.012Y96.16
G1 X167.306Y95.887
G1 X167.619Y95.636
G1 X167.95Y95.407
G1 X168.299Y95.203
G1 X168.663Y95.023
G1 X169.041Y94.87
G1 X169.433Y94.744
G1 X169.837Y94.646
G1 Y100.101
G1 X172.043
G1 Y94.646
G1 X172.061Y94.65
G1 X172.331Y94.712
G1 X172.856Y94.875
G1 X173.354Y95.086
G1 X173.823Y95.339
G1 X174.261Y95.634
G1 X174.665Y95.965
G1 X175.035Y96.332
G1 X175.368Y96.73
G1 X175.662Y97.156
G1 X175.915Y97.607
G1 X176.126Y98.081
G1 X176.292Y98.574
G1 X176.412Y99.084
G1 X176.484Y99.606
G1 X176.506Y100.139
G1 X176.476Y100.678
G1 X176.391Y101.222
G1 X176.248Y101.774
G1 X176.054Y102.298
G1 X175.812Y102.793
G1 X175.526Y103.256
G1 X175.198Y103.685
G1 X174.833Y104.078
G1 X174.433Y104.433
G1 X174.001Y104.748
G1 X173.542Y105.02
G1 X173.058Y105.248
G1 X172.552Y105.428
G1 X172.029Y105.56
G1 X171.49Y105.64
G1 X170.94Y105.667
G1 X170.382Y105.638
G1 X169.819Y105.552
G1 X169.267Y105.409
G1 X168.743Y105.215
G1 X168.248Y104.973
G1 X167.785Y104.687
G1 X167.356Y104.359
G1 X166.963Y103.994
G1 X166.608Y103.594
G1 X166.293Y103.162
G1 X166.021Y102.703
G1 X165.793Y102.219
G1 X165.613Y101.713
G1 X165.481Y101.189
G1 X165.401Y100.651
G1 X165.374Y100.101
G1 X165.403Y99.543
; Layer C00 Pass 3 of 10
G1 X165.489Y98.98
G1 X165.588Y98.576
G1 X165.715Y98.184
G1 X165.87Y97.806
G1 X166.051Y97.443
G1 X166.257Y97.095
G1 X166.486Y96.765
G1 X166.738Y96.453
G1 X167.012Y96.16
G1 X167.306Y95.887
G1 X167.619Y95.636
G1 X167.95Y95.407
G1 X168.299Y95.203
G1 X168.663Y95.023
G1 X169.041Y94.87
G1 X169.433Y94.744
G1 X169.837Y94.646
G1 Y100.101
G1 X172.043
G1 Y94.646
G1 X172.061Y94.65
G1 X172.331Y94.712
G1 X172.856Y94.875
G1 X173.354Y95.086
G1 X173.823Y95.339
G1 X174.261Y95.634
G1 X174.665Y95.965
G1 X175.035Y96.332
G1 X175.368Y96.73
G1 X175.662Y97.156
G1 X175.915Y97.607
G1 X176.126Y98.081
G1 X176.292Y98.574
G1 X176.412Y99.084
G1 X176.484Y99.606
G1 X176.506Y100.139
G1 X176.476Y100.678
G1 X176.391Y101.222
G1 X176.248Y101.774
G1 X176.054Y102.298
G1 X175.812Y102.793
G1 X175.526Y103.256
G1 X175.198Y103.685
G1 X174.833Y104.078
G1 X174.433Y104.433
G1 X174.001Y104.748
G1 X173.542Y105.02
G1 X173.058Y105.248
G1 X172.552Y105.428
G1 X172.029Y105.56
G1 X171.49Y105.64
G1 X170.94Y105.667
G1 X170.382Y105.638
G1 X169.819Y105.552
G1 X169.267Y105.409
G1 X168.743Y105.215
G1 X168.248Y104.973
G1 X167.785Y104.687
G1 X167.356Y104.359
G1 X166.963Y103.994
G1 X166.608Y103.594
G1 X166.293Y103.162
G1 X166.021Y102.703
G1 X165.793Y102.219
G1 X165.613Y101.713
G1 X165.481Y101.189
G1 X165.401Y100.651
G1 X165.374Y100.101
G1 X165.403Y99.543
; Layer C00 Pass 4 of 10
G1 X165.489Y98.98
G1 X165.588Y98.576
G1 X165.715Y98.184
G1 X165.87Y97.806
G1 X166.051Y97.443
G1 X166.257Y97.095
G1 X166.486Y96.765
G1 X166.738Y96.453
G1 X167.012Y96.16
G1 X167.306Y95.887
G1 X167.619Y95.636
G1 X167.95Y95.407
G1 X168.299Y95.203
G1 X168.663Y95.023
G1 X169.041Y94.87
G1 X169.433Y94.744
G1 X169.837Y94.646
G1 Y100.101
G1 X172.043
G1 Y94.646
G1 X172.061Y94.65
G1 X172.331Y94.712
G1 X172.856Y94.875
G1 X173.354Y95.086
G1 X173.823Y95.339
G1 X174.261Y95.634
G1 X174.665Y95.965
G1 X175.035Y96.332
G1 X175.368Y96.73
G1 X175.662Y97.156
G1 X175.915Y97.607
G1 X176.126Y98.081
G1 X176.292Y98.574
G1 X176.412Y99.084
G1 X176.484Y99.606
G1 X176.506Y100.139
G1 X176.476Y100.678
G1 X176.391Y101.222
G1 X176.248Y101.774
G1 X176.054Y102.298
G1 X175.812Y102.793
G1 X175.526Y103.256
G1 X175.198Y103.685
G1 X174.833Y104.078
G1 X174.433Y104.433
G1 X174.001Y104.748
G1 X173.542Y105.02
G1 X173.058Y105.248
G1 X172.552Y105.428
G1 X172.029Y105.56
G1 X171.49Y105.64
G1 X170.94Y105.667
G1 X170.382Y105.638
G1 X169.819Y105.552
G1 X169.267Y105.409
G1 X168.743Y105.215
G1 X168.248Y104.973
G1 X167.785Y104.687
G1 X167.356Y104.359
G1 X166.963Y103.994
G1 X166.608Y103.594
G1 X166.293Y103.162
G1 X166.021Y102.703
G1 X165.793Y102.219
G1 X165.613Y101.713
G1 X165.481Y101.189
G1 X165.401Y100.651
G1 X165.374Y100.101
G1 X165.403Y99.543
; Layer C00 Pass 5 of 10
G1 X165.489Y98.98
G1 X165.588Y98.576
G1 X165.715Y98.184
G1 X165.87Y97.806
G1 X166.051Y97.443
G1 X166.257Y97.095
G1 X166.486Y96.765
G1 X166.738Y96.453
G1 X167.012Y96.16
G1 X167.306Y95.887
G1 X167.619Y95.636
G1 X167.95Y95.407
G1 X168.299Y95.203
G1 X168.663Y95.023
G1 X169.041Y94.87
G1 X169.433Y94.744
G1 X169.837Y94.646
G1 Y100.101
G1 X172.043
G1 Y94.646
G1 X172.061Y94.65
G1 X172.331Y94.712
G1 X172.856Y94.875
G1 X173.354Y95.086
G1 X173.823Y95.339
G1 X174.261Y95.634
G1 X174.665Y95.965
G1 X175.035Y96.332
G1 X175.368Y96.73
G1 X175.662Y97.156
G1 X175.915Y97.607
G1 X176.126Y98.081
G1 X176.292Y98.574
G1 X176.412Y99.084
G1 X176.484Y99.606
G1 X176.506Y100.139
G1 X176.476Y100.678
G1 X176.391Y101.222
G1 X176.248Y101.774
G1 X176.054Y102.298
G1 X175.812Y102.793
G1 X175.526Y103.256
G1 X175.198Y103.685
G1 X174.833Y104.078
G1 X174.433Y104.433
G1 X174.001Y104.748
G1 X173.542Y105.02
G1 X173.058Y105.248
G1 X172.552Y105.428
G1 X172.029Y105.56
G1 X171.49Y105.64
G1 X170.94Y105.667
G1 X170.382Y105.638
G1 X169.819Y105.552
G1 X169.267Y105.409
G1 X168.743Y105.215
G1 X168.248Y104.973
G1 X167.785Y104.687
G1 X167.356Y104.359
G1 X166.963Y103.994
G1 X166.608Y103.594
G1 X166.293Y103.162
G1 X166.021Y102.703
G1 X165.793Y102.219
G1 X165.613Y101.713
G1 X165.481Y101.189
G1 X165.401Y100.651
G1 X165.374Y100.101
G1 X165.403Y99.543
; Layer C00 Pass 6 of 10
G1 X165.489Y98.98
G1 X165.588Y98.576
G1 X165.715Y98.184
G1 X165.87Y97.806
G1 X166.051Y97.443
G1 X166.257Y97.095
G1 X166.486Y96.765
G1 X166.738Y96.453
G1 X167.012Y96.16
G1 X167.306Y95.887
G1 X167.619Y95.636
G1 X167.95Y95.407
G1 X168.299Y95.203
G1 X168.663Y95.023
G1 X169.041Y94.87
G1 X169.433Y94.744
G1 X169.837Y94.646
G1 Y100.101
G1 X172.043
G1 Y94.646
G1 X172.061Y94.65
G1 X172.331Y94.712
G1 X172.856Y94.875
G1 X173.354Y95.086
G1 X173.823Y95.339
G1 X174.261Y95.634
G1 X174.665Y95.965
G1 X175.035Y96.332
G1 X175.368Y96.73
G1 X175.662Y97.156
G1 X175.915Y97.607
G1 X176.126Y98.081
G1 X176.292Y98.574
G1 X176.412Y99.084
G1 X176.484Y99.606
G1 X176.506Y100.139
G1 X176.476Y100.678
G1 X176.391Y101.222
G1 X176.248Y101.774
G1 X176.054Y102.298
G1 X175.812Y102.793
G1 X175.526Y103.256
G1 X175.198Y103.685
G1 X174.833Y104.078
G1 X174.433Y104.433
G1 X174.001Y104.748
G1 X173.542Y105.02
G1 X173.058Y105.248
G1 X172.552Y105.428
G1 X172.029Y105.56
G1 X171.49Y105.64
G1 X170.94Y105.667
G1 X170.382Y105.638
G1 X169.819Y105.552
G1 X169.267Y105.409
G1 X168.743Y105.215
G1 X168.248Y104.973
G1 X167.785Y104.687
G1 X167.356Y104.359
G1 X166.963Y103.994
G1 X166.608Y103.594
G1 X166.293Y103.162
G1 X166.021Y102.703
G1 X165.793Y102.219
G1 X165.613Y101.713
G1 X165.481Y101.189
G1 X165.401Y100.651
G1 X165.374Y100.101
G1 X165.403Y99.543
; Layer C00 Pass 7 of 10
G1 X165.489Y98.98
G1 X165.588Y98.576
G1 X165.715Y98.184
G1 X165.87Y97.806
G1 X166.051Y97.443
G1 X166.257Y97.095
G1 X166.486Y96.765
G1 X166.738Y96.453
G1 X167.012Y96.16
G1 X167.306Y95.887
G1 X167.619Y95.636
G1 X167.95Y95.407
G1 X168.299Y95.203
G1 X168.663Y95.023
G1 X169.041Y94.87
G1 X169.433Y94.744
G1 X169.837Y94.646
G1 Y100.101
G1 X172.043
G1 Y94.646
G1 X172.061Y94.65
G1 X172.331Y94.712
G1 X172.856Y94.875
G1 X173.354Y95.086
G1 X173.823Y95.339
G1 X174.261Y95.634
G1 X174.665Y95.965
G1 X175.035Y96.332
G1 X175.368Y96.73
G1 X175.662Y97.156
G1 X175.915Y97.607
G1 X176.126Y98.081
G1 X176.292Y98.574
G1 X176.412Y99.084
G1 X176.484Y99.606
G1 X176.506Y100.139
G1 X176.476Y100.678
G1 X176.391Y101.222
G1 X176.248Y101.774
G1 X176.054Y102.298
G1 X175.812Y102.793
G1 X175.526Y103.256
G1 X175.198Y103.685
G1 X174.833Y104.078
G1 X174.433Y104.433
G1 X174.001Y104.748
G1 X173.542Y105.02
G1 X173.058Y105.248
G1 X172.552Y105.428
G1 X172.029Y105.56
G1 X171.49Y105.64
G1 X170.94Y105.667
G1 X170.382Y105.638
G1 X169.819Y105.552
G1 X169.267Y105.409
G1 X168.743Y105.215
G1 X168.248Y104.973
G1 X167.785Y104.687
G1 X167.356Y104.359
G1 X166.963Y103.994
G1 X166.608Y103.594
G1 X166.293Y103.162
G1 X166.021Y102.703
G1 X165.793Y102.219
G1 X165.613Y101.713
G1 X165.481Y101.189
G1 X165.401Y100.651
G1 X165.374Y100.101
G1 X165.403Y99.543
; Layer C00 Pass 8 of 10
G1 X165.489Y98.98
G1 X165.588Y98.576
G1 X165.715Y98.184
G1 X165.87Y97.806
G1 X166.051Y97.443
G1 X166.257Y97.095
G1 X166.486Y96.765
G1 X166.738Y96.453
G1 X167.012Y96.16
G1 X167.306Y95.887
G1 X167.619Y95.636
G1 X167.95Y95.407
G1 X168.299Y95.203
G1 X168.663Y95.023
G1 X169.041Y94.87
G1 X169.433Y94.744
G1 X169.837Y94.646
G1 Y100.101
G1 X172.043
G1 Y94.646
G1 X172.061Y94.65
G1 X172.331Y94.712
G1 X172.856Y94.875
G1 X173.354Y95.086
G1 X173.823Y95.339
G1 X174.261Y95.634
G1 X174.665Y95.965
G1 X175.035Y96.332
G1 X175.368Y96.73
G1 X175.662Y97.156
G1 X175.915Y97.607
G1 X176.126Y98.081
G1 X176.292Y98.574
G1 X176.412Y99.084
G1 X176.484Y99.606
G1 X176.506Y100.139
G1 X176.476Y100.678
G1 X176.391Y101.222
G1 X176.248Y101.774
G1 X176.054Y102.298
G1 X175.812Y102.793
G1 X175.526Y103.256
G1 X175.198Y103.685
G1 X174.833Y104.078
G1 X174.433Y104.433
G1 X174.001Y104.748
G1 X173.542Y105.02
G1 X173.058Y105.248
G1 X172.552Y105.428
G1 X172.029Y105.56
G1 X171.49Y105.64
G1 X170.94Y105.667
G1 X170.382Y105.638
G1 X169.819Y105.552
G1 X169.267Y105.409
G1 X168.743Y105.215
G1 X168.248Y104.973
G1 X167.785Y104.687
G1 X167.356Y104.359
G1 X166.963Y103.994
G1 X166.608Y103.594
G1 X166.293Y103.162
G1 X166.021Y102.703
G1 X165.793Y102.219
G1 X165.613Y101.713
G1 X165.481Y101.189
G1 X165.401Y100.651
G1 X165.374Y100.101
G1 X165.403Y99.543
; Layer C00 Pass 9 of 10
G1 X165.489Y98.98
G1 X165.588Y98.576
G1 X165.715Y98.184
G1 X165.87Y97.806
G1 X166.051Y97.443
G1 X166.257Y97.095
G1 X166.486Y96.765
G1 X166.738Y96.453
G1 X167.012Y96.16
G1 X167.306Y95.887
G1 X167.619Y95.636
G1 X167.95Y95.407
G1 X168.299Y95.203
G1 X168.663Y95.023
G1 X169.041Y94.87
G1 X169.433Y94.744
G1 X169.837Y94.646
G1 Y100.101
G1 X172.043
G1 Y94.646
G1 X172.061Y94.65
G1 X172.331Y94.712
G1 X172.856Y94.875
G1 X173.354Y95.086
G1 X173.823Y95.339
G1 X174.261Y95.634
G1 X174.665Y95.965
G1 X175.035Y96.332
G1 X175.368Y96.73
G1 X175.662Y97.156
G1 X175.915Y97.607
G1 X176.126Y98.081
G1 X176.292Y98.574
G1 X176.412Y99.084
G1 X176.484Y99.606
G1 X176.506Y100.139
G1 X176.476Y100.678
G1 X176.391Y101.222
G1 X176.248Y101.774
G1 X176.054Y102.298
G1 X175.812Y102.793
G1 X175.526Y103.256
G1 X175.198Y103.685
G1 X174.833Y104.078
G1 X174.433Y104.433
G1 X174.001Y104.748
G1 X173.542Y105.02
G1 X173.058Y105.248
G1 X172.552Y105.428
G1 X172.029Y105.56
G1 X171.49Y105.64
G1 X170.94Y105.667
G1 X170.382Y105.638
G1 X169.819Y105.552
G1 X169.267Y105.409
G1 X168.743Y105.215
G1 X168.248Y104.973
G1 X167.785Y104.687
G1 X167.356Y104.359
G1 X166.963Y103.994
G1 X166.608Y103.594
G1 X166.293Y103.162
G1 X166.021Y102.703
G1 X165.793Y102.219
G1 X165.613Y101.713
G1 X165.481Y101.189
G1 X165.401Y100.651
G1 X165.374Y100.101
G1 X165.403Y99.543
; Layer C00 Pass 10 of 10
G1 X165.489Y98.98
G1 X165.588Y98.576
G1 X165.715Y98.184
G1 X165.87Y97.806
G1 X166.051Y97.443
G1 X166.257Y97.095
G1 X166.486Y96.765
G1 X166.738Y96.453
G1 X167.012Y96.16
G1 X167.306Y95.887
G1 X167.619Y95.636
G1 X167.95Y95.407
G1 X168.299Y95.203
G1 X168.663Y95.023
G1 X169.041Y94.87
G1 X169.433Y94.744
G1 X169.837Y94.646
G1 Y100.101
G1 X172.043
G1 Y94.646
G1 X172.061Y94.65
G1 X172.331Y94.712
G1 X172.856Y94.875
G1 X173.354Y95.086
G1 X173.823Y95.339
G1 X174.261Y95.634
G1 X174.665Y95.965
G1 X175.035Y96.332
G1 X175.368Y96.73
G1 X175.662Y97.156
G1 X175.915Y97.607
G1 X176.126Y98.081
G1 X176.292Y98.574
G1 X176.412Y99.084
G1 X176.484Y99.606
G1 X176.506Y100.139
G1 X176.476Y100.678
G1 X176.391Y101.222
G1 X176.248Y101.774
G1 X176.054Y102.298
G1 X175.812Y102.793
G1 X175.526Y103.256
G1 X175.198Y103.685
G1 X174.833Y104.078
G1 X174.433Y104.433
G1 X174.001Y104.748
G1 X173.542Y105.02
G1 X173.058Y105.248
G1 X172.552Y105.428
G1 X172.029Y105.56
G1 X171.49Y105.64
G1 X170.94Y105.667
G1 X170.382Y105.638
G1 X169.819Y105.552
G1 X169.267Y105.409
G1 X168.743Y105.215
G1 X168.248Y104.973
G1 X167.785Y104.687
G1 X167.356Y104.359
G1 X166.963Y103.994
G1 X166.608Y103.594
G1 X166.293Y103.162
G1 X166.021Y102.703
G1 X165.793Y102.219
G1 X165.613Y101.713
G1 X165.481Y101.189
G1 X165.401Y100.651
G1 X165.374Y100.101
G1 X165.403Y99.543
G0 X177.403Y99.543
; Layer C00 Pass 1 of 10
G1 X177.489Y98.979
G1 X177.588Y98.576
G1 X177.715Y98.184
G1 X177.87Y97.806
G1 X178.051Y97.443
G1 X178.257Y97.095
G1 X178.486Y96.765
G1 X178.738Y96.453
G1 X179.012Y96.16
G1 X179.306Y95.887
G1 X179.619Y95.636
G1 X179.95Y95.407
G1 X180.299Y95.203
G1 X180.663Y95.023
G1 X181.041Y94.87
G1 X181.433Y94.744
G1 X181.837Y94.646
G1 Y100.101
G1 X184.043
G1 Y94.646
G1 X184.061Y94.65
G1 X184.331Y94.712
G1 X184.856Y94.875
G1 X185.354Y95.086
G1 X185.823Y95.339
G1 X186.261Y95.634
G1 X186.665Y95.965
G1 X187.035Y96.332
G1 X187.368Y96.73
G1 X187.662Y97.156
G1 X187.915Y97.607
G1 X188.126Y98.081
G1 X188.292Y98.574
G1 X188.412Y99.084
G1 X188.484Y99.606
G1 X188.506Y100.139
G1 X188.476Y100.678
G1 X188.391Y101.222
G1 X188.248Y101.774
G1 X188.054Y102.298
G1 X187.812Y102.793
G1 X187.526Y103.256
G1 X187.198Y103.685
G1 X186.833Y104.078
G1 X186.433Y104.433
G1 X186.001Y104.748
G1 X185.542Y105.02
G1 X185.058Y105.248
G1 X184.552Y105.428
G1 X184.029Y105.56
G1 X183.49Y105.64
G1 X182.94Y105.667
G1 X182.382Y105.638
G1 X181.819Y105.552
G1 X181.267Y105.409
G1 X180.743Y105.215
G1 X180.248Y104.973
G1 X179.785Y104.687
G1 X179.356Y104.359
G1 X178.963Y103.994
G1 X178.608Y103.594
G1 X178.293Y103.162
G1 X178.021Y102.703
G1 X177.793Y102.219
G1 X177.613Y101.713
G1 X177.481Y101.189
G1 X177.401Y100.651
G1 X177.374Y100.101
G1 X177.403Y99.543
; Layer C00 Pass 2 of 10
G1 X177.489Y98.979
G1 X177.588Y98.576
G1 X177.715Y98.184
G1 X177.87Y97.806
G1 X178.051Y97.443
G1 X178.257Y97.095
G1 X178.486Y96.765
G1 X178.738Y96.453
G1 X179.012Y96.16
G1 X179.306Y95.887
G1 X179.619Y95.636
G1 X179.95Y95.407
G1 X180.299Y95.203
G1 X180.663Y95.023
G1 X181.041Y94.87
G1 X181.433Y94.744
G1 X181.837Y94.646
G1 Y100.101
G1 X184.043
G1 Y94.646
G1 X184.061Y94.65
G1 X184.331Y94.712
G1 X184.856Y94.875
G1 X185.354Y95.086
G1 X185.823Y95.339
G1 X186.261Y95.634
G1 X186.665Y95.965
G1 X187.035Y96.332
G1 X187.368Y96.73
G1 X187.662Y97.156
G1 X187.915Y97.607
G1 X188.126Y98.081
G1 X188.292Y98.574
G1 X188.412Y99.084
G1 X188.484Y99.606
G1 X188.506Y100.139
G1 X188.476Y100.678
G1 X188.391Y101.222
G1 X188.248Y101.774
G1 X188.054Y102.298
G1 X187.812Y102.793
G1 X187.526Y103.256
G1 X187.198Y103.685
G1 X186.833Y104.078
G1 X186.433Y104.433
G1 X186.001Y104.748
G1 X185.542Y105.02
G1 X185.058Y105.248
G1 X184.552Y105.428
G1 X184.029Y105.56
G1 X183.49Y105.64
G1 X182.94Y105.667
G1 X182.382Y105.638
G1 X181.819Y105.552
G1 X181.267Y105.409
G1 X180.743Y105.215
G1 X180.248Y104.973
G1 X179.785Y104.687
G1 X179.356Y104.359
G1 X178.963Y103.994
G1 X178.608Y103.594
G1 X178.293Y103.162
G1 X178.021Y102.703
G1 X177.793Y102.219
G1 X177.613Y101.713
G1 X177.481Y101.189
G1 X177.401Y100.651
G1 X177.374Y100.101
G1 X177.403Y99.543
; Layer C00 Pass 3 of 10
G1 X177.489Y98.979
G1 X177.588Y98.576
G1 X177.715Y98.184
G1 X177.87Y97.806
G1 X178.051Y97.443
G1 X178.257Y97.095
G1 X178.486Y96.765
G1 X178.738Y96.453
G1 X179.012Y96.16
G1 X179.306Y95.887
G1 X179.619Y95.636
G1 X179.95Y95.407
G1 X180.299Y95.203
G1 X180.663Y95.023
G1 X181.041Y94.87
G1 X181.433Y94.744
G1 X181.837Y94.646
G1 Y100.101
G1 X184.043
G1 Y94.646
G1 X184.061Y94.65
G1 X184.331Y94.712
G1 X184.856Y94.875
G1 X185.354Y95.086
G1 X185.823Y95.339
G1 X186.261Y95.634
G1 X186.665Y95.965
G1 X187.035Y96.332
G1 X187.368Y96.73
G1 X187.662Y97.156
G1 X187.915Y97.607
G1 X188.126Y98.081
G1 X188.292Y98.574
G1 X188.412Y99.084
G1 X188.484Y99.606
G1 X188.506Y100.139
G1 X188.476Y100.678
G1 X188.391Y101.222
G1 X188.248Y101.774
G1 X188.054Y102.298
G1 X187.812Y102.793
G1 X187.526Y103.256
G1 X187.198Y103.685
G1 X186.833Y104.078
G1 X186.433Y104.433
G1 X186.001Y104.748
G1 X185.542Y105.02
G1 X185.058Y105.248
G1 X184.552Y105.428
G1 X184.029Y105.56
G1 X183.49Y105.64
G1 X182.94Y105.667
G1 X182.382Y105.638
G1 X181.819Y105.552
G1 X181.267Y105.409
G1 X180.743Y105.215
G1 X180.248Y104.973
G1 X179.785Y104.687
G1 X179.356Y104.359
G1 X178.963Y103.994
G1 X178.608Y103.594
G1 X178.293Y103.162
G1 X178.021Y102.703
G1 X177.793Y102.219
G1 X177.613Y101.713
G1 X177.481Y101.189
G1 X177.401Y100.651
G1 X177.374Y100.101
G1 X177.403Y99.543
; Layer C00 Pass 4 of 10
G1 X177.489Y98.979
G1 X177.588Y98.576
G1 X177.715Y98.184
G1 X177.87Y97.806
G1 X178.051Y97.443
G1 X178.257Y97.095
G1 X178.486Y96.765
G1 X178.738Y96.453
G1 X179.012Y96.16
G1 X179.306Y95.887
G1 X179.619Y95.636
G1 X179.95Y95.407
G1 X180.299Y95.203
G1 X180.663Y95.023
G1 X181.041Y94.87
G1 X181.433Y94.744
G1 X181.837Y94.646
G1 Y100.101
G1 X184.043
G1 Y94.646
G1 X184.061Y94.65
G1 X184.331Y94.712
G1 X184.856Y94.875
G1 X185.354Y95.086
G1 X185.823Y95.339
G1 X186.261Y95.634
G1 X186.665Y95.965
G1 X187.035Y96.332
G1 X187.368Y96.73
G1 X187.662Y97.156
G1 X187.915Y97.607
G1 X188.126Y98.081
G1 X188.292Y98.574
G1 X188.412Y99.084
G1 X188.484Y99.606
G1 X188.506Y100.139
G1 X188.476Y100.678
G1 X188.391Y101.222
G1 X188.248Y101.774
G1 X188.054Y102.298
G1 X187.812Y102.793
G1 X187.526Y103.256
G1 X187.198Y103.685
G1 X186.833Y104.078
G1 X186.433Y104.433
G1 X186.001Y104.748
G1 X185.542Y105.02
G1 X185.058Y105.248
G1 X184.552Y105.428
G1 X184.029Y105.56
G1 X183.49Y105.64
G1 X182.94Y105.667
G1 X182.382Y105.638
G1 X181.819Y105.552
G1 X181.267Y105.409
G1 X180.743Y105.215
G1 X180.248Y104.973
G1 X179.785Y104.687
G1 X179.356Y104.359
G1 X178.963Y103.994
G1 X178.608Y103.594
G1 X178.293Y103.162
G1 X178.021Y102.703
G1 X177.793Y102.219
G1 X177.613Y101.713
G1 X177.481Y101.189
G1 X177.401Y100.651
G1 X177.374Y100.101
G1 X177.403Y99.543
; Layer C00 Pass 5 of 10
G1 X177.489Y98.979
G1 X177.588Y98.576
G1 X177.715Y98.184
G1 X177.87Y97.806
G1 X178.051Y97.443
G1 X178.257Y97.095
G1 X178.486Y96.765
G1 X178.738Y96.453
G1 X179.012Y96.16
G1 X179.306Y95.887
G1 X179.619Y95.636
G1 X179.95Y95.407
G1 X180.299Y95.203
G1 X180.663Y95.023
G1 X181.041Y94.87
G1 X181.433Y94.744
G1 X181.837Y94.646
G1 Y100.101
G1 X184.043
G1 Y94.646
G1 X184.061Y94.65
G1 X184.331Y94.712
G1 X184.856Y94.875
G1 X185.354Y95.086
G1 X185.823Y95.339
G1 X186.261Y95.634
G1 X186.665Y95.965
G1 X187.035Y96.332
G1 X187.368Y96.73
G1 X187.662Y97.156
G1 X187.915Y97.607
G1 X188.126Y98.081
G1 X188.292Y98.574
G1 X188.412Y99.084
G1 X188.484Y99.606
G1 X188.506Y100.139
G1 X188.476Y100.678
G1 X188.391Y101.222
G1 X188.248Y101.774
G1 X188.054Y102.298
G1 X187.812Y102.793
G1 X187.526Y103.256
G1 X187.198Y103.685
G1 X186.833Y104.078
G1 X186.433Y104.433
G1 X186.001Y104.748
G1 X185.542Y105.02
G1 X185.058Y105.248
G1 X184.552Y105.428
G1 X184.029Y105.56
G1 X183.49Y105.64
G1 X182.94Y105.667
G1 X182.382Y105.638
G1 X181.819Y105.552
G1 X181.267Y105.409
G1 X180.743Y105.215
G1 X180.248Y104.973
G1 X179.785Y104.687
G1 X179.356Y104.359
G1 X178.963Y103.994
G1 X178.608Y103.594
G1 X178.293Y103.162
G1 X178.021Y102.703
G1 X177.793Y102.219
G1 X177.613Y101.713
G1 X177.481Y101.189
G1 X177.401Y100.651
G1 X177.374Y100.101
G1 X177.403Y99.543
; Layer C00 Pass 6 of 10
G1 X177.489Y98.979
G1 X177.588Y98.576
G1 X177.715Y98.184
G1 X177.87Y97.806
G1 X178.051Y97.443
G1 X178.257Y97.095
G1 X178.486Y96.765
G1 X178.738Y96.453
G1 X179.012Y96.16
G1 X179.306Y95.887
G1 X179.619Y95.636
G1 X179.95Y95.407
G1 X180.299Y95.203
G1 X180.663Y95.023
G1 X181.041Y94.87
G1 X181.433Y94.744
G1 X181.837Y94.646
G1 Y100.101
G1 X184.043
G1 Y94.646
G1 X184.061Y94.65
G1 X184.331Y94.712
G1 X184.856Y94.875
G1 X185.354Y95.086
G1 X185.823Y95.339
G1 X186.261Y95.634
G1 X186.665Y95.965
G1 X187.035Y96.332
G1 X187.368Y96.73
G1 X187.662Y97.156
G1 X187.915Y97.607
G1 X188.126Y98.081
G1 X188.292Y98.574
G1 X188.412Y99.084
G1 X188.484Y99.606
G1 X188.506Y100.139
G1 X188.476Y100.678
G1 X188.391Y101.222
G1 X188.248Y101.774
G1 X188.054Y102.298
G1 X187.812Y102.793
G1 X187.526Y103.256
G1 X187.198Y103.685
G1 X186.833Y104.078
G1 X186.433Y104.433
G1 X186.001Y104.748
G1 X185.542Y105.02
G1 X185.058Y105.248
G1 X184.552Y105.428
G1 X184.029Y105.56
G1 X183.49Y105.64
G1 X182.94Y105.667
G1 X182.382Y105.638
G1 X181.819Y105.552
G1 X181.267Y105.409
G1 X180.743Y105.215
G1 X180.248Y104.973
G1 X179.785Y104.687
G1 X179.356Y104.359
G1 X178.963Y103.994
G1 X178.608Y103.594
G1 X178.293Y103.162
G1 X178.021Y102.703
G1 X177.793Y102.219
G1 X177.613Y101.713
G1 X177.481Y101.189
G1 X177.401Y100.651
G1 X177.374Y100.101
G1 X177.403Y99.543
; Layer C00 Pass 7 of 10
G1 X177.489Y98.979
G1 X177.588Y98.576
G1 X177.715Y98.184
G1 X177.87Y97.806
G1 X178.051Y97.443
G1 X178.257Y97.095
G1 X178.486Y96.765
G1 X178.738Y96.453
G1 X179.012Y96.16
G1 X179.306Y95.887
G1 X179.619Y95.636
G1 X179.95Y95.407
G1 X180.299Y95.203
G1 X180.663Y95.023
G1 X181.041Y94.87
G1 X181.433Y94.744
G1 X181.837Y94.646
G1 Y100.101
G1 X184.043
G1 Y94.646
G1 X184.061Y94.65
G1 X184.331Y94.712
G1 X184.856Y94.875
G1 X185.354Y95.086
G1 X185.823Y95.339
G1 X186.261Y95.634
G1 X186.665Y95.965
G1 X187.035Y96.332
G1 X187.368Y96.73
G1 X187.662Y97.156
G1 X187.915Y97.607
G1 X188.126Y98.081
G1 X188.292Y98.574
G1 X188.412Y99.084
G1 X188.484Y99.606
G1 X188.506Y100.139
G1 X188.476Y100.678
G1 X188.391Y101.222
G1 X188.248Y101.774
G1 X188.054Y102.298
G1 X187.812Y102.793
G1 X187.526Y103.256
G1 X187.198Y103.685
G1 X186.833Y104.078
G1 X186.433Y104.433
G1 X186.001Y104.748
G1 X185.542Y105.02
G1 X185.058Y105.248
G1 X184.552Y105.428
G1 X184.029Y105.56
G1 X183.49Y105.64
G1 X182.94Y105.667
G1 X182.382Y105.638
G1 X181.819Y105.552
G1 X181.267Y105.409
G1 X180.743Y105.215
G1 X180.248Y104.973
G1 X179.785Y104.687
G1 X179.356Y104.359
G1 X178.963Y103.994
G1 X178.608Y103.594
G1 X178.293Y103.162
G1 X178.021Y102.703
G1 X177.793Y102.219
G1 X177.613Y101.713
G1 X177.481Y101.189
G1 X177.401Y100.651
G1 X177.374Y100.101
G1 X177.403Y99.543
; Layer C00 Pass 8 of 10
G1 X177.489Y98.979
G1 X177.588Y98.576
G1 X177.715Y98.184
G1 X177.87Y97.806
G1 X178.051Y97.443
G1 X178.257Y97.095
G1 X178.486Y96.765
G1 X178.738Y96.453
G1 X179.012Y96.16
G1 X179.306Y95.887
G1 X179.619Y95.636
G1 X179.95Y95.407
G1 X180.299Y95.203
G1 X180.663Y95.023
G1 X181.041Y94.87
G1 X181.433Y94.744
G1 X181.837Y94.646
G1 Y100.101
G1 X184.043
G1 Y94.646
G1 X184.061Y94.65
G1 X184.331Y94.712
G1 X184.856Y94.875
G1 X185.354Y95.086
G1 X185.823Y95.339
G1 X186.261Y95.634
G1 X186.665Y95.965
G1 X187.035Y96.332
G1 X187.368Y96.73
G1 X187.662Y97.156
G1 X187.915Y97.607
G1 X188.126Y98.081
G1 X188.292Y98.574
G1 X188.412Y99.084
G1 X188.484Y99.606
G1 X188.506Y100.139
G1 X188.476Y100.678
G1 X188.391Y101.222
G1 X188.248Y101.774
G1 X188.054Y102.298
G1 X187.812Y102.793
G1 X187.526Y103.256
G1 X187.198Y103.685
G1 X186.833Y104.078
G1 X186.433Y104.433
G1 X186.001Y104.748
G1 X185.542Y105.02
G1 X185.058Y105.248
G1 X184.552Y105.428
G1 X184.029Y105.56
G1 X183.49Y105.64
G1 X182.94Y105.667
G1 X182.382Y105.638
G1 X181.819Y105.552
G1 X181.267Y105.409
G1 X180.743Y105.215
G1 X180.248Y104.973
G1 X179.785Y104.687
G1 X179.356Y104.359
G1 X178.963Y103.994
G1 X178.608Y103.594
G1 X178.293Y103.162
G1 X178.021Y102.703
G1 X177.793Y102.219
G1 X177.613Y101.713
G1 X177.481Y101.189
G1 X177.401Y100.651
G1 X177.374Y100.101
G1 X177.403Y99.543
; Layer C00 Pass 9 of 10
G1 X177.489Y98.979
G1 X177.588Y98.576
G1 X177.715Y98.184
G1 X177.87Y97.806
G1 X178.051Y97.443
G1 X178.257Y97.095
G1 X178.486Y96.765
G1 X178.738Y96.453
G1 X179.012Y96.16
G1 X179.306Y95.887
G1 X179.619Y95.636
G1 X179.95Y95.407
G1 X180.299Y95.203
G1 X180.663Y95.023
G1 X181.041Y94.87
G1 X181.433Y94.744
G1 X181.837Y94.646
G1 Y100.101
G1 X184.043
G1 Y94.646
G1 X184.061Y94.65
G1 X184.331Y94.712
G1 X184.856Y94.875
G1 X185.354Y95.086
G1 X185.823Y95.339
G1 X186.261Y95.634
G1 X186.665Y95.965
G1 X187.035Y96.332
G1 X187.368Y96.73
G1 X187.662Y97.156
G1 X187.915Y97.607
G1 X188.126Y98.081
G1 X188.292Y98.574
G1 X188.412Y99.084
G1 X188.484Y99.606
G1 X188.506Y100.139
G1 X188.476Y100.678
G1 X188.391Y101.222
G1 X188.248Y101.774
G1 X188.054Y102.298
G1 X187.812Y102.793
G1 X187.526Y103.256
G1 X187.198Y103.685
G1 X186.833Y104.078
G1 X186.433Y104.433
G1 X186.001Y104.748
G1 X185.542Y105.02
G1 X185.058Y105.248
G1 X184.552Y105.428
G1 X184.029Y105.56
G1 X183.49Y105.64
G1 X182.94Y105.667
G1 X182.382Y105.638
G1 X181.819Y105.552
G1 X181.267Y105.409
G1 X180.743Y105.215
G1 X180.248Y104.973
G1 X179.785Y104.687
G1 X179.356Y104.359
G1 X178.963Y103.994
G1 X178.608Y103.594
G1 X178.293Y103.162
G1 X178.021Y102.703
G1 X177.793Y102.219
G1 X177.613Y101.713
G1 X177.481Y101.189
G1 X177.401Y100.651
G1 X177.374Y100.101
G1 X177.403Y99.543
; Layer C00 Pass 10 of 10
G1 X177.489Y98.979
G1 X177.588Y98.576
G1 X177.715Y98.184
G1 X177.87Y97.806
G1 X178.051Y97.443
G1 X178.257Y97.095
G1 X178.486Y96.765
G1 X178.738Y96.453
G1 X179.012Y96.16
G1 X179.306Y95.887
G1 X179.619Y95.636
G1 X179.95Y95.407
G1 X180.299Y95.203
G1 X180.663Y95.023
G1 X181.041Y94.87
G1 X181.433Y94.744
G1 X181.837Y94.646
G1 Y100.101
G1 X184.043
G1 Y94.646
G1 X184.061Y94.65
G1 X184.331Y94.712
G1 X184.856Y94.875
G1 X185.354Y95.086
G1 X185.823Y95.339
G1 X186.261Y95.634
G1 X186.665Y95.965
G1 X187.035Y96.332
G1 X187.368Y96.73
G1 X187.662Y97.156
G1 X187.915Y97.607
G1 X188.126Y98.081
G1 X188.292Y98.574
G1 X188.412Y99.084
G1 X188.484Y99.606
G1 X188.506Y100.139
G1 X188.476Y100.678
G1 X188.391Y101.222
G1 X188.248Y101.774
G1 X188.054Y102.298
G1 X187.812Y102.793
G1 X187.526Y103.256
G1 X187.198Y103.685
G1 X186.833Y104.078
G1 X186.433Y104.433
G1 X186.001Y104.748
G1 X185.542Y105.02
G1 X185.058Y105.248
G1 X184.552Y105.428
G1 X184.029Y105.56
G1 X183.49Y105.64
G1 X182.94Y105.667
G1 X182.382Y105.638
G1 X181.819Y105.552
G1 X181.267Y105.409
G1 X180.743Y105.215
G1 X180.248Y104.973
G1 X179.785Y104.687
G1 X179.356Y104.359
G1 X178.963Y103.994
G1 X178.608Y103.594
G1 X178.293Y103.162
G1 X178.021Y102.703
G1 X177.793Y102.219
G1 X177.613Y101.713
G1 X177.481Y101.189
G1 X177.401Y100.651
G1 X177.374Y100.101
G1 X177.403Y99.543
G0 X183.418Y109.004
; Layer C00 Pass 1 of 10
G1 X184.118Y108.819
G1 X184.84Y108.694
G1 Y120.298
G1 X187.046
G1 Y108.694
G1 X187.238Y108.718
G1 X187.657Y108.793
G1 X188.471Y109.002
G1 X189.247Y109.285
G1 X189.982Y109.637
G1 X190.672Y110.053
G1 X191.315Y110.528
G1 X191.907Y111.059
G1 X192.445Y111.641
G1 X192.926Y112.269
G1 X193.347Y112.939
G1 X193.705Y113.646
G1 X193.997Y114.386
G1 X194.218Y115.154
G1 X194.368Y115.946
G1 X194.441Y116.757
G1 X194.436Y117.583
G1 X194.349Y118.419
G1 X194.173Y119.272
G1 X193.917Y120.087
G1 X193.586Y120.86
G1 X193.184Y121.589
G1 X192.717Y122.269
G1 X192.189Y122.897
G1 X191.606Y123.47
G1 X190.971Y123.983
G1 X190.291Y124.434
G1 X189.569Y124.818
G1 X188.811Y125.132
G1 X188.022Y125.373
G1 X187.206Y125.537
G1 X186.368Y125.62
G1 X185.514
G1 X184.648Y125.53
G1 X183.825Y125.361
G1 X183.036Y125.118
G1 X182.285Y124.804
G1 X181.575Y124.423
G1 X180.909Y123.981
G1 X180.291Y123.48
G1 X179.725Y122.926
G1 X179.213Y122.323
G1 X178.759Y121.676
G1 X178.366Y120.988
G1 X178.038Y120.264
G1 X177.778Y119.508
G1 X177.589Y118.725
G1 X177.475Y117.919
G1 X177.438Y117.094
G1 X177.483Y116.255
G1 X177.589Y115.529
G1 X177.754Y114.825
G1 X177.976Y114.144
G1 X178.253Y113.49
G1 X178.58Y112.866
G1 X178.957Y112.273
G1 X179.38Y111.715
G1 X179.846Y111.194
G1 X180.354Y110.713
G1 X180.9Y110.275
G1 X181.483Y109.883
G1 X182.098Y109.538
G1 X182.744Y109.244
G1 X183.418Y109.004
; Layer C00 Pass 2 of 10
G1 X184.118Y108.819
G1 X184.84Y108.694
G1 Y120.298
G1 X187.046
G1 Y108.694
G1 X187.238Y108.718
G1 X187.657Y108.793
G1 X188.471Y109.002
G1 X189.247Y109.285
G1 X189.982Y109.637
G1 X190.672Y110.053
G1 X191.315Y110.528
G1 X191.907Y111.059
G1 X192.445Y111.641
G1 X192.926Y112.269
G1 X193.347Y112.939
G1 X193.705Y113.646
G1 X193.997Y114.386
G1 X194.218Y115.154
G1 X194.368Y115.946
G1 X194.441Y116.757
G1 X194.436Y117.583
G1 X194.349Y118.419
G1 X194.173Y119.272
G1 X193.917Y120.087
G1 X193.586Y120.86
G1 X193.184Y121.589
G1 X192.717Y122.269
G1 X192.189Y122.897
G1 X191.606Y123.47
G1 X190.971Y123.983
G1 X190.291Y124.434
G1 X189.569Y124.818
G1 X188.811Y125.132
G1 X188.022Y125.373
G1 X187.206Y125.537
G1 X186.368Y125.62
G1 X185.514
G1 X184.648Y125.53
G1 X183.825Y125.361
G1 X183.036Y125.118
G1 X182.285Y124.804
G1 X181.575Y124.423
G1 X180.909Y123.981
G1 X180.291Y123.48
G1 X179.725Y122.926
G1 X179.213Y122.323
G1 X178.759Y121.676
G1 X178.366Y120.988
G1 X178.038Y120.264
G1 X177.778Y119.508
G1 X177.589Y118.725
G1 X177.475Y117.919
G1 X177.438Y117.094
G1 X177.483Y116.255
G1 X177.589Y115.529
G1 X177.754Y114.825
G1 X177.976Y114.144
G1 X178.253Y113.49
G1 X178.58Y112.866
G1 X178.957Y112.273
G1 X179.38Y111.715
G1 X179.846Y111.194
G1 X180.354Y110.713
G1 X180.9Y110.275
G1 X181.483Y109.883
G1 X182.098Y109.538
G1 X182.744Y109.244
G1 X183.418Y109.004
; Layer C00 Pass 3 of 10
G1 X184.118Y108.819
G1 X184.84Y108.694
G1 Y120.298
G1 X187.046
G1 Y108.694
G1 X187.238Y108.718
G1 X187.657Y108.793
G1 X188.471Y109.002
G1 X189.247Y109.285
G1 X189.982Y109.637
G1 X190.672Y110.053
G1 X191.315Y110.528
G1 X191.907Y111.059
G1 X192.445Y111.641
G1 X192.926Y112.269
G1 X193.347Y112.939
G1 X193.705Y113.646
G1 X193.997Y114.386
G1 X194.218Y115.154
G1 X194.368Y115.946
G1 X194.441Y116.757
G1 X194.436Y117.583
G1 X194.349Y118.419
G1 X194.173Y119.272
G1 X193.917Y120.087
G1 X193.586Y120.86
G1 X193.184Y121.589
G1 X192.717Y122.269
G1 X192.189Y122.897
G1 X191.606Y123.47
G1 X190.971Y123.983
G1 X190.291Y124.434
G1 X189.569Y124.818
G1 X188.811Y125.132
G1 X188.022Y125.373
G1 X187.206Y125.537
G1 X186.368Y125.62
G1 X185.514
G1 X184.648Y125.53
G1 X183.825Y125.361
G1 X183.036Y125.118
G1 X182.285Y124.804
G1 X181.575Y124.423
G1 X180.909Y123.981
G1 X180.291Y123.48
G1 X179.725Y122.926
G1 X179.213Y122.323
G1 X178.759Y121.676
G1 X178.366Y120.988
G1 X178.038Y120.264
G1 X177.778Y119.508
G1 X177.589Y118.725
G1 X177.475Y117.919
G1 X177.438Y117.094
G1 X177.483Y116.255
G1 X177.589Y115.529
G1 X177.754Y114.825
G1 X177.976Y114.144
G1 X178.253Y113.49
G1 X178.58Y112.866
G1 X178.957Y112.273
G1 X179.38Y111.715
G1 X179.846Y111.194
G1 X180.354Y110.713
G1 X180.9Y110.275
G1 X181.483Y109.883
G1 X182.098Y109.538
G1 X182.744Y109.244
G1 X183.418Y109.004
; Layer C00 Pass 4 of 10
G1 X184.118Y108.819
G1 X184.84Y108.694
G1 Y120.298
G1 X187.046
G1 Y108.694
G1 X187.238Y108.718
G1 X187.657Y108.793
G1 X188.471Y109.002
G1 X189.247Y109.285
G1 X189.982Y109.637
G1 X190.672Y110.053
G1 X191.315Y110.528
G1 X191.907Y111.059
G1 X192.445Y111.641
G1 X192.926Y112.269
G1 X193.347Y112.939
G1 X193.705Y113.646
G1 X193.997Y114.386
G1 X194.218Y115.154
G1 X194.368Y115.946
G1 X194.441Y116.757
G1 X194.436Y117.583
G1 X194.349Y118.419
G1 X194.173Y119.272
G1 X193.917Y120.087
G1 X193.586Y120.86
G1 X193.184Y121.589
G1 X192.717Y122.269
G1 X192.189Y122.897
G1 X191.606Y123.47
G1 X190.971Y123.983
G1 X190.291Y124.434
G1 X189.569Y124.818
G1 X188.811Y125.132
G1 X188.022Y125.373
G1 X187.206Y125.537
G1 X186.368Y125.62
G1 X185.514
G1 X184.648Y125.53
G1 X183.825Y125.361
G1 X183.036Y125.118
G1 X182.285Y124.804
G1 X181.575Y124.423
G1 X180.909Y123.981
G1 X180.291Y123.48
G1 X179.725Y122.926
G1 X179.213Y122.323
G1 X178.759Y121.676
G1 X178.366Y120.988
G1 X178.038Y120.264
G1 X177.778Y119.508
G1 X177.589Y118.725
G1 X177.475Y117.919
G1 X177.438Y117.094
G1 X177.483Y116.255
G1 X177.589Y115.529
G1 X177.754Y114.825
G1 X177.976Y114.144
G1 X178.253Y113.49
G1 X178.58Y112.866
G1 X178.957Y112.273
G1 X179.38Y111.715
G1 X179.846Y111.194
G1 X180.354Y110.713
G1 X180.9Y110.275
G1 X181.483Y109.883
G1 X182.098Y109.538
G1 X182.744Y109.244
G1 X183.418Y109.004
; Layer C00 Pass 5 of 10
G1 X184.118Y108.819
G1 X184.84Y108.694
G1 Y120.298
G1 X187.046
G1 Y108.694
G1 X187.238Y108.718
G1 X187.657Y108.793
G1 X188.471Y109.002
G1 X189.247Y109.285
G1 X189.982Y109.637
G1 X190.672Y110.053
G1 X191.315Y110.528
G1 X191.907Y111.059
G1 X192.445Y111.641
G1 X192.926Y112.269
G1 X193.347Y112.939
G1 X193.705Y113.646
G1 X193.997Y114.386
G1 X194.218Y115.154
G1 X194.368Y115.946
G1 X194.441Y116.757
G1 X194.436Y117.583
G1 X194.349Y118.419
G1 X194.173Y119.272
G1 X193.917Y120.087
G1 X193.586Y120.86
G1 X193.184Y121.589
G1 X192.717Y122.269
G1 X192.189Y122.897
G1 X191.606Y123.47
G1 X190.971Y123.983
G1 X190.291Y124.434
G1 X189.569Y124.818
G1 X188.811Y125.132
G1 X188.022Y125.373
G1 X187.206Y125.537
G1 X186.368Y125.62
G1 X185.514
G1 X184.648Y125.53
G1 X183.825Y125.361
G1 X183.036Y125.118
G1 X182.285Y124.804
G1 X181.575Y124.423
G1 X180.909Y123.981
G1 X180.291Y123.48
G1 X179.725Y122.926
G1 X179.213Y122.323
G1 X178.759Y121.676
G1 X178.366Y120.988
G1 X178.038Y120.264
G1 X177.778Y119.508
G1 X177.589Y118.725
G1 X177.475Y117.919
G1 X177.438Y117.094
G1 X177.483Y116.255
G1 X177.589Y115.529
G1 X177.754Y114.825
G1 X177.976Y114.144
G1 X178.253Y113.49
G1 X178.58Y112.866
G1 X178.957Y112.273
G1 X179.38Y111.715
G1 X179.846Y111.194
G1 X180.354Y110.713
G1 X180.9Y110.275
G1 X181.483Y109.883
G1 X182.098Y109.538
G1 X182.744Y109.244
G1 X183.418Y109.004
; Layer C00 Pass 6 of 10
G1 X184.118Y108.819
G1 X184.84Y108.694
G1 Y120.298
G1 X187.046
G1 Y108.694
G1 X187.238Y108.718
G1 X187.657Y108.793
G1 X188.471Y109.002
G1 X189.247Y109.285
G1 X189.982Y109.637
G1 X190.672Y110.053
G1 X191.315Y110.528
G1 X191.907Y111.059
G1 X192.445Y111.641
G1 X192.926Y112.269
G1 X193.347Y112.939
G1 X193.705Y113.646
G1 X193.997Y114.386
G1 X194.218Y115.154
G1 X194.368Y115.946
G1 X194.441Y116.757
G1 X194.436Y117.583
G1 X194.349Y118.419
G1 X194.173Y119.272
G1 X193.917Y120.087
G1 X193.586Y120.86
G1 X193.184Y121.589
G1 X192.717Y122.269
G1 X192.189Y122.897
G1 X191.606Y123.47
G1 X190.971Y123.983
G1 X190.291Y124.434
G1 X189.569Y124.818
G1 X188.811Y125.132
G1 X188.022Y125.373
G1 X187.206Y125.537
G1 X186.368Y125.62
G1 X185.514
G1 X184.648Y125.53
G1 X183.825Y125.361
G1 X183.036Y125.118
G1 X182.285Y124.804
G1 X181.575Y124.423
G1 X180.909Y123.981
G1 X180.291Y123.48
G1 X179.725Y122.926
G1 X179.213Y122.323
G1 X178.759Y121.676
G1 X178.366Y120.988
G1 X178.038Y120.264
G1 X177.778Y119.508
G1 X177.589Y118.725
G1 X177.475Y117.919
G1 X177.438Y117.094
G1 X177.483Y116.255
G1 X177.589Y115.529
G1 X177.754Y114.825
G1 X177.976Y114.144
G1 X178.253Y113.49
G1 X178.58Y112.866
G1 X178.957Y112.273
G1 X179.38Y111.715
G1 X179.846Y111.194
G1 X180.354Y110.713
G1 X180.9Y110.275
G1 X181.483Y109.883
G1 X182.098Y109.538
G1 X182.744Y109.244
G1 X183.418Y109.004
; Layer C00 Pass 7 of 10
G1 X184.118Y108.819
G1 X184.84Y108.694
G1 Y120.298
G1 X187.046
G1 Y108.694
G1 X187.238Y108.718
G1 X187.657Y108.793
G1 X188.471Y109.002
G1 X189.247Y109.285
G1 X189.982Y109.637
G1 X190.672Y110.053
G1 X191.315Y110.528
G1 X191.907Y111.059
G1 X192.445Y111.641
G1 X192.926Y112.269
G1 X193.347Y112.939
G1 X193.705Y113.646
G1 X193.997Y114.386
G1 X194.218Y115.154
G1 X194.368Y115.946
G1 X194.441Y116.757
G1 X194.436Y117.583
G1 X194.349Y118.419
G1 X194.173Y119.272
G1 X193.917Y120.087
G1 X193.586Y120.86
G1 X193.184Y121.589
G1 X192.717Y122.269
G1 X192.189Y122.897
G1 X191.606Y123.47
G1 X190.971Y123.983
G1 X190.291Y124.434
G1 X189.569Y124.818
G1 X188.811Y125.132
G1 X188.022Y125.373
G1 X187.206Y125.537
G1 X186.368Y125.62
G1 X185.514
G1 X184.648Y125.53
G1 X183.825Y125.361
G1 X183.036Y125.118
G1 X182.285Y124.804
G1 X181.575Y124.423
G1 X180.909Y123.981
G1 X180.291Y123.48
G1 X179.725Y122.926
G1 X179.213Y122.323
G1 X178.759Y121.676
G1 X178.366Y120.988
G1 X178.038Y120.264
G1 X177.778Y119.508
G1 X177.589Y118.725
G1 X177.475Y117.919
G1 X177.438Y117.094
G1 X177.483Y116.255
G1 X177.589Y115.529
G1 X177.754Y114.825
G1 X177.976Y114.144
G1 X178.253Y113.49
G1 X178.58Y112.866
G1 X178.957Y112.273
G1 X179.38Y111.715
G1 X179.846Y111.194
G1 X180.354Y110.713
G1 X180.9Y110.275
G1 X181.483Y109.883
G1 X182.098Y109.538
G1 X182.744Y109.244
G1 X183.418Y109.004
; Layer C00 Pass 8 of 10
G1 X184.118Y108.819
G1 X184.84Y108.694
G1 Y120.298
G1 X187.046
G1 Y108.694
G1 X187.238Y108.718
G1 X187.657Y108.793
G1 X188.471Y109.002
G1 X189.247Y109.285
G1 X189.982Y109.637
G1 X190.672Y110.053
G1 X191.315Y110.528
G1 X191.907Y111.059
G1 X192.445Y111.641
G1 X192.926Y112.269
G1 X193.347Y112.939
G1 X193.705Y113.646
G1 X193.997Y114.386
G1 X194.218Y115.154
G1 X194.368Y115.946
G1 X194.441Y116.757
G1 X194.436Y117.583
G1 X194.349Y118.419
G1 X194.173Y119.272
G1 X193.917Y120.087
G1 X193.586Y120.86
G1 X193.184Y121.589
G1 X192.717Y122.269
G1 X192.189Y122.897
G1 X191.606Y123.47
G1 X190.971Y123.983
G1 X190.291Y124.434
G1 X189.569Y124.818
G1 X188.811Y125.132
G1 X188.022Y125.373
G1 X187.206Y125.537
G1 X186.368Y125.62
G1 X185.514
G1 X184.648Y125.53
G1 X183.825Y125.361
G1 X183.036Y125.118
G1 X182.285Y124.804
G1 X181.575Y124.423
G1 X180.909Y123.981
G1 X180.291Y123.48
G1 X179.725Y122.926
G1 X179.213Y122.323
G1 X178.759Y121.676
G1 X178.366Y120.988
G1 X178.038Y120.264
G1 X177.778Y119.508
G1 X177.589Y118.725
G1 X177.475Y117.919
G1 X177.438Y117.094
G1 X177.483Y116.255
G1 X177.589Y115.529
G1 X177.754Y114.825
G1 X177.976Y114.144
G1 X178.253Y113.49
G1 X178.58Y112.866
G1 X178.957Y112.273
G1 X179.38Y111.715
G1 X179.846Y111.194
G1 X180.354Y110.713
G1 X180.9Y110.275
G1 X181.483Y109.883
G1 X182.098Y109.538
G1 X182.744Y109.244
G1 X183.418Y109.004
; Layer C00 Pass 9 of 10
G1 X184.118Y108.819
G1 X184.84Y108.694
G1 Y120.298
G1 X187.046
G1 Y108.694
G1 X187.238Y108.718
G1 X187.657Y108.793
G1 X188.471Y109.002
G1 X189.247Y109.285
G1 X189.982Y109.637
G1 X190.672Y110.053
G1 X191.315Y110.528
G1 X191.907Y111.059
G1 X192.445Y111.641
G1 X192.926Y112.269
G1 X193.347Y112.939
G1 X193.705Y113.646
G1 X193.997Y114.386
G1 X194.218Y115.154
G1 X194.368Y115.946
G1 X194.441Y116.757
G1 X194.436Y117.583
G1 X194.349Y118.419
G1 X194.173Y119.272
G1 X193.917Y120.087
G1 X193.586Y120.86
G1 X193.184Y121.589
G1 X192.717Y122.269
G1 X192.189Y122.897
G1 X191.606Y123.47
G1 X190.971Y123.983
G1 X190.291Y124.434
G1 X189.569Y124.818
G1 X188.811Y125.132
G1 X188.022Y125.373
G1 X187.206Y125.537
G1 X186.368Y125.62
G1 X185.514
G1 X184.648Y125.53
G1 X183.825Y125.361
G1 X183.036Y125.118
G1 X182.285Y124.804
G1 X181.575Y124.423
G1 X180.909Y123.981
G1 X180.291Y123.48
G1 X179.725Y122.926
G1 X179.213Y122.323
G1 X178.759Y121.676
G1 X178.366Y120.988
G1 X178.038Y120.264
G1 X177.778Y119.508
G1 X177.589Y118.725
G1 X177.475Y117.919
G1 X177.438Y117.094
G1 X177.483Y116.255
G1 X177.589Y115.529
G1 X177.754Y114.825
G1 X177.976Y114.144
G1 X178.253Y113.49
G1 X178.58Y112.866
G1 X178.957Y112.273
G1 X179.38Y111.715
G1 X179.846Y111.194
G1 X180.354Y110.713
G1 X180.9Y110.275
G1 X181.483Y109.883
G1 X182.098Y109.538
G1 X182.744Y109.244
G1 X183.418Y109.004
; Layer C00 Pass 10 of 10
G1 X184.118Y108.819
G1 X184.84Y108.694
G1 Y120.298
G1 X187.046
G1 Y108.694
G1 X187.238Y108.718
G1 X187.657Y108.793
G1 X188.471Y109.002
G1 X189.247Y109.285
G1 X189.982Y109.637
G1 X190.672Y110.053
G1 X191.315Y110.528
G1 X191.907Y111.059
G1 X192.445Y111.641
G1 X192.926Y112.269
G1 X193.347Y112.939
G1 X193.705Y113.646
G1 X193.997Y114.386
G1 X194.218Y115.154
G1 X194.368Y115.946
G1 X194.441Y116.757
G1 X194.436Y117.583
G1 X194.349Y118.419
G1 X194.173Y119.272
G1 X193.917Y120.087
G1 X193.586Y120.86
G1 X193.184Y121.589
G1 X192.717Y122.269
G1 X192.189Y122.897
G1 X191.606Y123.47
G1 X190.971Y123.983
G1 X190.291Y124.434
G1 X189.569Y124.818
G1 X188.811Y125.132
G1 X188.022Y125.373
G1 X187.206Y125.537
G1 X186.368Y125.62
G1 X185.514
G1 X184.648Y125.53
G1 X183.825Y125.361
G1 X183.036Y125.118
G1 X182.285Y124.804
G1 X181.575Y124.423
G1 X180.909Y123.981
G1 X180.291Y123.48
G1 X179.725Y122.926
G1 X179.213Y122.323
G1 X178.759Y121.676
G1 X178.366Y120.988
G1 X178.038Y120.264
G1 X177.778Y119.508
G1 X177.589Y118.725
G1 X177.475Y117.919
G1 X177.438Y117.094
G1 X177.483Y116.255
G1 X177.589Y115.529
G1 X177.754Y114.825
G1 X177.976Y114.144
G1 X178.253Y113.49
G1 X178.58Y112.866
G1 X178.957Y112.273
G1 X179.38Y111.715
G1 X179.846Y111.194
G1 X180.354Y110.713
G1 X180.9Y110.275
G1 X181.483Y109.883
G1 X182.098Y109.538
G1 X182.744Y109.244
G1 X183.418Y109.004
G0 X173.926Y112.269
; Layer C00 Pass 1 of 10
G1 X174.347Y112.939
G1 X174.705Y113.646
G1 X174.997Y114.386
G1 X175.218Y115.154
G1 X175.368Y115.946
G1 X175.441Y116.757
G1 X175.436Y117.583
G1 X175.349Y118.419
G1 X175.173Y119.272
G1 X174.917Y120.087
G1 X174.586Y120.86
G1 X174.184Y121.589
G1 X173.717Y122.269
G1 X173.189Y122.897
G1 X172.606Y123.47
G1 X171.971Y123.983
G1 X171.291Y124.434
G1 X170.569Y124.818
G1 X169.811Y125.132
G1 X169.022Y125.373
G1 X168.206Y125.537
G1 X167.368Y125.62
G1 X166.514
G1 X165.648Y125.53
G1 X164.825Y125.361
G1 X164.036Y125.118
G1 X163.285Y124.804
G1 X162.575Y124.423
G1 X161.909Y123.981
G1 X161.291Y123.48
G1 X160.725Y122.926
G1 X160.213Y122.323
G1 X159.759Y121.676
G1 X159.366Y120.988
G1 X159.038Y120.264
G1 X158.778Y119.508
G1 X158.589Y118.725
G1 X158.475Y117.919
G1 X158.438Y117.094
G1 X158.483Y116.255
G1 X158.589Y115.529
G1 X158.754Y114.825
G1 X158.976Y114.144
G1 X159.253Y113.49
G1 X159.58Y112.866
G1 X159.957Y112.273
G1 X160.38Y111.715
G1 X160.846Y111.194
G1 X161.354Y110.713
G1 X161.9Y110.275
G1 X162.483Y109.883
G1 X163.098Y109.538
G1 X163.744Y109.244
G1 X164.418Y109.004
G1 X165.118Y108.819
G1 X165.84Y108.694
G1 Y120.298
G1 X168.046
G1 Y108.694
G1 X168.238Y108.718
G1 X168.657Y108.793
G1 X169.471Y109.002
G1 X170.247Y109.285
G1 X170.982Y109.637
G1 X171.672Y110.053
G1 X172.315Y110.528
G1 X172.907Y111.059
G1 X173.445Y111.641
G1 X173.926Y112.269
; Layer C00 Pass 2 of 10
G1 X174.347Y112.939
G1 X174.705Y113.646
G1 X174.997Y114.386
G1 X175.218Y115.154
G1 X175.368Y115.946
G1 X175.441Y116.757
G1 X175.436Y117.583
G1 X175.349Y118.419
G1 X175.173Y119.272
G1 X174.917Y120.087
G1 X174.586Y120.86
G1 X174.184Y121.589
G1 X173.717Y122.269
G1 X173.189Y122.897
G1 X172.606Y123.47
G1 X171.971Y123.983
G1 X171.291Y124.434
G1 X170.569Y124.818
G1 X169.811Y125.132
G1 X169.022Y125.373
G1 X168.206Y125.537
G1 X167.368Y125.62
G1 X166.514
G1 X165.648Y125.53
G1 X164.825Y125.361
G1 X164.036Y125.118
G1 X163.285Y124.804
G1 X162.575Y124.423
G1 X161.909Y123.981
G1 X161.291Y123.48
G1 X160.725Y122.926
G1 X160.213Y122.323
G1 X159.759Y121.676
G1 X159.366Y120.988
G1 X159.038Y120.264
G1 X158.778Y119.508
G1 X158.589Y118.725
G1 X158.475Y117.919
G1 X158.438Y117.094
G1 X158.483Y116.255
G1 X158.589Y115.529
G1 X158.754Y114.825
G1 X158.976Y114.144
G1 X159.253Y113.49
G1 X159.58Y112.866
G1 X159.957Y112.273
G1 X160.38Y111.715
G1 X160.846Y111.194
G1 X161.354Y110.713
G1 X161.9Y110.275
G1 X162.483Y109.883
G1 X163.098Y109.538
G1 X163.744Y109.244
G1 X164.418Y109.004
G1 X165.118Y108.819
G1 X165.84Y108.694
G1 Y120.298
G1 X168.046
G1 Y108.694
G1 X168.238Y108.718
G1 X168.657Y108.793
G1 X169.471Y109.002
G1 X170.247Y109.285
G1 X170.982Y109.637
G1 X171.672Y110.053
G1 X172.315Y110.528
G1 X172.907Y111.059
G1 X173.445Y111.641
G1 X173.926Y112.269
; Layer C00 Pass 3 of 10
G1 X174.347Y112.939
G1 X174.705Y113.646
G1 X174.997Y114.386
G1 X175.218Y115.154
G1 X175.368Y115.946
G1 X175.441Y116.757
G1 X175.436Y117.583
G1 X175.349Y118.419
G1 X175.173Y119.272
G1 X174.917Y120.087
G1 X174.586Y120.86
G1 X174.184Y121.589
G1 X173.717Y122.269
G1 X173.189Y122.897
G1 X172.606Y123.47
G1 X171.971Y123.983
G1 X171.291Y124.434
G1 X170.569Y124.818
G1 X169.811Y125.132
G1 X169.022Y125.373
G1 X168.206Y125.537
G1 X167.368Y125.62
G1 X166.514
G1 X165.648Y125.53
G1 X164.825Y125.361
G1 X164.036Y125.118
G1 X163.285Y124.804
G1 X162.575Y124.423
G1 X161.909Y123.981
G1 X161.291Y123.48
G1 X160.725Y122.926
G1 X160.213Y122.323
G1 X159.759Y121.676
G1 X159.366Y120.988
G1 X159.038Y120.264
G1 X158.778Y119.508
G1 X158.589Y118.725
G1 X158.475Y117.919
G1 X158.438Y117.094
G1 X158.483Y116.255
G1 X158.589Y115.529
G1 X158.754Y114.825
G1 X158.976Y114.144
G1 X159.253Y113.49
G1 X159.58Y112.866
G1 X159.957Y112.273
G1 X160.38Y111.715
G1 X160.846Y111.194
G1 X161.354Y110.713
G1 X161.9Y110.275
G1 X162.483Y109.883
G1 X163.098Y109.538
G1 X163.744Y109.244
G1 X164.418Y109.004
G1 X165.118Y108.819
G1 X165.84Y108.694
G1 Y120.298
G1 X168.046
G1 Y108.694
G1 X168.238Y108.718
G1 X168.657Y108.793
G1 X169.471Y109.002
G1 X170.247Y109.285
G1 X170.982Y109.637
G1 X171.672Y110.053
G1 X172.315Y110.528
G1 X172.907Y111.059
G1 X173.445Y111.641
G1 X173.926Y112.269
; Layer C00 Pass 4 of 10
G1 X174.347Y112.939
G1 X174.705Y113.646
G1 X174.997Y114.386
G1 X175.218Y115.154
G1 X175.368Y115.946
G1 X175.441Y116.757
G1 X175.436Y117.583
G1 X175.349Y118.419
G1 X175.173Y119.272
G1 X174.917Y120.087
G1 X174.586Y120.86
G1 X174.184Y121.589
G1 X173.717Y122.269
G1 X173.189Y122.897
G1 X172.606Y123.47
G1 X171.971Y123.983
G1 X171.291Y124.434
G1 X170.569Y124.818
G1 X169.811Y125.132
G1 X169.022Y125.373
G1 X168.206Y125.537
G1 X167.368Y125.62
G1 X166.514
G1 X165.648Y125.53
G1 X164.825Y125.361
G1 X164.036Y125.118
G1 X163.285Y124.804
G1 X162.575Y124.423
G1 X161.909Y123.981
G1 X161.291Y123.48
G1 X160.725Y122.926
G1 X160.213Y122.323
G1 X159.759Y121.676
G1 X159.366Y120.988
G1 X159.038Y120.264
G1 X158.778Y119.508
G1 X158.589Y118.725
G1 X158.475Y117.919
G1 X158.438Y117.094
G1 X158.483Y116.255
G1 X158.589Y115.529
G1 X158.754Y114.825
G1 X158.976Y114.144
G1 X159.253Y113.49
G1 X159.58Y112.866
G1 X159.957Y112.273
G1 X160.38Y111.715
G1 X160.846Y111.194
G1 X161.354Y110.713
G1 X161.9Y110.275
G1 X162.483Y109.883
G1 X163.098Y109.538
G1 X163.744Y109.244
G1 X164.418Y109.004
G1 X165.118Y108.819
G1 X165.84Y108.694
G1 Y120.298
G1 X168.046
G1 Y108.694
G1 X168.238Y108.718
G1 X168.657Y108.793
G1 X169.471Y109.002
G1 X170.247Y109.285
G1 X170.982Y109.637
G1 X171.672Y110.053
G1 X172.315Y110.528
G1 X172.907Y111.059
G1 X173.445Y111.641
G1 X173.926Y112.269
; Layer C00 Pass 5 of 10
G1 X174.347Y112.939
G1 X174.705Y113.646
G1 X174.997Y114.386
G1 X175.218Y115.154
G1 X175.368Y115.946
G1 X175.441Y116.757
G1 X175.436Y117.583
G1 X175.349Y118.419
G1 X175.173Y119.272
G1 X174.917Y120.087
G1 X174.586Y120.86
G1 X174.184Y121.589
G1 X173.717Y122.269
G1 X173.189Y122.897
G1 X172.606Y123.47
G1 X171.971Y123.983
G1 X171.291Y124.434
G1 X170.569Y124.818
G1 X169.811Y125.132
G1 X169.022Y125.373
G1 X168.206Y125.537
G1 X167.368Y125.62
